;FLAVOR:Marlin
;TIME:4680
;Filament used: 8.1537m
;Layer height: 0.3
;MINX:52.354
;MINY:59.124
;MINZ:0.3
;MAXX:157.652
;MAXY:150.889
;MAXZ:12.975
;Generated with Cura_SteamEngine 5.0.0
M140 S60
M105
M190 S60
M104 S200
M105
M109 S200
M82 ;absolute extrusion mode
G21 ;metric values
G90 ;absolute positioning
M82 ;set extruder to absolute mode
M107 ;start with the fan off
G28 X0 Y0 ;move X/Y to min endstops
G28 Z0 ;move Z to min endstops
G1 Z15.0 F100 ;move the platform down 15mm
G92 E0 ;zero the extruded length
G1 F200 E3 ;extrude 3mm of feed stock
G92 E0 ;zero the extruded length again
G1 F100
G0 Y20 F100
M117 Printing...
G5
G92 E0
G92 E0
G1 F2400 E-6
;LAYER_COUNT:43
;LAYER:0
M107
M204 S3000
M205 X10 Y10
G1 F600 Z0.375
G0 F3000 X66.213 Y61.908 Z0.375
G1 F600 Z0.3
G0 F3000 X63.529 Y66.014
M204 S1800
M205 X8 Y8
;TYPE:SKIRT
G1 F2400 E0
G1 X65.134 Y63.311 E0.21957
G1 X65.588 Y62.646 E0.27581
G1 X66.213 Y61.908 E0.34336
G1 X66.927 Y61.279 E0.40982
G1 X67.818 Y60.654 E0.48584
G1 X68.44 Y60.321 E0.53511
G1 X69.195 Y59.992 E0.59264
G1 X69.686 Y59.822 E0.62893
G1 X70.752 Y59.529 E0.70615
G1 X71.446 Y59.395 E0.75552
G1 X72.041 Y59.296 E0.79765
G1 X72.554 Y59.232 E0.83375
G1 X73.358 Y59.167 E0.89009
G1 X74.068 Y59.128 E0.93976
G1 X74.69 Y59.124 E0.98321
G1 X75.279 Y59.149 E1.02438
G1 X76.334 Y59.282 E1.09865
G1 X76.891 Y59.4 E1.13842
G1 X80.354 Y60.27 E1.38781
G1 X82.963 Y60.845 E1.57442
G1 X85.516 Y61.333 E1.75596
G1 X88.134 Y61.756 E1.94119
G1 X90.751 Y62.104 E2.12559
G1 X93.403 Y62.38 E2.31182
G1 X96.046 Y62.581 E2.49696
G1 X98.68 Y62.705 E2.68114
G1 X101.324 Y62.755 E2.86584
G1 X103.967 Y62.73 E3.05046
G1 X106.644 Y62.63 E3.23756
G1 X109.245 Y62.458 E3.41963
G1 X111.919 Y62.206 E3.60723
G1 X114.535 Y61.884 E3.79132
G1 X117.116 Y61.492 E3.97367
G1 X119.775 Y61.01 E4.16241
G1 X121.932 Y60.567 E4.31622
G1 X122.976 Y60.426 E4.3898
G1 X123.609 Y60.395 E4.43406
G1 X124.248 Y60.385 E4.4787
G1 X124.952 Y60.413 E4.52791
G1 X125.512 Y60.472 E4.56724
G1 X126.161 Y60.562 E4.61301
G1 X126.865 Y60.7 E4.66311
G1 X127.472 Y60.862 E4.70699
G1 X128.074 Y61.045 E4.75094
G1 X128.755 Y61.295 E4.80161
G1 X129.299 Y61.536 E4.84317
G1 X129.799 Y61.778 E4.88197
G1 X130.459 Y62.147 E4.93478
G1 X131.36 Y62.73 E5.00974
G1 X132.139 Y63.325 E5.0782
G1 X132.648 Y63.827 E5.12814
G1 X133.098 Y64.383 E5.1781
G1 X133.385 Y64.817 E5.21444
G1 X133.734 Y65.395 E5.2616
G1 X135.129 Y67.638 E5.44609
G1 X136.597 Y69.853 E5.63169
G1 X138.12 Y72.018 E5.81658
G1 X139.717 Y74.156 E6.00297
G1 X141.331 Y76.194 E6.18455
G1 X143.074 Y78.272 E6.37399
G1 X144.132 Y79.512 E6.48784
G1 X144.695 Y80.282 E6.55446
G1 X145.148 Y81.085 E6.61886
G1 X145.443 Y81.796 E6.67263
G1 X145.662 Y82.47 E6.72213
G1 X146.518 Y85.869 E6.96695
G1 X147.238 Y88.426 E7.15249
G1 X147.869 Y90.461 E7.3013
G1 X148.655 Y92.878 E7.47882
G1 X148.852 Y93.64 E7.53379
G1 X149.382 Y96.375 E7.72838
G1 X149.956 Y98.962 E7.91346
G1 X150.611 Y101.547 E8.09972
G1 X151.329 Y104.081 E8.28368
G1 X152.131 Y106.636 E8.47072
G1 X152.984 Y109.106 E8.65324
G1 X153.924 Y111.597 E8.8392
G1 X154.92 Y114.025 E9.02251
G1 X156.471 Y117.472 E9.28652
G1 X156.921 Y118.492 E9.36438
G1 X157.318 Y119.78 E9.45852
G1 X157.45 Y120.408 E9.50334
G1 X157.552 Y121.058 E9.5493
G1 X157.61 Y121.645 E9.5905
G1 X157.648 Y122.338 E9.63898
G1 X157.652 Y123.234 E9.70156
G1 X157.637 Y123.746 E9.73733
G1 X157.61 Y124.182 E9.76785
G1 X157.499 Y125.302 E9.84646
G1 X157.341 Y126.719 E9.94604
G1 X157.116 Y129.404 E10.13424
G1 X156.972 Y132.005 E10.31619
G1 X156.899 Y134.686 E10.50351
G1 X156.903 Y137.326 E10.68791
G1 X156.981 Y139.963 E10.87217
G1 X157.114 Y142.328 E11.03762
G1 X157.162 Y143.017 E11.08586
G1 X157.171 Y143.732 E11.13581
G1 X157.101 Y144.444 E11.18578
G1 X156.952 Y145.144 E11.23576
G1 X156.726 Y145.822 E11.28568
G1 X156.425 Y146.471 E11.33565
G1 X156.054 Y147.083 E11.38564
G1 X155.617 Y147.649 E11.43558
G1 X154.907 Y148.351 E11.50532
G1 X153.681 Y149.38 E11.61711
G1 X153.095 Y149.79 E11.66707
G1 X152.467 Y150.132 E11.71701
G1 X151.804 Y150.402 E11.76701
G1 X151.116 Y150.596 E11.81694
G1 X150.41 Y150.711 E11.8669
G1 X149.594 Y150.747 E11.92395
G1 X148.567 Y150.726 E11.9957
G1 X145.92 Y150.708 E12.18059
G1 X141.982 Y150.817 E12.45575
G1 X140.758 Y150.873 E12.54133
G1 X139.677 Y150.889 E12.61684
G1 X139.221 Y150.879 E12.6487
G1 X137.728 Y150.8 E12.75313
G1 X136.868 Y150.715 E12.81349
G1 X136.274 Y150.63 E12.8554
G1 X135.522 Y150.504 E12.90865
G1 X134.744 Y150.341 E12.96417
G1 X133.84 Y150.114 E13.02928
G1 X133.122 Y149.901 E13.08159
G1 X132.146 Y149.567 E13.15364
G1 X131.526 Y149.327 E13.20007
G1 X130.557 Y148.909 E13.27378
G1 X129.871 Y148.581 E13.32689
G1 X129.051 Y148.159 E13.39131
G1 X128.401 Y147.789 E13.44355
G1 X127.456 Y147.207 E13.52106
G1 X126.44 Y146.558 E13.60527
G1 X125.607 Y146.043 E13.67367
G1 X123.254 Y144.633 E13.86527
G1 X120.945 Y143.337 E14.05021
G1 X118.603 Y142.109 E14.23492
G1 X116.234 Y140.95 E14.41912
G1 X113.825 Y139.855 E14.60395
G1 X111.368 Y138.821 E14.79014
G1 X108.888 Y137.86 E14.97591
G1 X106.405 Y136.978 E15.15995
G1 X103.894 Y136.164 E15.34432
G1 X101.376 Y135.425 E15.52761
G1 X98.775 Y134.742 E15.71544
G1 X96.24 Y134.152 E15.89724
G1 X93.605 Y133.618 E16.08502
G1 X91.002 Y133.166 E16.26955
G1 X88.72 Y132.83 E16.43066
G1 X85.303 Y132.368 E16.6715
G1 X84.755 Y132.27 E16.71038
G1 X83.989 Y132.089 E16.76535
G1 X83.163 Y131.857 E16.82528
G1 X82.824 Y131.751 E16.85009
G1 X79.283 Y130.541 E17.11146
G1 X76.737 Y129.751 E17.29765
G1 X74.196 Y129.041 E17.48193
G1 X71.638 Y128.404 E17.66605
G1 X69.702 Y127.98 E17.80448
G1 X68.896 Y127.791 E17.8623
G1 X68.316 Y127.632 E17.9043
G1 X67.593 Y127.376 E17.95788
G1 X66.699 Y126.994 E18.02578
G1 X66.061 Y126.687 E18.07523
G1 X64.961 Y126.097 E18.16242
G1 X64.152 Y125.583 E18.22936
G1 X63.6 Y125.168 E18.2776
G1 X62.611 Y124.306 E18.36923
G1 X62.175 Y123.85 E18.4133
G1 X61.811 Y123.449 E18.45113
G1 X61.416 Y122.969 E18.49454
G1 X61.037 Y122.457 E18.53904
G1 X60.603 Y121.849 E18.59121
G1 X60.513 Y121.737 E18.60125
G1 X59.608 Y120.467 E18.71017
G1 X57.798 Y118.067 E18.92013
G1 X57.483 Y117.637 E18.95736
G1 X56.725 Y116.474 E19.05432
G1 X56.434 Y115.989 E19.09383
G1 X56.169 Y115.495 E19.13298
G1 X55.789 Y114.693 E19.19497
G1 X55.582 Y114.221 E19.23097
G1 X55.341 Y113.581 E19.27873
G1 X55.14 Y112.937 E19.32585
G1 X54.891 Y111.968 E19.39573
G1 X54.693 Y110.902 E19.47146
G1 X54.528 Y109.82 E19.54791
G1 X54.09 Y107.203 E19.73324
G1 X53.793 Y105.633 E19.84484
G1 X53.7 Y104.924 E19.89479
G1 X53.685 Y104.244 E19.9423
G1 X53.726 Y102.94 E20.03342
G1 X53.77 Y100.313 E20.21693
G1 X53.739 Y97.633 E20.40413
G1 X53.634 Y94.995 E20.58853
G1 X53.457 Y92.383 E20.77139
G1 X53.198 Y89.695 E20.96001
G1 X52.877 Y87.129 E21.14063
G1 X52.631 Y85.57 E21.25087
G1 X52.602 Y85.281 E21.27115
G1 X52.425 Y84.148 E21.35125
G1 X52.354 Y83.436 E21.40123
G1 X52.363 Y82.721 E21.45117
G1 X52.452 Y82.011 E21.50115
G1 X52.62 Y81.316 E21.55109
G1 X52.864 Y80.643 E21.60109
G1 X53.182 Y80.002 E21.65107
G1 X53.569 Y79.401 E21.701
G1 X53.889 Y78.996 E21.73705
G1 X55.825 Y76.737 E21.94485
G1 X57.483 Y74.685 E22.12911
G1 X59.096 Y72.569 E22.31495
G1 X60.648 Y70.408 E22.50078
G1 X62.123 Y68.226 E22.68474
G1 X63.529 Y66.014 E22.86781
M204 S3000
M205 X10 Y10
G1 F2400 E16.86781
G0 F3000 X61.095 Y70.746
M204 S1800
M205 X8 Y8
G1 F2400 E22.86781
G1 X62.592 Y68.533 E23.05442
G1 X64.017 Y66.289 E23.24009
G1 X65.616 Y63.597 E23.45878
G1 X66.03 Y62.99 E23.5101
G1 X66.635 Y62.278 E23.57536
G1 X67.265 Y61.725 E23.63391
G1 X67.562 Y61.5 E23.65994
G1 X68.418 Y60.962 E23.73055
G1 X69.385 Y60.518 E23.80488
G1 X70.254 Y60.231 E23.8688
G1 X70.86 Y60.078 E23.91245
G1 X71.537 Y59.947 E23.96061
G1 X72.132 Y59.848 E24.00274
G1 X73.219 Y59.738 E24.07906
G1 X74.099 Y59.687 E24.14062
G1 X74.667 Y59.683 E24.1803
G1 X75.256 Y59.708 E24.22147
G1 X76.218 Y59.83 E24.2892
G1 X77.068 Y60.018 E24.35001
G1 X77.549 Y60.146 E24.38477
G1 X80.233 Y60.817 E24.57801
G1 X82.848 Y61.394 E24.76505
G1 X85.425 Y61.886 E24.9483
G1 X88.045 Y62.309 E25.13366
G1 X90.688 Y62.661 E25.3199
G1 X93.373 Y62.94 E25.50844
G1 X95.978 Y63.138 E25.69092
G1 X98.679 Y63.265 E25.87978
G1 X101.319 Y63.315 E26.06421
G1 X103.993 Y63.29 E26.25099
G1 X106.667 Y63.189 E26.43789
G1 X109.3 Y63.016 E26.62219
G1 X111.966 Y62.764 E26.80923
G1 X114.583 Y62.442 E26.9934
G1 X117.224 Y62.041 E27.17997
G1 X119.87 Y61.562 E27.36779
G1 X122.031 Y61.119 E27.52187
G1 X123.009 Y60.985 E27.59082
G1 X123.618 Y60.955 E27.6334
G1 X124.257 Y60.945 E27.67804
G1 X124.899 Y60.97 E27.72292
G1 X125.435 Y61.026 E27.76056
G1 X126.084 Y61.116 E27.80632
G1 X126.727 Y61.243 E27.8521
G1 X127.31 Y61.397 E27.89422
G1 X127.912 Y61.58 E27.93817
G1 X128.533 Y61.809 E27.98439
G1 X129.055 Y62.04 E28.02427
G1 X129.555 Y62.282 E28.06306
G1 X130.158 Y62.619 E28.11131
G1 X131.038 Y63.189 E28.18454
G1 X131.791 Y63.765 E28.25076
G1 X132.274 Y64.248 E28.29847
G1 X132.696 Y64.785 E28.34617
G1 X134.649 Y67.927 E28.60457
G1 X136.132 Y70.166 E28.79215
G1 X137.685 Y72.373 E28.98064
G1 X139.247 Y74.463 E29.16288
G1 X140.907 Y76.56 E29.34969
G1 X142.648 Y78.635 E29.53888
G1 X143.706 Y79.875 E29.65273
G1 X144.22 Y80.578 E29.71355
G1 X144.656 Y81.354 E29.77572
G1 X144.921 Y81.998 E29.82436
G1 X145.121 Y82.613 E29.86953
G1 X145.979 Y86.021 E30.115
G1 X146.703 Y88.59 E30.30142
G1 X147.323 Y90.591 E30.44774
G1 X148.123 Y93.051 E30.62842
G1 X148.302 Y93.747 E30.67861
G1 X148.834 Y96.494 E30.87405
G1 X149.408 Y99.078 E31.05893
G1 X150.071 Y101.692 E31.24729
G1 X150.79 Y104.234 E31.4318
G1 X151.599 Y106.81 E31.62039
G1 X152.462 Y109.31 E31.80512
G1 X153.397 Y111.787 E31.99004
G1 X154.403 Y114.239 E32.17516
G1 X155.975 Y117.732 E32.4427
G1 X156.393 Y118.681 E32.51513
G1 X156.77 Y119.895 E32.60392
G1 X156.902 Y120.523 E32.64874
G1 X156.995 Y121.117 E32.69073
G1 X157.051 Y121.685 E32.7306
G1 X157.088 Y122.344 E32.7767
G1 X157.092 Y123.218 E32.83775
G1 X157.077 Y123.73 E32.87352
G1 X157.052 Y124.128 E32.90138
G1 X156.943 Y125.24 E32.97942
G1 X156.782 Y126.683 E33.08083
G1 X156.558 Y129.361 E33.26853
G1 X156.412 Y131.995 E33.45279
G1 X156.339 Y134.672 E33.63984
G1 X156.343 Y137.344 E33.82647
G1 X156.421 Y139.972 E34.01011
G1 X156.558 Y142.413 E34.18087
G1 X156.603 Y143.056 E34.22589
G1 X156.61 Y143.739 E34.2736
G1 X156.538 Y144.419 E34.32136
G1 X156.387 Y145.085 E34.36906
G1 X156.159 Y145.729 E34.41677
G1 X155.857 Y146.342 E34.4645
G1 X155.486 Y146.916 E34.51224
G1 X155.051 Y147.442 E34.55991
G1 X154.545 Y147.924 E34.60873
G1 X153.335 Y148.94 E34.71908
G1 X152.774 Y149.33 E34.7668
G1 X152.171 Y149.652 E34.81455
G1 X151.535 Y149.901 E34.86226
G1 X150.874 Y150.074 E34.90998
G1 X150.198 Y150.169 E34.95766
G1 X149.605 Y150.187 E34.9991
G1 X148.581 Y150.166 E35.07063
G1 X145.908 Y150.148 E35.25734
G1 X141.94 Y150.258 E35.53459
G1 X140.748 Y150.313 E35.61794
G1 X139.684 Y150.329 E35.69226
G1 X139.248 Y150.32 E35.72272
G1 X137.778 Y150.243 E35.82554
G1 X136.945 Y150.161 E35.884
G1 X136.367 Y150.078 E35.92479
G1 X135.615 Y149.952 E35.97804
G1 X134.864 Y149.794 E36.03165
G1 X133.978 Y149.571 E36.09546
G1 X133.287 Y149.366 E36.1458
G1 X132.329 Y149.038 E36.21653
G1 X131.734 Y148.807 E36.26111
G1 X130.796 Y148.402 E36.33247
G1 X130.128 Y148.083 E36.38418
G1 X129.308 Y147.661 E36.44859
G1 X128.684 Y147.306 E36.49873
G1 X127.757 Y146.735 E36.57478
G1 X126.764 Y146.101 E36.65707
G1 X125.825 Y145.52 E36.73419
G1 X123.538 Y144.149 E36.92043
G1 X121.229 Y142.854 E37.10534
G1 X118.859 Y141.61 E37.2923
G1 X116.462 Y140.438 E37.47866
G1 X114.067 Y139.35 E37.66239
G1 X111.568 Y138.298 E37.85177
G1 X109.082 Y137.334 E38.03801
G1 X106.609 Y136.456 E38.2213
G1 X104.057 Y135.629 E38.40868
G1 X101.49 Y134.876 E38.59553
G1 X98.942 Y134.206 E38.77954
G1 X96.342 Y133.601 E38.966
G1 X93.709 Y133.068 E39.15363
G1 X91.1 Y132.615 E39.33859
G1 X88.801 Y132.276 E39.5009
G1 X85.378 Y131.813 E39.74216
G1 X84.878 Y131.724 E39.77763
G1 X84.141 Y131.549 E39.83054
G1 X83.315 Y131.317 E39.89047
G1 X83.005 Y131.221 E39.91313
G1 X79.453 Y130.007 E40.17532
G1 X76.909 Y129.218 E40.36136
G1 X74.347 Y128.502 E40.54716
G1 X71.756 Y127.856 E40.73367
G1 X69.83 Y127.435 E40.87137
G1 X69.024 Y127.246 E40.92919
G1 X68.471 Y127.094 E40.96925
G1 X67.811 Y126.861 E41.01814
G1 X66.935 Y126.486 E41.08469
G1 X66.324 Y126.193 E41.13202
G1 X65.241 Y125.612 E41.21787
G1 X64.485 Y125.132 E41.28041
G1 X63.951 Y124.731 E41.32706
G1 X63.014 Y123.918 E41.4137
G1 X62.59 Y123.473 E41.45663
G1 X62.226 Y123.072 E41.49446
G1 X61.866 Y122.634 E41.53406
G1 X61.493 Y122.131 E41.5778
G1 X61.04 Y121.495 E41.63234
G1 X60.969 Y121.412 E41.63997
G1 X60.064 Y120.141 E41.74895
G1 X58.25 Y117.736 E41.95935
G1 X57.935 Y117.306 E41.99658
G1 X57.197 Y116.173 E42.09103
G1 X56.915 Y115.703 E42.12931
G1 X56.674 Y115.252 E42.16503
G1 X56.302 Y114.469 E42.22557
G1 X56.095 Y113.997 E42.26157
G1 X55.875 Y113.412 E42.30523
G1 X55.679 Y112.784 E42.35118
G1 X55.441 Y111.863 E42.41762
G1 X55.247 Y110.817 E42.49192
G1 X55.095 Y109.819 E42.56243
G1 X54.641 Y107.107 E42.75449
G1 X54.343 Y105.529 E42.86666
G1 X54.256 Y104.851 E42.9144
G1 X54.245 Y104.261 E42.95562
G1 X54.285 Y102.996 E43.04402
G1 X54.33 Y100.313 E43.23144
G1 X54.299 Y97.605 E43.4206
G1 X54.196 Y95.005 E43.60234
G1 X54.011 Y92.29 E43.79241
G1 X53.759 Y89.676 E43.97584
G1 X53.429 Y87.033 E44.16188
G1 X53.184 Y85.482 E44.27155
G1 X53.158 Y85.215 E44.29029
G1 X52.978 Y84.061 E44.37186
G1 X52.912 Y83.381 E44.41958
G1 X52.926 Y82.698 E44.4673
G1 X53.02 Y82.021 E44.51504
G1 X53.193 Y81.36 E44.56276
G1 X53.441 Y80.724 E44.61044
G1 X53.762 Y80.121 E44.65815
G1 X54.314 Y79.36 E44.72382
G1 X56.259 Y77.091 E44.93256
G1 X57.93 Y75.022 E45.11831
G1 X59.552 Y72.894 E45.3052
G1 X61.095 Y70.746 E45.48993
M204 S3000
M205 X10 Y10
G1 F2400 E39.48993
G0 F3000 X58.368 Y75.372
M204 S1800
M205 X8 Y8
G1 F2400 E45.48993
G1 X60.005 Y73.224 E45.67856
G1 X61.554 Y71.068 E45.86398
G1 X63.062 Y68.837 E46.05207
G1 X64.486 Y66.597 E46.23746
G1 X66.097 Y63.883 E46.45791
G1 X66.471 Y63.334 E46.50431
G1 X67.056 Y62.649 E46.56722
G1 X67.604 Y62.171 E46.61801
G1 X68.674 Y61.46 E46.70774
G1 X69.575 Y61.045 E46.77703
G1 X70.42 Y60.766 E46.83918
G1 X70.968 Y60.627 E46.87867
G1 X71.629 Y60.5 E46.92569
G1 X72.224 Y60.401 E46.96782
G1 X73.266 Y60.296 E47.04096
G1 X74.129 Y60.246 E47.10134
G1 X74.643 Y60.243 E47.13724
G1 X75.232 Y60.268 E47.17842
G1 X76.102 Y60.378 E47.23967
G1 X76.924 Y60.559 E47.29846
G1 X77.461 Y60.702 E47.33727
G1 X80.087 Y61.359 E47.52634
G1 X82.725 Y61.94 E47.71501
G1 X85.335 Y62.438 E47.9006
G1 X87.956 Y62.862 E48.08605
G1 X90.626 Y63.217 E48.27418
G1 X93.308 Y63.496 E48.46252
G1 X95.981 Y63.699 E48.64975
G1 X98.641 Y63.824 E48.83575
G1 X101.314 Y63.875 E49.02248
G1 X104.02 Y63.85 E49.2115
G1 X106.655 Y63.751 E49.39567
G1 X109.354 Y63.573 E49.5846
G1 X112.018 Y63.321 E49.7715
G1 X114.696 Y62.992 E49.95995
G1 X117.339 Y62.59 E50.14668
G1 X119.965 Y62.115 E50.33307
G1 X122.13 Y61.67 E50.48745
G1 X123.042 Y61.544 E50.55175
G1 X123.626 Y61.515 E50.59259
G1 X124.265 Y61.505 E50.63723
G1 X124.846 Y61.528 E50.67784
G1 X125.358 Y61.581 E50.7138
G1 X126.007 Y61.671 E50.75956
G1 X126.588 Y61.785 E50.80092
G1 X127.147 Y61.933 E50.8413
G1 X127.749 Y62.116 E50.88525
G1 X128.311 Y62.323 E50.92708
G1 X128.811 Y62.544 E50.96527
G1 X129.311 Y62.786 E51.00406
G1 X129.856 Y63.091 E51.04769
G1 X130.717 Y63.647 E51.11927
G1 X131.442 Y64.204 E51.18313
G1 X131.897 Y64.668 E51.22852
G1 X132.426 Y65.396 E51.29138
G1 X132.776 Y65.976 E51.33869
G1 X134.176 Y68.226 E51.52378
G1 X135.667 Y70.478 E51.71243
G1 X137.222 Y72.689 E51.90123
G1 X138.82 Y74.827 E52.08766
G1 X140.469 Y76.909 E52.27317
G1 X142.222 Y78.999 E52.4637
G1 X143.28 Y80.239 E52.57755
G1 X143.745 Y80.875 E52.63258
G1 X144.163 Y81.621 E52.6923
G1 X144.399 Y82.2 E52.73598
G1 X144.579 Y82.756 E52.77679
G1 X145.438 Y86.164 E53.02228
G1 X146.167 Y88.753 E53.21014
G1 X146.79 Y90.764 E53.35719
G1 X147.59 Y93.224 E53.53787
G1 X147.753 Y93.853 E53.58325
G1 X148.294 Y96.647 E53.78202
G1 X148.863 Y99.208 E53.96526
G1 X149.53 Y101.838 E54.15477
G1 X150.258 Y104.41 E54.34148
G1 X151.051 Y106.937 E54.52646
G1 X151.94 Y109.513 E54.7168
G1 X152.875 Y111.99 E54.90173
