;FLAVOR:Marlin
;TIME:3219
;Filament used: 5.32084m
;Layer height: 0.3
;MINX:32.304
;MINY:75.409
;MINZ:0.3
;MAXX:178.435
;MAXY:133.498
;MAXZ:9.075
;Generated with Cura_SteamEngine 5.0.0
M140 S60
M105
M190 S60
M104 S200
M105
M109 S200
M82 ;absolute extrusion mode
G21 ;metric values
G90 ;absolute positioning
M82 ;set extruder to absolute mode
M107 ;start with the fan off
G28 X0 Y0 ;move X/Y to min endstops
G28 Z0 ;move Z to min endstops
G1 Z15.0 F100 ;move the platform down 15mm
G92 E0 ;zero the extruded length
G1 F200 E3 ;extrude 3mm of feed stock
G92 E0 ;zero the extruded length again
G1 F100
G0 Y20 F100
M117 Printing...
G5
G92 E0
G92 E0
G1 F2400 E-6
;LAYER_COUNT:30
;LAYER:0
M107
M204 S3000
M205 X10 Y10
G1 F600 Z0.375
G0 F3000 X39.416 Y76.001 Z0.375
G1 F600 Z0.3
G0 F3000 X35.707 Y81.688
M204 S1800
M205 X8 Y8
;TYPE:SKIRT
G1 F2400 E0
G1 X35.76 Y80.975 E0.04994
G1 X35.893 Y80.272 E0.09991
G1 X36.103 Y79.588 E0.14989
G1 X36.388 Y78.932 E0.19984
G1 X36.745 Y78.312 E0.24981
G1 X37.169 Y77.736 E0.29977
G1 X37.654 Y77.21 E0.34974
G1 X38.195 Y76.742 E0.39971
G1 X38.784 Y76.337 E0.44963
G1 X39.416 Y76.001 E0.49963
G1 X40.08 Y75.737 E0.54954
G1 X40.77 Y75.549 E0.59949
G1 X41.477 Y75.439 E0.64946
G1 X42.192 Y75.409 E0.69945
G1 X42.905 Y75.458 E0.74936
G1 X43.609 Y75.587 E0.79935
G1 X44.515 Y75.879 E0.86584
G1 X47.509 Y77.057 E1.09056
G1 X49.967 Y77.94 E1.27299
G1 X52.504 Y78.772 E1.45947
G1 X55.048 Y79.526 E1.6448
G1 X57.597 Y80.204 E1.82903
G1 X60.211 Y80.821 E2.01663
G1 X62.764 Y81.347 E2.19869
G1 X65.374 Y81.809 E2.38382
G1 X67.992 Y82.196 E2.56867
G1 X70.624 Y82.51 E2.75381
G1 X73.253 Y82.748 E2.93818
G1 X75.924 Y82.914 E3.1251
G1 X78.533 Y83.002 E3.30743
G1 X81.212 Y83.017 E3.49456
G1 X83.815 Y82.958 E3.67641
G1 X86.495 Y82.82 E3.86385
G1 X89.125 Y82.611 E4.04812
G1 X91.764 Y82.326 E4.23352
G1 X94.362 Y81.971 E4.41667
G1 X96.999 Y81.533 E4.60337
G1 X99.586 Y81.029 E4.78746
G1 X102.149 Y80.456 E4.9709
G1 X104.767 Y79.788 E5.15962
G1 X107.255 Y79.08 E5.34029
G1 X109.814 Y78.273 E5.52771
G1 X113.094 Y77.119 E5.77057
G1 X114.086 Y76.751 E5.84447
G1 X114.77 Y76.54 E5.89446
G1 X115.472 Y76.406 E5.94438
G1 X116.209 Y76.352 E5.996
G1 X117.115 Y76.338 E6.05929
G1 X121.456 Y76.339 E6.36249
G1 X122.163 Y76.35 E6.41188
G1 X122.876 Y76.401 E6.4618
G1 X123.579 Y76.531 E6.51174
G1 X124.128 Y76.691 E6.55168
G1 X125.411 Y77.128 E6.64635
G1 X127.983 Y77.96 E6.83516
G1 X130.54 Y78.708 E7.02124
G1 X133.054 Y79.366 E7.20275
G1 X136.289 Y80.092 E7.43432
G1 X136.385 Y80.119 E7.44129
G1 X138.09 Y80.491 E7.56317
G1 X139.096 Y80.739 E7.63554
G1 X140.025 Y80.995 E7.70285
G1 X140.977 Y81.283 E7.77232
G1 X141.965 Y81.612 E7.84505
G1 X142.878 Y81.945 E7.91293
G1 X143.811 Y82.312 E7.98296
G1 X144.726 Y82.701 E8.0524
G1 X145.643 Y83.119 E8.12279
G1 X146.541 Y83.559 E8.19264
G1 X147.415 Y84.015 E8.26149
G1 X148.046 Y84.365 E8.31189
G1 X150.379 Y85.613 E8.49669
G1 X151.281 Y86.065 E8.56716
G1 X152.38 Y86.641 E8.65383
G1 X152.994 Y87.008 E8.70379
G1 X153.494 Y87.383 E8.74744
G1 X154.176 Y88.001 E8.81173
G1 X154.569 Y88.448 E8.8533
G1 X155.392 Y89.479 E8.94544
G1 X157.07 Y91.537 E9.13091
G1 X158.811 Y93.553 E9.31696
G1 X160.596 Y95.507 E9.50181
G1 X162.449 Y97.422 E9.68794
G1 X164.322 Y99.252 E9.87083
G1 X166.274 Y101.054 E10.05639
G1 X168.264 Y102.789 E10.24079
G1 X169.089 Y103.468 E10.31542
G1 X170.522 Y104.69 E10.44696
G1 X171.255 Y105.363 E10.51647
G1 X171.807 Y105.903 E10.5704
G1 X172.384 Y106.501 E10.62844
G1 X173.008 Y107.192 E10.69347
G1 X173.61 Y107.905 E10.75865
G1 X174.114 Y108.541 E10.81533
G1 X174.67 Y109.293 E10.88065
G1 X175.132 Y109.963 E10.9375
G1 X175.677 Y110.806 E11.00761
G1 X176.486 Y112.15 E11.11718
G1 X176.868 Y112.837 E11.17208
G1 X177.113 Y113.324 E11.21016
G1 X177.409 Y114.004 E11.26196
G1 X177.67 Y114.697 E11.31368
G1 X177.889 Y115.392 E11.36458
G1 X178.063 Y116.055 E11.41245
G1 X178.213 Y116.772 E11.46362
G1 X178.323 Y117.479 E11.51359
G1 X178.4 Y118.234 E11.5666
G1 X178.435 Y118.927 E11.61506
G1 X178.403 Y119.932 E11.6853
G1 X178.267 Y120.837 E11.74922
G1 X178.111 Y121.415 E11.79103
G1 X177.786 Y122.297 E11.85669
G1 X177.456 Y122.932 E11.90667
G1 X177.114 Y123.461 E11.95067
G1 X176.682 Y124.031 E12.00062
G1 X176.189 Y124.55 E12.05062
G1 X175.718 Y124.957 E12.0941
G1 X175.142 Y125.381 E12.14405
G1 X174.401 Y125.8 E12.20351
G1 X173.603 Y126.139 E12.26407
G1 X172.864 Y126.388 E12.31854
G1 X172.204 Y126.582 E12.36659
G1 X171.327 Y126.792 E12.42957
G1 X170.589 Y126.93 E12.48201
G1 X169.832 Y127.035 E12.53539
G1 X169.097 Y127.105 E12.58696
G1 X168.353 Y127.142 E12.63899
G1 X167.588 Y127.146 E12.69243
G1 X166.86 Y127.119 E12.74331
G1 X166.502 Y127.092 E12.76838
G1 X162.843 Y126.722 E13.02526
G1 X160.2 Y126.529 E13.21035
G1 X157.525 Y126.409 E13.39738
G1 X154.918 Y126.367 E13.57949
G1 X152.24 Y126.399 E13.76655
G1 X149.599 Y126.506 E13.95117
G1 X146.958 Y126.687 E14.13606
G1 X144.333 Y126.942 E14.32027
G1 X141.711 Y127.272 E14.50486
G1 X139.083 Y127.679 E14.6906
G1 X136.483 Y128.156 E14.87523
G1 X133.893 Y128.708 E15.0602
G1 X131.331 Y129.329 E15.24432
G1 X128.771 Y130.029 E15.42969
G1 X126.222 Y130.803 E15.61576
G1 X122.122 Y132.184 E15.91794
G1 X121.185 Y132.465 E15.98626
G1 X120.446 Y132.662 E16.03968
G1 X119.582 Y132.864 E16.10166
G1 X118.758 Y133.03 E16.16037
G1 X117.889 Y133.178 E16.22194
G1 X117.01 Y133.298 E16.2839
G1 X116.173 Y133.386 E16.34268
G1 X115.277 Y133.452 E16.40544
G1 X114.459 Y133.487 E16.46262
G1 X113.582 Y133.498 E16.52388
G1 X112.706 Y133.482 E16.58508
G1 X111.865 Y133.44 E16.64389
G1 X110.965 Y133.366 E16.70697
G1 X110.227 Y133.282 E16.75885
G1 X109.026 Y133.109 E16.8436
G1 X108.384 Y132.994 E16.88915
G1 X107.209 Y132.69 E16.97392
G1 X106.543 Y132.452 E17.02332
G1 X105.146 Y131.933 E17.12741
G1 X102.616 Y131.073 E17.31405
G1 X100.108 Y130.298 E17.4974
G1 X97.545 Y129.587 E17.68318
G1 X94.924 Y128.939 E17.87176
G1 X92.392 Y128.387 E18.05276
G1 X89.778 Y127.894 E18.23856
G1 X87.171 Y127.479 E18.42294
G1 X84.543 Y127.136 E18.60805
G1 X81.917 Y126.869 E18.79242
G1 X79.285 Y126.677 E18.97674
G1 X76.604 Y126.556 E19.16419
G1 X73.998 Y126.513 E19.34623
G1 X71.319 Y126.545 E19.53336
G1 X68.679 Y126.651 E19.71791
G1 X66.043 Y126.831 E19.90245
G1 X63.406 Y127.087 E20.0875
G1 X60.795 Y127.414 E20.27129
G1 X58.158 Y127.822 E20.45767
G1 X55.562 Y128.298 E20.64201
G1 X52.98 Y128.846 E20.82637
G1 X50.431 Y129.465 E21.00959
G1 X47.848 Y130.171 E21.19662
G1 X45.296 Y130.945 E21.38288
G1 X42.794 Y131.782 E21.56716
G1 X40.878 Y132.474 E21.70944
G1 X40.193 Y132.679 E21.75939
G1 X39.489 Y132.807 E21.80936
G1 X38.776 Y132.855 E21.85928
G1 X38.061 Y132.823 E21.90927
G1 X37.354 Y132.711 E21.95926
G1 X36.665 Y132.522 E22.00917
G1 X36.001 Y132.256 E22.05913
G1 X35.37 Y131.919 E22.10909
G1 X34.781 Y131.513 E22.15906
G1 X34.241 Y131.043 E22.20906
G1 X33.757 Y130.517 E22.25899
G1 X33.335 Y129.94 E22.30892
G1 X32.98 Y129.319 E22.35888
G1 X32.696 Y128.662 E22.40887
G1 X32.487 Y127.978 E22.45883
G1 X32.356 Y127.275 E22.50877
G1 X32.304 Y126.562 E22.55871
G1 X32.332 Y125.847 E22.60868
G1 X32.506 Y124.857 E22.67889
G1 X32.719 Y124.032 E22.7384
G1 X33.19 Y122.274 E22.86552
G1 X33.812 Y119.653 E23.05368
G1 X34.343 Y117.098 E23.23595
G1 X34.804 Y114.513 E23.41935
G1 X35.201 Y111.858 E23.60685
G1 X35.515 Y109.243 E23.79081
G1 X35.758 Y106.61 E23.9755
G1 X35.924 Y104.002 E24.15803
G1 X36.052 Y99.545 E24.46946
G1 X36.106 Y98.708 E24.52804
G1 X36.239 Y96.047 E24.71413
G1 X36.297 Y93.439 E24.89634
G1 X36.28 Y90.76 E25.08346
G1 X36.187 Y88.101 E25.2693
G1 X36.022 Y85.489 E25.4521
G1 X35.734 Y82.403 E25.66858
G1 X35.707 Y81.688 E25.71856
M204 S3000
M205 X10 Y10
G0 F3000 X36.268 Y81.668
M204 S1800
M205 X8 Y8
G1 F2400 X36.324 Y80.987 E25.76628
G1 X36.459 Y80.317 E25.81402
G1 X36.672 Y79.668 E25.86173
G1 X36.959 Y79.048 E25.90945
G1 X37.317 Y78.466 E25.95717
G1 X37.74 Y77.929 E26.00492
G1 X38.223 Y77.446 E26.05263
G1 X38.759 Y77.022 E26.10036
G1 X39.341 Y76.664 E26.14809
G1 X39.96 Y76.376 E26.19577
G1 X40.609 Y76.163 E26.24348
G1 X41.279 Y76.027 E26.29124
G1 X41.96 Y75.97 E26.33897
G1 X42.643 Y75.993 E26.3867
G1 X43.318 Y76.095 E26.43438
G1 X43.977 Y76.276 E26.48211
G1 X47.304 Y77.579 E26.73168
G1 X49.801 Y78.476 E26.917
G1 X52.325 Y79.303 E27.10251
G1 X54.879 Y80.061 E27.28859
G1 X57.468 Y80.749 E27.4757
G1 X60.072 Y81.363 E27.66256
G1 X62.663 Y81.897 E27.84734
G1 X65.298 Y82.364 E28.03425
G1 X67.917 Y82.751 E28.21917
G1 X70.573 Y83.068 E28.40599
G1 X73.205 Y83.306 E28.59058
G1 X75.87 Y83.472 E28.77708
G1 X78.546 Y83.562 E28.9641
G1 X81.186 Y83.576 E29.14849
G1 X83.891 Y83.515 E29.33747
G1 X86.498 Y83.381 E29.5198
G1 X89.192 Y83.167 E29.70856
G1 X91.83 Y82.882 E29.89389
G1 X94.46 Y82.523 E30.07929
G1 X97.088 Y82.087 E30.26535
G1 X99.705 Y81.577 E30.45158
G1 X102.273 Y81.002 E30.63539
G1 X104.88 Y80.338 E30.82329
G1 X107.432 Y79.611 E31.00863
G1 X109.991 Y78.804 E31.19604
G1 X113.297 Y77.641 E31.44083
G1 X114.281 Y77.276 E31.51413
G1 X114.934 Y77.076 E31.56183
G1 X115.607 Y76.954 E31.6096
G1 X116.218 Y76.912 E31.65238
G1 X117.115 Y76.898 E31.71504
G1 X121.447 Y76.899 E32.01761
G1 X122.154 Y76.91 E32.067
G1 X122.835 Y76.96 E32.11469
G1 X123.506 Y77.09 E32.16243
G1 X123.947 Y77.221 E32.19457
G1 X125.232 Y77.659 E32.28939
G1 X127.831 Y78.499 E32.48017
G1 X130.344 Y79.234 E32.66304
G1 X132.933 Y79.912 E32.84997
G1 X136.167 Y80.638 E33.08148
G1 X136.275 Y80.669 E33.08932
G1 X137.957 Y81.035 E33.20956
G1 X138.948 Y81.279 E33.28084
G1 X139.864 Y81.532 E33.34722
G1 X140.801 Y81.815 E33.41558
G1 X141.774 Y82.139 E33.48721
G1 X142.675 Y82.467 E33.55418
G1 X143.593 Y82.828 E33.62308
G1 X144.495 Y83.211 E33.69153
G1 X145.398 Y83.623 E33.76085
G1 X146.283 Y84.056 E33.82967
G1 X147.144 Y84.505 E33.89749
G1 X147.736 Y84.833 E33.94476
G1 X150.143 Y86.122 E34.13547
G1 X151.021 Y86.561 E34.20404
G1 X152.12 Y87.137 E34.2907
G1 X152.706 Y87.489 E34.33845
G1 X153.136 Y87.814 E34.37609
G1 X153.794 Y88.411 E34.43815
G1 X154.131 Y88.798 E34.47399
G1 X154.916 Y89.782 E34.56191
G1 X156.642 Y91.899 E34.75269
G1 X158.403 Y93.939 E34.94093
G1 X160.176 Y95.879 E35.12449
G1 X162.033 Y97.798 E35.31101
G1 X163.965 Y99.685 E35.49964
G1 X165.885 Y101.458 E35.68218
G1 X167.903 Y103.217 E35.86915
G1 X168.727 Y103.895 E35.94369
G1 X170.144 Y105.104 E36.07379
G1 X170.864 Y105.764 E36.14201
G1 X171.406 Y106.294 E36.19496
G1 X171.97 Y106.879 E36.25171
G1 X172.581 Y107.555 E36.31536
G1 X173.172 Y108.254 E36.37929
G1 X173.665 Y108.876 E36.43473
G1 X174.21 Y109.612 E36.49869
G1 X174.663 Y110.268 E36.55438
G1 X175.199 Y111.096 E36.62327
G1 X175.997 Y112.422 E36.73136
G1 X176.379 Y113.109 E36.78627
G1 X176.775 Y113.938 E36.85044
G1 X177.029 Y114.568 E36.89788
G1 X177.266 Y115.262 E36.9491
G1 X177.446 Y115.894 E36.995
G1 X177.604 Y116.574 E37.04376
G1 X177.722 Y117.227 E37.09011
G1 X177.815 Y117.976 E37.14283
G1 X177.864 Y118.639 E37.18926
G1 X177.878 Y119.192 E37.2279
G1 X177.846 Y119.873 E37.27552
G1 X177.713 Y120.746 E37.3372
G1 X177.578 Y121.244 E37.37324
G1 X177.262 Y122.096 E37.43671
G1 X176.793 Y122.934 E37.50378
G1 X176.235 Y123.692 E37.56952
G1 X175.53 Y124.385 E37.63857
G1 X174.81 Y124.93 E37.70164
G1 X174.159 Y125.295 E37.75377
G1 X173.418 Y125.61 E37.81001
G1 X172.706 Y125.851 E37.86251
G1 X172.046 Y126.045 E37.91056
G1 X171.205 Y126.246 E37.97096
G1 X170.491 Y126.379 E38.02168
G1 X169.76 Y126.48 E38.07323
G1 X169.049 Y126.547 E38.12311
G1 X168.33 Y126.583 E38.17339
G1 X167.59 Y126.586 E38.22508
G1 X166.885 Y126.559 E38.27435
G1 X166.559 Y126.535 E38.29719
G1 X162.87 Y126.162 E38.55616
G1 X160.231 Y125.969 E38.74098
G1 X157.559 Y125.85 E38.92779
G1 X154.92 Y125.807 E39.11214
G1 X152.21 Y125.839 E39.30144
G1 X149.575 Y125.946 E39.48563
G1 X146.936 Y126.127 E39.67039
G1 X144.244 Y126.388 E39.8593
G1 X141.63 Y126.717 E40.04332
G1 X139 Y127.124 E40.2292
G1 X136.368 Y127.608 E40.41612
G1 X133.755 Y128.164 E40.60271
G1 X131.229 Y128.777 E40.78427
G1 X128.596 Y129.496 E40.9749
G1 X126.076 Y130.262 E41.15887
G1 X121.96 Y131.648 E41.46222
G1 X121.039 Y131.925 E41.52939
G1 X120.317 Y132.117 E41.58157
G1 X119.469 Y132.315 E41.6424
G1 X118.663 Y132.479 E41.69985
G1 X117.811 Y132.623 E41.7602
G1 X116.949 Y132.742 E41.82098
G1 X116.13 Y132.828 E41.8785
G1 X115.251 Y132.893 E41.94006
G1 X114.45 Y132.927 E41.99606
G1 X113.59 Y132.938 E42.05613
G1 X112.732 Y132.923 E42.11607
G1 X111.908 Y132.881 E42.17369
G1 X111.026 Y132.81 E42.2355
G1 X110.306 Y132.728 E42.28611
G1 X109.123 Y132.557 E42.3696
G1 X108.496 Y132.445 E42.41409
G1 X107.397 Y132.162 E42.49335
G1 X106.738 Y131.927 E42.54222
G1 X105.312 Y131.397 E42.64848
G1 X102.817 Y130.549 E42.83253
G1 X100.246 Y129.755 E43.02048
G1 X97.685 Y129.044 E43.20612
G1 X95.076 Y128.399 E43.39383
G1 X92.505 Y127.839 E43.57762
G1 X89.866 Y127.341 E43.7652
G1 X87.262 Y126.926 E43.94937
G1 X84.602 Y126.579 E44.13674
G1 X81.942 Y126.309 E44.32348
G1 X79.316 Y126.117 E44.50739
G1 X76.639 Y125.997 E44.69456
G1 X74 Y125.953 E44.87891
G1 X71.289 Y125.985 E45.06827
G1 X68.652 Y126.091 E45.25261
G1 X66.023 Y126.271 E45.43666
G1 X63.352 Y126.53 E45.6241
G1 X60.675 Y126.866 E45.81254
G1 X58.08 Y127.267 E45.99594
G1 X55.454 Y127.748 E46.18241
G1 X52.868 Y128.298 E46.36707
G1 X50.287 Y128.924 E46.55257
G1 X47.681 Y129.636 E46.74126
G1 X45.132 Y130.409 E46.92731
G1 X42.604 Y131.255 E47.11351
G1 X40.688 Y131.947 E47.25579
G1 X40.033 Y132.142 E47.30353
G1 X39.36 Y132.258 E47.35123
G1 X38.677 Y132.295 E47.399
G1 X37.996 Y132.252 E47.44666
G1 X37.323 Y132.13 E47.49443
G1 X36.67 Y131.93 E47.54213
G1 X36.045 Y131.655 E47.58983
G1 X35.455 Y131.309 E47.6376
G1 X34.911 Y130.896 E47.68531
G1 X34.418 Y130.423 E47.73303
G1 X33.984 Y129.895 E47.78076
G1 X33.614 Y129.321 E47.82846
G1 X33.315 Y128.707 E47.87616
G1 X33.088 Y128.062 E47.92392
G1 X32.939 Y127.395 E47.97166
G1 X32.869 Y126.716 E48.01934
G1 X32.878 Y126.033 E48.06704
G1 X32.967 Y125.355 E48.11481
G1 X33.246 Y124.229 E48.19583
G1 X33.735 Y122.404 E48.3278
G1 X34.356 Y119.785 E48.5158
G1 X34.893 Y117.201 E48.70014
G1 X35.359 Y114.591 E48.88532
G1 X35.755 Y111.939 E49.0726
G1 X36.073 Y109.292 E49.25882
G1 X36.316 Y106.659 E49.4435
G1 X36.484 Y104.026 E49.62778
G1 X36.611 Y99.581 E49.93838
G1 X36.661 Y98.802 E49.9929
G1 X36.798 Y96.087 E50.18277
G1 X36.856 Y93.412 E50.36965
G1 X36.839 Y90.737 E50.5565
G1 X36.748 Y88.102 E50.74065
G1 X36.582 Y85.468 E50.92499
G1 X36.291 Y82.351 E51.14365
G1 X36.268 Y81.668 E51.19138
M204 S3000
M205 X10 Y10
G0 F3000 X36.828 Y81.649
M204 S1800
M205 X8 Y8
G1 F2400 X36.888 Y81.003 E51.2367
G1 X37.026 Y80.368 E51.28208
G1 X37.242 Y79.755 E51.32748
G1 X37.53 Y79.173 E51.37284
G1 X37.889 Y78.631 E51.41824
G1 X38.311 Y78.137 E51.46362
G1 X38.79 Y77.699 E51.50896
G1 X39.32 Y77.323 E51.55435
G1 X39.892 Y77.015 E51.59972
G1 X40.497 Y76.779 E51.64508
G1 X41.127 Y76.62 E51.69046
G1 X41.771 Y76.539 E51.7358
G1 X42.421 Y76.537 E51.7812
G1 X43.066 Y76.616 E51.82659
G1 X43.696 Y76.773 E51.87194
G1 X44.578 Y77.113 E51.93796
G1 X47.119 Y78.107 E52.12853
G1 X49.615 Y79.004 E52.31379
G1 X52.168 Y79.841 E52.50144
G1 X54.721 Y80.598 E52.68743
G1 X57.331 Y81.292 E52.87607
G1 X59.974 Y81.916 E53.06575
G1 X62.556 Y82.448 E53.24988
G1 X65.193 Y82.914 E53.43692
G1 X67.838 Y83.306 E53.62368
G1 X70.529 Y83.627 E53.81297
G1 X73.152 Y83.864 E53.99692
G1 X75.854 Y84.032 E54.18601
G1 X78.524 Y84.122 E54.3726
G1 X81.195 Y84.137 E54.55917
G1 X83.897 Y84.075 E54.74794
G1 X86.571 Y83.938 E54.93495
G1 X89.227 Y83.727 E55.12105
G1 X91.892 Y83.439 E55.30827
G1 X94.523 Y83.079 E55.49375
G1 X97.183 Y82.638 E55.68208
G1 X99.824 Y82.123 E55.87002
G1 X102.43 Y81.541 E56.05652
G1 X105.027 Y80.878 E56.24373
G1 X107.619 Y80.141 E56.43195
G1 X110.132 Y79.348 E56.616
G1 X113.501 Y78.163 E56.86545
G1 X114.476 Y77.801 E56.93809
G1 X115.098 Y77.613 E56.98348
G1 X115.738 Y77.502 E57.02884
G1 X117.029 Y77.459 E57.11907
G1 X121.438 Y77.459 E57.42702
G1 X122.145 Y77.47 E57.47641
G1 X122.793 Y77.52 E57.5218
G1 X123.429 Y77.649 E57.56713
G1 X123.766 Y77.751 E57.59172
G1 X125.078 Y78.198 E57.68853
G1 X127.636 Y79.025 E57.8763
G1 X130.222 Y79.781 E58.06449
G1 X132.784 Y80.452 E58.24947
G1 X136.044 Y81.184 E58.48284
G1 X136.149 Y81.214 E58.49046
