;FLAVOR:Marlin
;TIME:2626
;Filament used: 2.25684m
;Layer height: 0.2
;MINX:31.433
;MINY:71.571
;MINZ:0.2
;MAXX:178.563
;MAXY:138.432
;MAXZ:8.8
;Generated with Cura_SteamEngine 5.0.0
M140 S60
M105
M190 S60
M104 S200
M105
M109 S200
M82 ;absolute extrusion mode
G21 ;metric values
G90 ;absolute positioning
M82 ;set extruder to absolute mode
M107 ;start with the fan off
G28 X0 Y0 ;move X/Y to min endstops
G28 Z0 ;move Z to min endstops
G1 Z15.0 F100 ;move the platform down 15mm
G92 E0 ;zero the extruded length
G1 F200 E3 ;extrude 3mm of feed stock
G92 E0 ;zero the extruded length again
G1 F100
G0 Y20 F100
M117 Printing...
G5
G92 E0
G92 E0
G1 F2400 E-6
;LAYER_COUNT:44
;LAYER:0
M107
M204 S3000
M205 X10 Y10
G1 F600 Z0.275
G0 F3000 X35.119 Y81.986 Z0.275
G1 F600 Z0.2
G0 F3000 X31.434 Y88.383
M204 S1800
M205 X8 Y8
;TYPE:SKIRT
G1 F2400 E0
G1 X31.443 Y87.694 E0.03209
G1 X31.492 Y86.981 E0.06536
G1 X31.62 Y86.277 E0.09868
G1 X31.827 Y85.592 E0.132
G1 X32.108 Y84.935 E0.16528
G1 X32.461 Y84.313 E0.19858
G1 X32.882 Y83.734 E0.23191
G1 X33.364 Y83.206 E0.2652
G1 X33.902 Y82.735 E0.2985
G1 X34.489 Y82.326 E0.33181
G1 X35.119 Y81.986 E0.36515
G1 X35.782 Y81.719 E0.39843
G1 X36.471 Y81.527 E0.43173
G1 X37.177 Y81.413 E0.46503
G1 X37.984 Y81.372 E0.50266
G1 X56.626 Y81.369 E1.37071
G1 X59.288 Y81.331 E1.49468
G1 X61.928 Y81.219 E1.61772
G1 X64.573 Y81.032 E1.74119
G1 X67.23 Y80.768 E1.86552
G1 X69.845 Y80.434 E1.98827
G1 X72.441 Y80.026 E2.11063
G1 X75.048 Y79.541 E2.23411
G1 X77.656 Y78.98 E2.35833
G1 X80.179 Y78.362 E2.47928
G1 X82.764 Y77.651 E2.60412
G1 X85.32 Y76.868 E2.7286
G1 X87.792 Y76.034 E2.85008
G1 X90.22 Y75.14 E2.97056
G1 X90.932 Y74.867 E3.00606
G1 X91.488 Y74.683 E3.03333
G1 X92.47 Y74.452 E3.08031
G1 X93.77 Y74.248 E3.14158
G1 X102.498 Y73.061 E3.55174
G1 X103.676 Y72.918 E3.60699
G1 X105.414 Y72.733 E3.68838
G1 X108.07 Y72.373 E3.81318
G1 X110.997 Y71.906 E3.9512
G1 X112.055 Y71.781 E4.00081
G1 X112.769 Y71.737 E4.03412
G1 X113.145 Y71.746 E4.05163
G1 X114.496 Y71.818 E4.11463
G1 X117.21 Y71.928 E4.24111
G1 X119.888 Y71.961 E4.36582
G1 X122.491 Y71.92 E4.48704
G1 X125.157 Y71.801 E4.6113
G1 X128.124 Y71.583 E4.74983
G1 X128.839 Y71.571 E4.78313
G1 X129.672 Y71.64 E4.82205
G1 X129.942 Y71.671 E4.8347
G1 X171.096 Y77.367 E6.76927
G1 X171.718 Y77.462 E6.79857
G1 X172.584 Y77.641 E6.83975
G1 X173.272 Y77.836 E6.87305
G1 X174.028 Y78.152 E6.9112
G1 X174.894 Y78.626 E6.95717
G1 X175.529 Y79.082 E6.99357
G1 X176.076 Y79.542 E7.02685
G1 X176.556 Y80.046 E7.05926
G1 X177.147 Y80.8 E7.10387
G1 X177.437 Y81.27 E7.12959
G1 X177.952 Y82.277 E7.18225
G1 X178.2 Y82.979 E7.21692
G1 X178.429 Y83.92 E7.26202
G1 X178.516 Y84.64 E7.29579
G1 X178.546 Y85.141 E7.31916
G1 X178.557 Y85.772 E7.34854
G1 X178.556 Y95.182 E7.78671
G1 X178.543 Y95.923 E7.82122
G1 X178.507 Y96.498 E7.84805
G1 X178.443 Y97.081 E7.87536
G1 X178.225 Y98.78 E7.95512
G1 X177.966 Y101.371 E8.07637
G1 X177.776 Y104.041 E8.20101
G1 X177.662 Y106.686 E8.32429
G1 X177.623 Y109.321 E8.447
G1 X177.66 Y111.973 E8.5705
G1 X177.77 Y114.604 E8.69312
G1 X177.956 Y117.238 E8.81607
G1 X178.351 Y121.016 E8.99295
G1 X178.511 Y122.323 E9.05426
G1 X178.558 Y123.068 E9.08902
G1 X178.563 Y124.386 E9.15039
G1 X178.551 Y125.109 E9.18406
G1 X178.488 Y125.904 E9.2212
G1 X178.293 Y126.992 E9.27267
G1 X177.979 Y127.913 E9.31798
G1 X177.506 Y128.913 E9.36949
G1 X176.996 Y129.676 E9.41222
G1 X176.241 Y130.584 E9.46721
G1 X175.51 Y131.227 E9.51254
G1 X174.55 Y131.901 E9.56716
G1 X173.615 Y132.356 E9.61558
G1 X172.504 Y132.746 E9.67041
G1 X171.687 Y132.907 E9.70918
G1 X170.661 Y133.003 E9.75717
G1 X169.405 Y133.027 E9.81566
G1 X104.341 Y133.021 E12.84531
G1 X103.636 Y133.011 E12.87814
G1 X103.258 Y132.995 E12.89576
G1 X101.491 Y132.865 E12.97826
G1 X98.87 Y132.721 E13.10049
G1 X96.193 Y132.65 E13.22519
G1 X93.55 Y132.655 E13.34826
G1 X90.904 Y132.734 E13.47152
G1 X88.274 Y132.887 E13.59419
G1 X85.631 Y133.117 E13.71773
G1 X82.98 Y133.423 E13.84199
G1 X80.38 Y133.798 E13.96431
G1 X77.774 Y134.249 E14.08746
G1 X75.147 Y134.78 E14.21226
G1 X74.556 Y134.908 E14.24041
G1 X74.212 Y134.973 E14.25671
G1 X72.512 Y135.245 E14.33688
G1 X51.427 Y138.206 E15.32832
G1 X50.214 Y138.353 E15.38522
G1 X49.069 Y138.426 E15.43864
G1 X48.47 Y138.432 E15.46653
G1 X47.567 Y138.385 E15.50864
G1 X46.455 Y138.249 E15.5608
G1 X45.961 Y138.161 E15.58417
G1 X45.361 Y138.029 E15.61277
G1 X44.367 Y137.75 E15.66085
G1 X43.543 Y137.46 E15.70152
G1 X42.792 Y137.142 E15.7395
G1 X42.248 Y136.881 E15.76759
G1 X41.277 Y136.341 E15.81933
G1 X40.342 Y135.722 E15.87154
G1 X39.939 Y135.421 E15.89497
G1 X39.455 Y135.029 E15.92397
G1 X38.675 Y134.32 E15.97305
G1 X37.913 Y133.513 E16.02473
G1 X37.239 Y132.684 E16.07448
G1 X36.737 Y131.972 E16.11505
G1 X36.33 Y131.314 E16.15107
G1 X36.023 Y130.762 E16.18048
G1 X35.55 Y129.779 E16.23128
G1 X35.15 Y128.756 E16.28243
G1 X34.821 Y127.666 E16.33544
G1 X34.7 Y127.168 E16.35931
G1 X34.58 Y126.566 E16.38789
G1 X34.432 Y125.509 E16.43759
G1 X34.362 Y124.377 E16.4904
G1 X34.382 Y120.894 E16.65259
G1 X34.325 Y118.216 E16.77731
G1 X34.193 Y115.578 E16.9003
G1 X33.989 Y112.97 E17.02211
G1 X33.705 Y110.312 E17.14659
G1 X33.35 Y107.695 E17.26956
G1 X32.92 Y105.08 E17.39296
G1 X32.418 Y102.488 E17.5159
G1 X31.821 Y99.814 E17.64348
G1 X31.615 Y98.943 E17.68515
G1 X31.489 Y98.239 E17.71846
G1 X31.446 Y97.664 E17.7453
G1 X31.433 Y97.139 E17.76976
G1 X31.434 Y88.383 E18.17747
M204 S3000
M205 X10 Y10
G0 F3000 X31.993 Y88.391
M204 S1800
M205 X8 Y8
G1 F2400 X32.002 Y87.702 E18.20956
G1 X32.051 Y87.02 E18.2414
G1 X32.179 Y86.349 E18.27321
G1 X32.385 Y85.698 E18.305
G1 X32.665 Y85.075 E18.33681
G1 X33.017 Y84.488 E18.36868
G1 X33.434 Y83.947 E18.40048
G1 X33.911 Y83.459 E18.43226
G1 X34.443 Y83.029 E18.46411
G1 X35.021 Y82.665 E18.49592
G1 X35.637 Y82.37 E18.52772
G1 X36.284 Y82.15 E18.55954
G1 X36.952 Y82.006 E18.59136
G1 X37.678 Y81.94 E18.62531
G1 X38.163 Y81.929 E18.64789
G1 X56.634 Y81.929 E19.50798
G1 X59.285 Y81.892 E19.63144
G1 X61.992 Y81.777 E19.7576
G1 X64.595 Y81.592 E19.87911
G1 X67.287 Y81.325 E20.00508
G1 X69.934 Y80.986 E20.12934
G1 X72.527 Y80.579 E20.25156
G1 X75.185 Y80.085 E20.37745
G1 X77.778 Y79.527 E20.50095
G1 X80.315 Y78.906 E20.62257
G1 X82.932 Y78.185 E20.74897
G1 X85.454 Y77.413 E20.87178
G1 X88.02 Y76.547 E20.99789
G1 X90.368 Y75.683 E21.11439
G1 X91.132 Y75.39 E21.15249
G1 X91.64 Y75.222 E21.1774
G1 X92.557 Y75.006 E21.22127
G1 X93.845 Y74.803 E21.28199
G1 X102.565 Y73.617 E21.69177
G1 X103.735 Y73.475 E21.74664
G1 X105.479 Y73.289 E21.82831
G1 X108.116 Y72.932 E21.95222
G1 X111.063 Y72.462 E22.09118
G1 X112.121 Y72.337 E22.14079
G1 X113.115 Y72.305 E22.1871
G1 X114.524 Y72.38 E22.2528
G1 X117.18 Y72.488 E22.37658
G1 X119.89 Y72.521 E22.50278
G1 X122.525 Y72.479 E22.62549
G1 X125.188 Y72.361 E22.74961
G1 X128.165 Y72.142 E22.88861
G1 X129.147 Y72.152 E22.93433
G1 X129.866 Y72.226 E22.96799
G1 X171.012 Y77.921 E24.90219
G1 X171.634 Y78.016 E24.93148
G1 X172.462 Y78.187 E24.97085
G1 X173.118 Y78.375 E25.00263
G1 X173.78 Y78.654 E25.03608
G1 X174.617 Y79.114 E25.08055
G1 X175.193 Y79.53 E25.11364
G1 X175.715 Y79.971 E25.14546
G1 X176.13 Y80.409 E25.17355
G1 X176.7 Y81.139 E25.21668
G1 X177.15 Y81.907 E25.25813
G1 X177.448 Y82.522 E25.28995
G1 X177.662 Y83.134 E25.32014
G1 X177.882 Y84.044 E25.36373
G1 X177.959 Y84.695 E25.39426
G1 X177.996 Y85.656 E25.43904
G1 X177.996 Y95.172 E25.88214
G1 X177.983 Y95.913 E25.91665
G1 X177.95 Y96.438 E25.94115
G1 X177.887 Y97.01 E25.96794
G1 X177.671 Y98.688 E26.04672
G1 X177.406 Y101.348 E26.1712
G1 X177.219 Y103.977 E26.29392
G1 X177.101 Y106.689 E26.42032
G1 X177.063 Y109.321 E26.54289
G1 X177.1 Y111.968 E26.66616
G1 X177.211 Y114.634 E26.79041
G1 X177.399 Y117.304 E26.91504
G1 X177.795 Y121.084 E27.09202
G1 X177.955 Y122.391 E27.15333
G1 X177.998 Y123.071 E27.18506
G1 X178.003 Y124.377 E27.24587
G1 X177.991 Y125.1 E27.27954
G1 X177.934 Y125.825 E27.31341
G1 X177.743 Y126.881 E27.36338
G1 X177.464 Y127.692 E27.40331
G1 X177.004 Y128.662 E27.4533
G1 X176.554 Y129.333 E27.49092
G1 X175.818 Y130.215 E27.54441
G1 X175.173 Y130.78 E27.58434
G1 X174.239 Y131.435 E27.63746
G1 X173.412 Y131.834 E27.68021
G1 X172.331 Y132.213 E27.73355
G1 X171.615 Y132.352 E27.76752
G1 X170.649 Y132.443 E27.8127
G1 X169.405 Y132.467 E27.87063
G1 X104.349 Y132.461 E30.89991
G1 X103.644 Y132.451 E30.93274
G1 X103.299 Y132.436 E30.94882
G1 X101.561 Y132.308 E31.02997
G1 X98.88 Y132.161 E31.155
G1 X96.207 Y132.09 E31.27951
G1 X93.533 Y132.095 E31.40402
G1 X90.89 Y132.174 E31.52715
G1 X88.228 Y132.329 E31.65131
G1 X85.589 Y132.558 E31.77465
G1 X82.906 Y132.868 E31.90042
G1 X80.308 Y133.243 E32.02264
G1 X77.643 Y133.704 E32.14858
G1 X75.054 Y134.227 E32.27157
G1 X74.437 Y134.361 E32.30097
G1 X74.124 Y134.42 E32.3158
G1 X72.434 Y134.69 E32.39549
G1 X51.36 Y137.65 E33.38642
G1 X50.147 Y137.797 E33.44331
G1 X49.041 Y137.867 E33.49492
G1 X48.475 Y137.872 E33.52127
G1 X47.602 Y137.826 E33.56198
G1 X46.532 Y137.694 E33.61218
G1 X45.481 Y137.482 E33.66211
G1 X44.527 Y137.214 E33.70825
G1 X43.737 Y136.934 E33.74728
G1 X43.034 Y136.637 E33.78281
G1 X42.49 Y136.376 E33.81091
G1 X41.557 Y135.857 E33.86062
G1 X40.659 Y135.261 E33.91081
G1 X39.807 Y134.594 E33.96119
G1 X39.058 Y133.912 E34.00836
G1 X38.327 Y133.136 E34.058
G1 X37.68 Y132.338 E34.10584
G1 X37.2 Y131.658 E34.1446
G1 X36.819 Y131.042 E34.17832
G1 X36.512 Y130.49 E34.20773
G1 X36.058 Y129.545 E34.25655
G1 X35.676 Y128.561 E34.3057
G1 X35.359 Y127.513 E34.35669
G1 X35.13 Y126.457 E34.407
G1 X34.988 Y125.44 E34.45482
G1 X34.921 Y124.351 E34.50562
G1 X34.942 Y120.885 E34.66701
G1 X34.885 Y118.211 E34.79156
G1 X34.751 Y115.541 E34.91604
G1 X34.545 Y112.905 E35.03916
G1 X34.261 Y110.247 E35.16363
G1 X33.907 Y107.633 E35.28646
G1 X33.466 Y104.951 E35.41302
G1 X32.972 Y102.403 E35.53387
G1 X32.367 Y99.692 E35.66322
G1 X32.16 Y98.814 E35.70522
G1 X32.042 Y98.141 E35.73704
G1 X31.996 Y97.315 E35.77556
G1 X31.993 Y88.391 E36.1911
M204 S3000
M205 X10 Y10
G0 F3000 X32.553 Y88.398
M204 S1800
M205 X8 Y8
G1 F2400 X32.562 Y87.709 E36.22318
G1 X32.611 Y87.061 E36.25344
G1 X32.738 Y86.424 E36.28369
G1 X32.943 Y85.808 E36.31392
G1 X33.222 Y85.221 E36.34418
G1 X33.571 Y84.673 E36.37443
G1 X33.985 Y84.172 E36.4047
G1 X34.457 Y83.726 E36.43493
G1 X34.98 Y83.341 E36.46517
G1 X35.547 Y83.023 E36.49544
G1 X36.148 Y82.777 E36.52568
G1 X36.775 Y82.607 E36.55593
G1 X37.694 Y82.5 E36.59901
G1 X38.163 Y82.489 E36.62086
G1 X56.642 Y82.489 E37.48132
G1 X59.317 Y82.451 E37.60589
G1 X61.983 Y82.338 E37.73014
G1 X64.69 Y82.146 E37.85651
G1 X67.343 Y81.883 E37.98065
G1 X69.983 Y81.545 E38.10458
G1 X72.647 Y81.127 E38.23015
G1 X75.268 Y80.639 E38.35429
G1 X77.919 Y80.069 E38.48055
G1 X80.452 Y79.449 E38.60198
G1 X83.077 Y78.726 E38.72876
G1 X85.652 Y77.938 E38.85415
G1 X88.172 Y77.088 E38.97799
G1 X90.626 Y76.184 E39.09977
G1 X91.333 Y75.913 E39.13502
G1 X92.037 Y75.692 E39.16938
G1 X92.644 Y75.559 E39.19832
G1 X93.921 Y75.358 E39.25851
G1 X102.633 Y74.173 E39.66791
G1 X103.795 Y74.032 E39.72242
G1 X105.545 Y73.846 E39.80436
G1 X108.195 Y73.486 E39.92889
G1 X111.128 Y73.018 E40.06719
G1 X112.186 Y72.893 E40.1168
G1 X113.085 Y72.864 E40.15868
G1 X114.468 Y72.937 E40.22317
G1 X117.186 Y73.048 E40.34984
G1 X119.892 Y73.081 E40.47585
G1 X122.524 Y73.04 E40.59842
G1 X125.219 Y72.919 E40.72404
G1 X128.206 Y72.7 E40.8635
G1 X129.094 Y72.71 E40.90485
G1 X129.789 Y72.781 E40.93738
G1 X170.927 Y78.475 E42.8712
G1 X171.549 Y78.57 E42.9005
G1 X172.339 Y78.734 E42.93807
G1 X172.963 Y78.914 E42.96831
G1 X173.531 Y79.156 E42.99706
G1 X174.597 Y79.783 E43.05465
G1 X175.352 Y80.399 E43.10002
G1 X175.704 Y80.773 E43.12394
G1 X176.253 Y81.477 E43.16551
G1 X176.661 Y82.179 E43.20331
G1 X176.942 Y82.765 E43.23358
G1 X177.124 Y83.289 E43.2594
G1 X177.375 Y84.476 E43.3159
G1 X177.426 Y85.163 E43.34798
G1 X177.437 Y85.772 E43.37634
G1 X177.436 Y95.163 E43.81362
G1 X177.423 Y95.904 E43.84813
G1 X177.345 Y96.832 E43.8915
G1 X177.115 Y98.63 E43.9759
G1 X176.849 Y101.288 E44.10029
G1 X176.657 Y103.983 E44.2261
G1 X176.542 Y106.657 E44.35072
G1 X176.503 Y109.321 E44.47478
G1 X176.54 Y112 E44.59954
G1 X176.651 Y114.66 E44.72351
G1 X176.841 Y117.346 E44.84889
G1 X177.239 Y121.152 E45.02708
G1 X177.399 Y122.459 E45.0884
G1 X177.438 Y123.074 E45.11709
G1 X177.443 Y124.368 E45.17735
G1 X177.431 Y125.091 E45.21102
G1 X177.379 Y125.746 E45.24161
G1 X177.194 Y126.769 E45.29002
G1 X176.949 Y127.472 E45.32468
G1 X176.503 Y128.411 E45.37309
G1 X176.112 Y128.989 E45.40558
G1 X175.397 Y129.844 E45.45748
G1 X174.836 Y130.333 E45.49214
G1 X173.928 Y130.967 E45.5437
G1 X173.209 Y131.312 E45.58084
G1 X172.159 Y131.679 E45.63263
G1 X171.542 Y131.797 E45.66188
G1 X170.638 Y131.883 E45.70416
G1 X169.405 Y131.907 E45.76159
G1 X104.357 Y131.901 E48.7905
G1 X103.652 Y131.891 E48.82333
G1 X103.34 Y131.878 E48.83787
G1 X101.578 Y131.748 E48.92014
G1 X98.891 Y131.601 E49.04544
G1 X96.221 Y131.53 E49.16981
G1 X93.551 Y131.535 E49.29414
G1 X90.84 Y131.616 E49.42043
G1 X88.182 Y131.771 E49.54441
G1 X85.514 Y132.003 E49.66911
G1 X82.865 Y132.308 E49.79327
G1 X80.208 Y132.692 E49.91828
G1 X77.54 Y133.153 E50.04436
G1 X74.963 Y133.674 E50.16678
G1 X74.318 Y133.814 E50.19751
G1 X74.035 Y133.867 E50.21092
G1 X72.356 Y134.136 E50.2901
G1 X51.292 Y137.094 E51.28055
G1 X50.079 Y137.241 E51.33745
G1 X49.013 Y137.307 E51.38718
G1 X48.48 Y137.312 E51.412
G1 X47.636 Y137.267 E51.45135
G1 X46.609 Y137.14 E51.49954
G1 X45.602 Y136.935 E51.54739
G1 X44.687 Y136.677 E51.59166
G1 X43.931 Y136.409 E51.62901
G1 X43.276 Y136.132 E51.66212
G1 X42.732 Y135.871 E51.69022
G1 X41.838 Y135.372 E51.73789
G1 X40.976 Y134.799 E51.78609
G1 X40.16 Y134.159 E51.83438
G1 X39.441 Y133.504 E51.87967
G1 X38.741 Y132.759 E51.92727
G1 X38.12 Y131.992 E51.97322
G1 X37.664 Y131.343 E52.01016
G1 X37.309 Y130.769 E52.04158
G1 X37.002 Y130.217 E52.07099
G1 X36.567 Y129.31 E52.11783
G1 X36.201 Y128.367 E52.16493
G1 X35.898 Y127.36 E52.2139
G1 X35.679 Y126.347 E52.26216
G1 X35.544 Y125.371 E52.30804
G1 X35.48 Y124.326 E52.35679
G1 X35.502 Y120.877 E52.51739
G1 X35.444 Y118.171 E52.64343
G1 X35.313 Y115.539 E52.76613
G1 X35.101 Y112.836 E52.89238
G1 X34.818 Y110.186 E53.01648
G1 X34.459 Y107.536 E53.141
G1 X34.025 Y104.898 E53.26549
G1 X33.511 Y102.243 E53.39141
G1 X32.928 Y99.633 E53.51594
G1 X32.704 Y98.685 E53.5613
G1 X32.594 Y98.045 E53.59154
G1 X32.555 Y97.298 E53.62637
G1 X32.553 Y88.398 E54.04079
M204 S3000
M205 X10 Y10
G1 F2400 E48.04079
;MESH:ServoR_Schraube_Beilagscheibe_all.stl
G0 F3000 X37.168 Y88.398
G0 X38.263 Y88.398
G1 F2400 E54.04079
G0 F3000 X38.113 Y88.049
M204 S1800
M205 X8 Y8
;TYPE:WALL-OUTER
G1 F1500 X38.113 Y97.189 E54.46639
G1 X73.353 Y97.189 E56.10731
G1 X73.353 Y92.619 E56.32011
G1 X73.353 Y88.049 E56.5329
G1 X38.113 Y88.049 E58.17383
M204 S3000
M205 X10 Y10
G0 F3000 X38.113 Y88.249
G0 X38.673 Y88.609
M204 S1800
M205 X8 Y8
;TYPE:WALL-INNER
G1 F1500 X38.673 Y96.629 E58.54727
G1 X72.793 Y96.629 E60.13604
G1 X72.793 Y92.619 E60.32276
G1 X72.793 Y88.609 E60.50949
G1 X38.673 Y88.609 E62.09826
M204 S3000
M205 X10 Y10
G0 F3000 X39.213 Y89.149
M204 S1800
M205 X8 Y8
;TYPE:SKIN
G1 F1500 X39.213 Y96.089 E62.42141
G1 X72.253 Y96.089 E63.95989
G1 X72.253 Y92.619 E64.12147
G1 X72.253 Y89.149 E64.28305
G1 X39.213 Y89.149 E65.82153
M204 S3000
M205 X10 Y10
G0 F3000 X39.578 Y95.808
M204 S1800
M205 X8 Y8
G1 F1500 X39.492 Y95.721 E65.82723
M204 S3000
M205 X10 Y10
G0 F3000 X39.492 Y94.929
M204 S1800
M205 X8 Y8
G1 F1500 X40.37 Y95.808 E65.88508
M204 S3000
M205 X10 Y10
G0 F3000 X41.162 Y95.808
M204 S1800
M205 X8 Y8
G1 F1500 X39.492 Y94.137 E65.99508
M204 S3000
M205 X10 Y10
G0 F3000 X39.492 Y93.345
M204 S1800
M205 X8 Y8
G1 F1500 X41.954 Y95.808 E66.15724
M204 S3000
M205 X10 Y10
G0 F3000 X42.746 Y95.808
M204 S1800
M205 X8 Y8
G1 F1500 X39.492 Y92.553 E66.37156
M204 S3000
M205 X10 Y10
G0 F3000 X39.492 Y91.761
M204 S1800
M205 X8 Y8
G1 F1500 X43.538 Y95.808 E66.63802
M204 S3000
M205 X10 Y10
G0 F3000 X44.33 Y95.808
M204 S1800
M205 X8 Y8
G1 F1500 X39.492 Y90.969 E66.95665
M204 S3000
M205 X10 Y10
G0 F3000 X39.492 Y90.178
M204 S1800
M205 X8 Y8
