;FLAVOR:Marlin
;TIME:1555
;Filament used: 2.75707m
;Layer height: 0.3
;MINX:22.768
;MINY:22.774
;MINZ:0.3
;MAXX:187.232
;MAXY:187.225
;MAXZ:18.3
;Generated with Cura_SteamEngine 5.0.0
M140 S60
M105
M190 S60
M104 S200
M105
M109 S200
M82 ;absolute extrusion mode
G21 ;metric values
G90 ;absolute positioning
M82 ;set extruder to absolute mode
M107 ;start with the fan off
G28 X0 Y0 ;move X/Y to min endstops
G28 Z0 ;move Z to min endstops
G1 Z15.0 F100 ;move the platform down 15mm
G92 E0 ;zero the extruded length
G1 F200 E3 ;extrude 3mm of feed stock
G92 E0 ;zero the extruded length again
G1 F100
G0 Y20 F100
M117 Printing...
G5
G92 E0
G92 E0
G1 F2400 E-6
;LAYER_COUNT:61
;LAYER:0
M107
M204 S3000
M205 X10 Y10
G1 F600 Z0.375
G0 F3000 X150.863 Y32.206 Z0.375
M204 S1800
M205 X8 Y8
;TYPE:SKIRT
G1 F600 Z0.3
G1 F2400 E0
G1 X151.345 Y31.739 E0.04688
G1 X152.094 Y31.088 E0.11619
G1 X155.87 Y28.032 E0.45548
G1 X156.433 Y27.59 E0.50548
G1 X157.019 Y27.18 E0.55543
G1 X157.46 Y26.931 E0.5908
G1 X158.1 Y26.604 E0.641
G1 X162.031 Y24.666 E0.94712
G1 X162.615 Y24.388 E0.9923
G1 X163.277 Y24.117 E1.04226
G1 X164 Y23.915 E1.09469
G1 X165.009 Y23.695 E1.16682
G1 X168.499 Y22.998 E1.4154
G1 X169.197 Y22.871 E1.46495
G1 X169.907 Y22.783 E1.51492
G1 X170.622 Y22.774 E1.56487
G1 X171.474 Y22.855 E1.62464
G1 X174.966 Y23.32 E1.8707
G1 X175.658 Y23.422 E1.91956
G1 X176.359 Y23.566 E1.96954
G1 X177.039 Y23.787 E2.01948
G1 X177.986 Y24.247 E2.09302
G1 X178.597 Y24.61 E2.14266
G1 X181.017 Y26.102 E2.34123
G1 X181.55 Y26.441 E2.38535
G1 X182.131 Y26.858 E2.4353
G1 X182.662 Y27.337 E2.48525
G1 X183.136 Y27.872 E2.53517
G1 X183.49 Y28.367 E2.57768
G1 X184.146 Y29.385 E2.66226
G1 X185.406 Y31.431 E2.8301
G1 X185.752 Y32.015 E2.87751
G1 X186.082 Y32.65 E2.92749
G1 X186.339 Y33.317 E2.97742
G1 X186.574 Y34.322 E3.04951
G1 X186.672 Y34.978 E3.09583
G1 X187.112 Y38.27 E3.32781
G1 X187.189 Y38.931 E3.37429
G1 X187.232 Y39.645 E3.42425
G1 X187.195 Y40.36 E3.47426
G1 X187.05 Y41.26 E3.53793
G1 X186.248 Y45.273 E3.82377
G1 X186.108 Y45.928 E3.87055
G1 X185.919 Y46.618 E3.92052
G1 X185.636 Y47.324 E3.97365
G1 X185.22 Y48.201 E4.04144
G1 X183.391 Y51.909 E4.33023
G1 X183.064 Y52.545 E4.38018
G1 X182.702 Y53.162 E4.43014
G1 X182.045 Y54.032 E4.50629
G1 X179.034 Y57.757 E4.84083
G1 X178.58 Y58.301 E4.89032
G1 X178.018 Y58.911 E4.94826
G1 X59.145 Y177.785 E16.69029
G1 X58.663 Y178.254 E16.73726
G1 X57.904 Y178.914 E16.80752
G1 X54.129 Y181.969 E17.14671
G1 X53.566 Y182.411 E17.19671
G1 X52.98 Y182.821 E17.24666
G1 X52.535 Y183.072 E17.28234
G1 X51.9 Y183.396 E17.33214
G1 X47.976 Y185.33 E17.63769
G1 X47.386 Y185.611 E17.68334
G1 X46.724 Y185.882 E17.7333
G1 X46 Y186.085 E17.78582
G1 X44.993 Y186.305 E17.85781
G1 X41.49 Y187.004 E18.10731
G1 X40.791 Y187.13 E18.15692
G1 X40.081 Y187.218 E18.20689
G1 X39.366 Y187.225 E18.25683
G1 X38.524 Y187.145 E18.31591
G1 X35.027 Y186.679 E18.56232
G1 X34.333 Y186.576 E18.61132
G1 X33.633 Y186.431 E18.66125
G1 X32.953 Y186.21 E18.71119
G1 X32.01 Y185.751 E18.78445
G1 X31.403 Y185.39 E18.83377
G1 X28.983 Y183.898 E19.03235
G1 X28.45 Y183.559 E19.07647
G1 X27.869 Y183.142 E19.12642
G1 X27.338 Y182.663 E19.17637
G1 X26.864 Y182.128 E19.22629
G1 X26.511 Y181.634 E19.2687
G1 X25.843 Y180.599 E19.35474
G1 X24.592 Y178.566 E19.52147
G1 X24.247 Y177.983 E19.56878
G1 X23.918 Y177.348 E19.61873
G1 X23.661 Y176.681 E19.66866
G1 X23.428 Y175.689 E19.73983
G1 X23.328 Y175.022 E19.78694
G1 X22.888 Y171.73 E20.01892
G1 X22.811 Y171.069 E20.0654
G1 X22.768 Y170.355 E20.11536
G1 X22.805 Y169.64 E20.16537
G1 X22.951 Y168.741 E20.22898
G1 X23.752 Y164.746 E20.51357
G1 X23.902 Y164.05 E20.5633
G1 X24.091 Y163.36 E20.61327
G1 X24.368 Y162.67 E20.6652
G1 X24.801 Y161.754 E20.73597
G1 X26.609 Y158.09 E21.02135
G1 X26.936 Y157.453 E21.07136
G1 X27.298 Y156.836 E21.12132
G1 X27.594 Y156.427 E21.15659
G1 X28.028 Y155.874 E21.20569
G1 X30.967 Y152.241 E21.53208
G1 X31.422 Y151.696 E21.58166
G1 X31.98 Y151.09 E21.6392
G1 X150.863 Y32.206 E33.38222
M204 S3000
M205 X10 Y10
G0 F3000 X151.252 Y32.608
M204 S1800
M205 X8 Y8
G1 F2400 X151.734 Y32.141 E33.4291
G1 X152.454 Y31.516 E33.49569
G1 X156.216 Y28.472 E33.8337
G1 X156.779 Y28.03 E33.88369
G1 X157.34 Y27.641 E33.93137
G1 X158.261 Y27.149 E34.00431
G1 X162.272 Y25.172 E34.31664
G1 X162.856 Y24.894 E34.36182
G1 X163.489 Y24.637 E34.40954
G1 X164.119 Y24.462 E34.45521
G1 X165.118 Y24.244 E34.52662
G1 X168.6 Y23.549 E34.77463
G1 X169.298 Y23.422 E34.82418
G1 X169.976 Y23.34 E34.87188
G1 X170.991 Y23.364 E34.94279
G1 X171.538 Y23.426 E34.98124
G1 X174.885 Y23.874 E35.2171
G1 X175.577 Y23.976 E35.26596
G1 X176.246 Y24.115 E35.31369
G1 X176.894 Y24.332 E35.36142
G1 X177.701 Y24.729 E35.42423
G1 X178.303 Y25.087 E35.47315
G1 X180.716 Y26.574 E35.67113
G1 X181.249 Y26.913 E35.71525
G1 X181.803 Y27.313 E35.76297
G1 X182.307 Y27.775 E35.81073
G1 X182.753 Y28.292 E35.85842
G1 X183.02 Y28.671 E35.8908
G1 X183.669 Y29.679 E35.97453
G1 X184.924 Y31.716 E36.14165
G1 X185.27 Y32.3 E36.18906
G1 X185.584 Y32.907 E36.23679
G1 X185.824 Y33.547 E36.28453
G1 X186.021 Y34.406 E36.34609
G1 X186.117 Y35.053 E36.39177
G1 X186.556 Y38.335 E36.62305
G1 X186.633 Y38.996 E36.66953
G1 X186.672 Y39.678 E36.71724
G1 X186.582 Y40.696 E36.78863
G1 X186.475 Y41.284 E36.83037
G1 X185.7 Y45.156 E37.10618
G1 X185.56 Y45.811 E37.15296
G1 X185.378 Y46.469 E37.20065
G1 X185.129 Y47.085 E37.24705
G1 X184.718 Y47.954 E37.3142
G1 X182.893 Y51.653 E37.60229
G1 X182.566 Y52.289 E37.65224
G1 X182.218 Y52.878 E37.70002
G1 X181.604 Y53.687 E37.77096
G1 X178.604 Y57.398 E38.10426
G1 X178.15 Y57.942 E38.15375
G1 X177.612 Y58.525 E38.20916
G1 X58.755 Y177.384 E49.94967
G1 X58.273 Y177.853 E49.99664
G1 X57.544 Y178.486 E50.06408
G1 X53.783 Y181.529 E50.40198
G1 X53.22 Y181.971 E50.45198
G1 X52.659 Y182.36 E50.49966
G1 X51.735 Y182.852 E50.57278
G1 X47.735 Y184.825 E50.8843
G1 X47.145 Y185.106 E50.92994
G1 X46.512 Y185.363 E50.97766
G1 X45.881 Y185.538 E51.0234
G1 X44.883 Y185.755 E51.09473
G1 X41.391 Y186.453 E51.34346
G1 X40.692 Y186.579 E51.39307
G1 X40.014 Y186.661 E51.44077
G1 X39.007 Y186.636 E51.51113
G1 X38.462 Y186.574 E51.54944
G1 X35.11 Y186.125 E51.78566
G1 X34.416 Y186.022 E51.83466
G1 X33.747 Y185.882 E51.8824
G1 X33.099 Y185.665 E51.93013
G1 X32.296 Y185.269 E51.99267
G1 X31.697 Y184.913 E52.04133
G1 X29.284 Y183.426 E52.23931
G1 X28.751 Y183.087 E52.28343
G1 X28.197 Y182.687 E52.33115
G1 X27.693 Y182.225 E52.37891
G1 X27.247 Y181.708 E52.4266
G1 X26.981 Y181.33 E52.45888
G1 X26.32 Y180.305 E52.54407
G1 X25.074 Y178.281 E52.71008
G1 X24.729 Y177.698 E52.7574
G1 X24.416 Y177.091 E52.8051
G1 X24.176 Y176.451 E52.85284
G1 X23.982 Y175.604 E52.91353
G1 X23.883 Y174.947 E52.95994
G1 X23.444 Y171.665 E53.19121
G1 X23.367 Y171.004 E53.23769
G1 X23.328 Y170.322 E53.28541
G1 X23.369 Y169.64 E53.33313
G1 X23.502 Y168.84 E53.38977
G1 X24.299 Y164.864 E53.67301
G1 X24.449 Y164.168 E53.72274
G1 X24.632 Y163.509 E53.77051
G1 X24.875 Y162.909 E53.81572
G1 X25.304 Y162.001 E53.88586
G1 X27.108 Y158.346 E54.17055
G1 X27.435 Y157.709 E54.22057
G1 X27.782 Y157.12 E54.26831
G1 X28.408 Y156.296 E54.34059
G1 X31.397 Y152.6 E54.6726
G1 X31.852 Y152.055 E54.72219
G1 X32.386 Y151.476 E54.7772
G1 X151.252 Y32.608 E66.51859
M204 S3000
M205 X10 Y10
G0 F3000 X151.642 Y33.01
M204 S1800
M205 X8 Y8
G1 F2400 X152.124 Y32.543 E66.56547
G1 X152.815 Y31.945 E66.6293
G1 X156.562 Y28.913 E66.96596
G1 X157.125 Y28.471 E67.01595
G1 X157.659 Y28.102 E67.06129
G1 X158.517 Y27.648 E67.12909
G1 X162.513 Y25.678 E67.44027
G1 X163.097 Y25.4 E67.48545
G1 X163.699 Y25.157 E67.53079
G1 X164.239 Y25.009 E67.5699
G1 X165.228 Y24.793 E67.6406
G1 X168.7 Y24.1 E67.88789
G1 X169.398 Y23.973 E67.93745
G1 X170.043 Y23.897 E67.98281
G1 X170.929 Y23.921 E68.04472
G1 X171.464 Y23.982 E68.08233
G1 X174.803 Y24.428 E68.31761
G1 X175.495 Y24.53 E68.36647
G1 X176.131 Y24.665 E68.41188
G1 X176.745 Y24.876 E68.45723
G1 X177.416 Y25.211 E68.50961
G1 X178.01 Y25.564 E68.55787
G1 X180.416 Y27.047 E68.75528
G1 X180.949 Y27.386 E68.7994
G1 X181.474 Y27.767 E68.84471
G1 X181.949 Y28.211 E68.89012
G1 X182.549 Y28.975 E68.95798
G1 X183.193 Y29.972 E69.04088
G1 X184.443 Y32.002 E69.20739
G1 X184.789 Y32.586 E69.2548
G1 X185.085 Y33.164 E69.30016
G1 X185.308 Y33.774 E69.34552
G1 X185.467 Y34.489 E69.39668
G1 X185.562 Y35.127 E69.44174
G1 X186 Y38.4 E69.67238
G1 X186.077 Y39.061 E69.71886
G1 X186.112 Y39.71 E69.76426
G1 X186.03 Y40.598 E69.82655
G1 X185.926 Y41.174 E69.86743
G1 X185.152 Y45.039 E70.14274
G1 X185.012 Y45.694 E70.18953
G1 X184.838 Y46.319 E70.23484
G1 X184.623 Y46.846 E70.27459
G1 X184.216 Y47.706 E70.34105
G1 X182.395 Y51.397 E70.62852
G1 X182.068 Y52.033 E70.67847
G1 X181.736 Y52.592 E70.72388
G1 X181.163 Y53.342 E70.7898
G1 X178.174 Y57.039 E71.12186
G1 X177.72 Y57.583 E71.17135
G1 X177.206 Y58.139 E71.22424
G1 X58.364 Y176.982 E82.96321
G1 X57.882 Y177.451 E83.01019
G1 X57.183 Y178.057 E83.0748
G1 X53.437 Y181.088 E83.41137
G1 X52.874 Y181.53 E83.46136
G1 X52.34 Y181.899 E83.5067
G1 X51.48 Y182.354 E83.57465
G1 X47.494 Y184.319 E83.88505
G1 X46.904 Y184.6 E83.9307
G1 X46.302 Y184.843 E83.97604
G1 X45.761 Y184.991 E84.01522
G1 X44.773 Y185.206 E84.08584
G1 X41.292 Y185.902 E84.33379
G1 X40.593 Y186.028 E84.3834
G1 X39.947 Y186.104 E84.42883
G1 X39.069 Y186.079 E84.49018
G1 X38.536 Y186.018 E84.52765
G1 X35.192 Y185.571 E84.76329
G1 X34.498 Y185.468 E84.8123
G1 X33.862 Y185.333 E84.85771
G1 X33.248 Y185.121 E84.90308
G1 X32.581 Y184.787 E84.95518
G1 X31.99 Y184.436 E85.00319
G1 X29.584 Y182.953 E85.2006
G1 X29.051 Y182.614 E85.24472
G1 X28.526 Y182.233 E85.29003
G1 X28.051 Y181.789 E85.33544
G1 X27.451 Y181.026 E85.40324
G1 X26.797 Y180.011 E85.48758
G1 X25.556 Y177.996 E85.65287
G1 X25.211 Y177.413 E85.70018
G1 X24.915 Y176.835 E85.74554
G1 X24.693 Y176.224 E85.79095
G1 X24.535 Y175.52 E85.84134
G1 X24.438 Y174.873 E85.88704
G1 X24 Y171.6 E86.11768
G1 X23.923 Y170.939 E86.16416
G1 X23.888 Y170.29 E86.20956
G1 X23.971 Y169.395 E86.27234
G1 X24.073 Y168.832 E86.3123
G1 X24.847 Y164.982 E86.58659
G1 X24.997 Y164.286 E86.63632
G1 X25.172 Y163.66 E86.68172
G1 X25.381 Y163.148 E86.72035
G1 X25.806 Y162.249 E86.7898
G1 X27.606 Y158.602 E87.07387
G1 X27.933 Y157.965 E87.12388
G1 X28.264 Y157.406 E87.16925
G1 X28.849 Y156.641 E87.23652
G1 X31.827 Y152.959 E87.56728
G1 X32.282 Y152.414 E87.61687
G1 X32.792 Y151.861 E87.66941
G1 X151.642 Y33.01 E99.40917
M204 S3000
M205 X10 Y10
G1 F2400 E93.40917
;MESH:body.stl
G0 F3000 X154.905 Y36.274
G0 X29.994 Y170.318
M204 S1800
M205 X8 Y8
;TYPE:WALL-OUTER
G1 F2400 E99.40917
G1 F1856.4 X30.001 Y170.175 E99.41887
G1 F1901.9 X30.448 Y167.937 E99.56973
G1 F1905.5 X30.895 Y165.698 E99.72038
G1 F1898.3 X30.916 Y165.632 E99.72497
G1 F1891.2 X33.153 Y161.098 E100.06107
G1 F1836.1 X33.312 Y160.866 E100.08033
G1 F1784.1 X36.526 Y156.895 E100.44034
G1 F1729 X36.98 Y156.414 E100.48843
G1 F1680 X42.408 Y150.986 E101.06289
G1 X47.836 Y145.558 E101.63736
G1 X53.265 Y140.129 E102.21192
G1 X58.693 Y134.701 E102.78639
G1 X64.122 Y129.272 E103.36095
G1 X69.55 Y123.844 E103.93542
G1 X74.979 Y118.415 E104.50998
G1 X80.407 Y112.987 E105.08445
G1 X85.836 Y107.558 E105.65901
G1 X91.264 Y102.13 E106.23348
G1 X96.693 Y96.701 E106.80804
G1 X102.121 Y91.273 E107.38251
G1 X107.55 Y85.844 E107.95707
G1 X112.978 Y80.416 E108.53154
G1 X118.407 Y74.987 E109.1061
G1 X123.835 Y69.559 E109.68057
G1 X129.264 Y64.13 E110.25513
G1 X134.692 Y58.702 E110.8296
G1 X140.121 Y53.273 E111.40416
G1 X145.549 Y47.845 E111.97863
G1 X150.978 Y42.416 E112.55319
G1 X156.406 Y36.988 E113.12766
G1 F1729 X156.872 Y36.545 E113.17441
G1 F1780.9 X158.869 Y34.929 E113.35576
G1 F1784.1 X160.866 Y33.313 E113.5368
G1 F1836.1 X161.098 Y33.153 E113.55609
G1 F1894.7 X163.365 Y32.035 E113.72382
G1 F1898.3 X165.632 Y30.916 E113.89125
G1 F1901.9 X165.698 Y30.895 E113.89583
G1 F1905.5 X167.936 Y30.448 E114.04641
G1 F1901.9 X170.175 Y30.001 E114.19734
G1 F1859.8 X170.315 Y29.993 E114.20682
G1 F1826.1 X174.243 Y30.518 E114.47966
G1 F1777.8 X174.379 Y30.556 E114.48965
G1 F1729 X177.454 Y32.451 E114.75229
G1 F1726 X177.549 Y32.546 E114.76208
G1 X179.444 Y35.62 E115.02512
G1 F1774.6 X179.482 Y35.757 E115.03519
G1 F1822.8 X180.006 Y39.682 E115.30831
G1 F1836.1 X180.009 Y39.737 E115.31208
G1 F1877.1 X179.999 Y39.825 E115.31801
G1 F1901.9 X179.105 Y44.302 E115.61981
G1 F1898.3 X179.085 Y44.368 E115.62437
G1 F1891.2 X176.826 Y48.942 E115.96351
G1 F1836.1 X176.688 Y49.133 E115.97965
G1 F1787.2 X175.62 Y50.453 E116.09909
G1 F1780.9 X174.552 Y51.773 E116.21895
G1 F1777.8 X173.483 Y53.093 E116.33908
G1 F1723.1 X173.017 Y53.584 E116.38847
G1 F1677.2 X170.24 Y56.361 E116.68286
G1 X167.463 Y59.139 E116.9773
G1 X164.685 Y61.916 E117.27174
G1 X161.908 Y64.694 E117.56618
G1 X159.13 Y67.471 E117.86062
G1 X156.353 Y70.249 E118.15506
G1 X153.575 Y73.027 E118.44956
G1 X150.798 Y75.804 E118.74395
G1 X148.02 Y78.582 E119.03844
G1 X145.243 Y81.359 E119.33283
G1 X142.465 Y84.137 E119.62732
G1 X139.688 Y86.914 E119.92171
G1 X136.911 Y89.692 E120.21615
G1 X134.133 Y92.47 E120.51065
G1 X131.356 Y95.247 E120.80504
G1 X128.578 Y98.025 E121.09953
G1 X125.801 Y100.802 E121.39392
G1 X123.023 Y103.58 E121.68841
G1 X120.246 Y106.357 E121.9828
G1 X117.468 Y109.135 E122.27729
G1 X114.691 Y111.913 E122.57174
G1 X111.913 Y114.69 E122.86618
G1 F1680 X109.136 Y117.468 E123.16013
G1 X106.358 Y120.245 E123.45408
G1 X103.581 Y123.023 E123.74803
G1 X100.804 Y125.801 E124.04198
G1 X98.026 Y128.578 E124.33593
G1 X95.249 Y131.356 E124.62989
G1 X92.471 Y134.133 E124.92384
G1 X89.694 Y136.911 E125.21779
G1 X86.916 Y139.688 E125.51174
G1 X84.139 Y142.466 E125.80569
G1 X81.361 Y145.244 E126.0997
G1 X78.584 Y148.021 E126.3936
G1 X75.806 Y150.799 E126.6876
G1 X73.029 Y153.576 E126.9815
G1 X70.251 Y156.354 E127.2755
G1 X67.474 Y159.131 E127.5694
G1 X64.697 Y161.909 E127.86335
G1 X61.919 Y164.687 E128.15736
G1 X59.142 Y167.464 E128.45126
G1 X56.364 Y170.242 E128.74526
G1 X53.587 Y173.019 E129.03916
G1 F1729 X53.128 Y173.455 E129.08519
G1 F1780.9 X51.131 Y175.071 E129.26655
G1 F1787.2 X49.134 Y176.687 E129.44726
G1 F1839.4 X48.902 Y176.847 E129.46652
G1 F1891.2 X44.344 Y179.095 E129.80438
G1 F1898.3 X44.302 Y179.105 E129.80724
G1 F1905.5 X42.064 Y179.552 E129.95782
G1 F1901.9 X39.825 Y179.999 E130.10875
G1 F1859.8 X39.685 Y180.007 E130.11823
G1 F1822.8 X35.757 Y179.482 E130.39156
G1 F1777.8 X35.621 Y179.444 E130.40155
G1 F1729 X32.546 Y177.549 E130.6642
G1 F1726 X32.451 Y177.454 E130.67398
G1 F1729 X30.556 Y174.38 E130.93657
G1 F1777.8 X30.518 Y174.243 E130.94662
G1 F1826.1 X30.256 Y172.281 E131.0829
G1 F1819.5 X29.994 Y170.318 E131.21974
M204 S3000
M205 X10 Y10
G0 F3000 X30.001 Y170.175
G0 X30.012 Y170.12
G0 X29.444 Y170.39
M204 S1800
M205 X8 Y8
G1 F1816.2 X29.713 Y172.4 E131.36012
G1 F1809.7 X29.983 Y174.41 E131.50101
G1 F1768.4 X30.06 Y174.684 E131.52125
G1 F1729 X31.954 Y177.76 E131.78392
G1 F1714.3 X32.126 Y177.97 E131.80383
G1 X32.24 Y178.045 E131.81384
G1 F1729 X35.368 Y179.973 E132.08102
G1 F1777.8 X35.684 Y180.03 E132.10373
G1 F1822.8 X39.611 Y180.555 E132.377
G1 F1859.8 X39.928 Y180.519 E132.39857
G1 F1901.9 X42.167 Y180.072 E132.54949
G1 F1905.5 X44.406 Y179.624 E132.70015
G1 F1901.9 X44.602 Y179.561 E132.71376
G1 F1894.7 X45.525 Y179.106 E132.78204
G1 F1887.6 X46.449 Y178.65 E132.85067
G1 F1884.1 X47.373 Y178.194 E132.91943
G1 F1880.6 X48.297 Y177.739 E132.98828
G1 F1873.6 X49.22 Y177.283 E133.05736
G1 F1829.4 X49.489 Y177.127 E133.07873
G1 F1787.2 X51.497 Y175.501 E133.26049
G1 F1780.9 X53.506 Y173.875 E133.44295
G1 F1729 X54.012 Y173.443 E133.49133
G1 F1680 X56.789 Y170.666 E133.78523
G1 X59.567 Y167.888 E134.07923
G1 X62.344 Y165.111 E134.37313
G1 X65.122 Y162.333 E134.66713
G1 X67.899 Y159.556 E134.96103
G1 X70.677 Y156.778 E135.25504
G1 X73.454 Y154.001 E135.54893
G1 X76.232 Y151.223 E135.84294
G1 X79.009 Y148.446 E136.13684
G1 X81.787 Y145.668 E136.43084
G1 X84.564 Y142.89 E136.72479
G1 X87.342 Y140.113 E137.01874
G1 X90.119 Y137.335 E137.3127
G1 X92.897 Y134.558 E137.60665
G1 X95.674 Y131.78 E137.9006
G1 X98.452 Y129.003 E138.19455
G1 X101.229 Y126.225 E138.4885
