;FLAVOR:Marlin
;TIME:2718
;Filament used: 4.2846m
;Layer height: 0.3
;MINX:22.965
;MINY:22.971
;MINZ:0.3
;MAXX:187.035
;MAXY:187.028
;MAXZ:5.1
;Generated with Cura_SteamEngine 5.0.0
M140 S60
M105
M190 S60
M104 S200
M105
M109 S200
M82 ;absolute extrusion mode
G21 ;metric values
G90 ;absolute positioning
M82 ;set extruder to absolute mode
M107 ;start with the fan off
G28 X0 Y0 ;move X/Y to min endstops
G28 Z0 ;move Z to min endstops
G1 Z15.0 F100 ;move the platform down 15mm
G92 E0 ;zero the extruded length
G1 F200 E3 ;extrude 3mm of feed stock
G92 E0 ;zero the extruded length again
G1 F100
G0 Y20 F100
M117 Printing...
G5
G92 E0
G92 E0
G1 F2400 E-6
;LAYER_COUNT:17
;LAYER:0
M107
M204 S3000
M205 X10 Y10
G1 F600 Z0.375
G0 F3000 X150.9 Y32.387 Z0.375
M204 S1800
M205 X8 Y8
;TYPE:SKIRT
G1 F600 Z0.3
G1 F2400 E0
G1 X151.455 Y31.849 E0.05399
G1 X152.177 Y31.219 E0.12092
G1 X155.908 Y28.2 E0.45614
G1 X156.477 Y27.752 E0.50672
G1 X157.063 Y27.341 E0.55672
G1 X157.507 Y27.09 E0.59234
G1 X158.149 Y26.76 E0.64276
G1 X162.01 Y24.858 E0.94338
G1 X162.619 Y24.569 E0.99046
G1 X163.281 Y24.299 E1.0404
G1 X163.999 Y24.098 E1.09248
G1 X164.964 Y23.888 E1.16146
G1 X168.383 Y23.205 E1.40498
G1 X169.104 Y23.072 E1.45619
G1 X169.814 Y22.982 E1.50618
G1 X170.529 Y22.971 E1.55612
G1 X171.467 Y23.06 E1.62193
G1 X174.861 Y23.514 E1.8611
G1 X175.584 Y23.625 E1.91219
G1 X176.284 Y23.773 E1.96217
G1 X176.963 Y23.998 E2.01213
G1 X177.875 Y24.445 E2.08307
G1 X178.447 Y24.784 E2.12951
G1 X180.825 Y26.251 E2.32467
G1 X181.381 Y26.604 E2.37067
G1 X181.963 Y27.02 E2.42063
G1 X182.494 Y27.499 E2.47058
G1 X182.969 Y28.034 E2.52055
G1 X183.326 Y28.533 E2.56341
G1 X183.981 Y29.549 E2.64784
G1 X185.209 Y31.544 E2.81147
G1 X185.562 Y32.14 E2.85985
G1 X185.891 Y32.774 E2.90974
G1 X186.148 Y33.442 E2.95973
G1 X186.383 Y34.447 E3.03182
G1 X186.482 Y35.108 E3.0785
G1 X186.909 Y38.294 E3.30302
G1 X186.99 Y38.971 E3.35064
G1 X187.035 Y39.685 E3.40061
G1 X187 Y40.399 E3.45054
G1 X186.838 Y41.396 E3.52109
G1 X186.067 Y45.253 E3.79582
G1 X185.915 Y45.956 E3.84606
G1 X185.725 Y46.645 E3.89598
G1 X185.452 Y47.326 E3.94722
G1 X185.053 Y48.171 E4.01249
G1 X183.226 Y51.875 E4.30096
G1 X182.914 Y52.484 E4.34876
G1 X182.553 Y53.102 E4.39875
G1 X181.891 Y53.981 E4.4756
G1 X178.939 Y57.629 E4.80338
G1 X178.473 Y58.188 E4.85421
G1 X177.877 Y58.833 E4.91555
G1 X59.027 Y177.684 E16.65531
G1 X58.545 Y178.151 E16.70219
G1 X57.823 Y178.781 E16.76911
G1 X54.092 Y181.8 E17.10434
G1 X53.523 Y182.248 E17.15492
G1 X52.937 Y182.659 E17.20491
G1 X52.493 Y182.91 E17.24054
G1 X51.851 Y183.24 E17.29096
G1 X47.99 Y185.142 E17.59158
G1 X47.381 Y185.431 E17.63866
G1 X46.719 Y185.701 E17.6886
G1 X46.001 Y185.902 E17.74068
G1 X45.036 Y186.112 E17.80966
G1 X41.609 Y186.796 E18.05374
G1 X40.883 Y186.929 E18.10529
G1 X40.174 Y187.019 E18.15521
G1 X39.458 Y187.028 E18.20522
G1 X38.526 Y186.939 E18.27062
G1 X35.157 Y186.489 E18.50802
G1 X34.44 Y186.381 E18.55866
G1 X33.74 Y186.235 E18.60861
G1 X33.06 Y186.012 E18.65859
G1 X32.134 Y185.56 E18.73056
G1 X31.529 Y185.201 E18.7797
G1 X29.176 Y183.751 E18.97275
G1 X28.621 Y183.399 E19.01865
G1 X28.04 Y182.982 E19.0686
G1 X27.508 Y182.504 E19.11856
G1 X27.033 Y181.969 E19.16853
G1 X26.673 Y181.467 E19.21168
G1 X26.015 Y180.446 E19.29651
G1 X24.795 Y178.463 E19.45913
G1 X24.441 Y177.867 E19.50755
G1 X24.111 Y177.233 E19.55747
G1 X23.854 Y176.566 E19.6074
G1 X23.614 Y175.544 E19.68072
G1 X23.518 Y174.893 E19.72669
G1 X23.091 Y171.705 E19.95134
G1 X23.01 Y171.028 E19.99897
G1 X22.965 Y170.314 E20.04894
G1 X23 Y169.6 E20.09887
G1 X23.162 Y168.602 E20.16949
G1 X23.932 Y164.749 E20.44392
G1 X24.084 Y164.045 E20.49423
G1 X24.274 Y163.356 E20.54415
G1 X24.55 Y162.67 E20.5958
G1 X24.947 Y161.829 E20.66075
G1 X26.769 Y158.136 E20.94838
G1 X27.077 Y157.532 E20.99574
G1 X27.437 Y156.914 E21.04569
G1 X27.735 Y156.499 E21.08138
G1 X28.178 Y155.933 E21.13158
G1 X31.065 Y152.366 E21.4521
G1 X31.542 Y151.795 E21.50407
G1 X31.888 Y151.41 E21.54022
G1 X150.9 Y32.387 E33.29648
M204 S3000
M205 X10 Y10
G0 F3000 X151.362 Y32.718
M204 S1800
M205 X8 Y8
G1 F2400 X151.844 Y32.251 E33.34335
G1 X152.539 Y31.647 E33.40767
G1 X156.254 Y28.64 E33.7415
G1 X156.823 Y28.192 E33.79208
G1 X157.384 Y27.801 E33.83984
G1 X158.305 Y27.309 E33.91277
G1 X162.25 Y25.364 E34.21998
G1 X162.859 Y25.075 E34.26707
G1 X163.493 Y24.819 E34.31482
G1 X164.118 Y24.645 E34.36014
G1 X165.074 Y24.437 E34.42847
G1 X168.485 Y23.756 E34.67142
G1 X169.206 Y23.623 E34.72263
G1 X169.884 Y23.538 E34.77036
G1 X170.567 Y23.534 E34.81806
G1 X171.405 Y23.617 E34.87688
G1 X174.776 Y24.068 E35.11443
G1 X175.499 Y24.179 E35.16552
G1 X176.167 Y24.322 E35.21323
G1 X176.814 Y24.542 E35.26097
G1 X177.59 Y24.927 E35.32147
G1 X178.153 Y25.261 E35.36719
G1 X180.525 Y26.724 E35.56185
G1 X181.081 Y27.077 E35.60785
G1 X181.636 Y27.476 E35.65559
G1 X182.14 Y27.937 E35.7033
G1 X182.586 Y28.454 E35.75099
G1 X182.856 Y28.837 E35.78372
G1 X183.504 Y29.843 E35.8673
G1 X184.727 Y31.829 E36.03021
G1 X185.08 Y32.425 E36.07859
G1 X185.393 Y33.032 E36.12629
G1 X185.633 Y33.672 E36.17403
G1 X185.83 Y34.53 E36.23552
G1 X185.927 Y35.182 E36.28156
G1 X186.353 Y38.36 E36.50552
G1 X186.434 Y39.037 E36.55314
G1 X186.475 Y39.719 E36.60086
G1 X186.436 Y40.401 E36.64857
G1 X186.287 Y41.297 E36.71201
G1 X185.52 Y45.134 E36.98532
G1 X185.368 Y45.837 E37.03555
G1 X185.185 Y46.495 E37.08326
G1 X184.945 Y47.088 E37.12794
G1 X184.551 Y47.924 E37.19249
G1 X182.728 Y51.62 E37.48034
G1 X182.416 Y52.229 E37.52813
G1 X182.069 Y52.818 E37.57588
G1 X181.45 Y53.636 E37.64753
G1 X178.509 Y57.27 E37.97406
G1 X178.043 Y57.829 E38.02489
G1 X177.472 Y58.446 E38.08361
G1 X58.638 Y177.282 E49.82184
G1 X58.156 Y177.749 E49.86871
G1 X57.461 Y178.353 E49.93303
G1 X53.746 Y181.36 E50.26685
G1 X53.177 Y181.808 E50.31744
G1 X52.616 Y182.199 E50.3652
G1 X51.695 Y182.691 E50.43813
G1 X47.75 Y184.636 E50.74534
G1 X47.141 Y184.925 E50.79243
G1 X46.507 Y185.181 E50.84018
G1 X45.882 Y185.355 E50.8855
G1 X44.926 Y185.563 E50.95383
G1 X41.508 Y186.245 E51.19727
G1 X40.782 Y186.378 E51.24883
G1 X40.104 Y186.462 E51.29654
G1 X39.421 Y186.466 E51.34425
G1 X38.588 Y186.382 E51.40273
G1 X35.24 Y185.935 E51.63865
G1 X34.523 Y185.827 E51.68929
G1 X33.855 Y185.686 E51.73698
G1 X33.207 Y185.468 E51.78473
G1 X32.419 Y185.078 E51.84614
G1 X31.823 Y184.724 E51.89456
G1 X29.476 Y183.278 E52.0871
G1 X28.921 Y182.926 E52.13301
G1 X28.367 Y182.527 E52.18069
G1 X27.862 Y182.066 E52.22845
G1 X27.416 Y181.549 E52.27614
G1 X27.144 Y181.163 E52.30912
G1 X26.492 Y180.152 E52.39315
G1 X25.277 Y178.177 E52.55511
G1 X24.923 Y177.581 E52.60353
G1 X24.609 Y176.974 E52.65126
G1 X24.368 Y176.335 E52.69896
G1 X24.168 Y175.461 E52.76158
G1 X24.073 Y174.818 E52.80698
G1 X23.647 Y171.639 E53.03101
G1 X23.566 Y170.962 E53.07863
G1 X23.525 Y170.28 E53.12635
G1 X23.564 Y169.598 E53.17407
G1 X23.713 Y168.701 E53.23758
G1 X24.48 Y164.867 E53.51067
G1 X24.632 Y164.163 E53.56098
G1 X24.815 Y163.505 E53.60868
G1 X25.056 Y162.908 E53.65365
G1 X25.449 Y162.076 E53.71792
G1 X27.267 Y158.39 E54.00498
G1 X27.575 Y157.786 E54.05234
G1 X27.921 Y157.197 E54.10005
G1 X28.551 Y156.364 E54.173
G1 X31.495 Y152.725 E54.49993
G1 X31.972 Y152.154 E54.5519
G1 X32.444 Y151.64 E54.60064
G1 X151.362 Y32.718 E66.34727
M204 S3000
M205 X10 Y10
G0 F3000 X151.752 Y33.12
M204 S1800
M205 X8 Y8
G1 F2400 X152.234 Y32.653 E66.39415
G1 X152.9 Y32.074 E66.45578
G1 X156.601 Y29.08 E66.78828
G1 X157.17 Y28.632 E66.83886
G1 X157.704 Y28.262 E66.88424
G1 X158.561 Y27.806 E66.95204
G1 X162.49 Y25.87 E67.25798
G1 X163.099 Y25.581 E67.30506
G1 X163.702 Y25.339 E67.35044
G1 X164.237 Y25.192 E67.38919
G1 X165.184 Y24.987 E67.45687
G1 X168.586 Y24.307 E67.69919
G1 X169.307 Y24.174 E67.7504
G1 X169.952 Y24.095 E67.79578
G1 X170.849 Y24.118 E67.85846
G1 X171.459 Y24.188 E67.90134
G1 X174.691 Y24.621 E68.1291
G1 X175.414 Y24.732 E68.18019
G1 X176.049 Y24.87 E68.22558
G1 X176.662 Y25.085 E68.27095
G1 X177.304 Y25.408 E68.32115
G1 X177.859 Y25.738 E68.36625
G1 X180.225 Y27.196 E68.56036
G1 X180.781 Y27.549 E68.60636
G1 X181.307 Y27.931 E68.65177
G1 X181.782 Y28.374 E68.69714
G1 X182.199 Y28.872 E68.7425
G1 X182.386 Y29.141 E68.76539
G1 X183.027 Y30.136 E68.84806
G1 X184.245 Y32.114 E69.0103
G1 X184.598 Y32.71 E69.05869
G1 X184.894 Y33.289 E69.10411
G1 X185.117 Y33.899 E69.14947
G1 X185.276 Y34.614 E69.20063
G1 X185.372 Y35.257 E69.24604
G1 X185.797 Y38.427 E69.46943
G1 X185.878 Y39.104 E69.51706
G1 X185.915 Y39.752 E69.56239
G1 X185.832 Y40.664 E69.62635
G1 X185.716 Y41.302 E69.67165
G1 X184.973 Y45.016 E69.93619
G1 X184.821 Y45.719 E69.98643
G1 X184.645 Y46.344 E70.03178
G1 X184.438 Y46.85 E70.06997
G1 X184.049 Y47.676 E70.13374
G1 X182.229 Y51.364 E70.42099
G1 X181.917 Y51.973 E70.46878
G1 X181.586 Y52.532 E70.51416
G1 X181.008 Y53.291 E70.5808
G1 X178.079 Y56.912 E70.90609
G1 X177.613 Y57.471 E70.95692
G1 X177.067 Y58.059 E71.01297
G1 X58.248 Y176.88 E82.74972
G1 X57.766 Y177.347 E82.79659
G1 X57.1 Y177.926 E82.85823
G1 X53.399 Y180.92 E83.19073
G1 X52.83 Y181.368 E83.24131
G1 X52.296 Y181.738 E83.28669
G1 X51.439 Y182.194 E83.35449
G1 X47.51 Y184.13 E83.66043
G1 X46.901 Y184.419 E83.70751
G1 X46.298 Y184.661 E83.75289
G1 X45.763 Y184.808 E83.79164
G1 X44.816 Y185.013 E83.85932
G1 X41.407 Y185.695 E84.10214
G1 X40.681 Y185.828 E84.1537
G1 X40.036 Y185.905 E84.19907
G1 X39.14 Y185.881 E84.26167
G1 X38.541 Y185.812 E84.30379
G1 X35.324 Y185.381 E84.53049
G1 X34.607 Y185.273 E84.58113
G1 X33.971 Y185.137 E84.62656
G1 X33.358 Y184.924 E84.67189
G1 X32.704 Y184.596 E84.72299
G1 X32.116 Y184.247 E84.77075
G1 X29.776 Y182.805 E84.96273
G1 X29.221 Y182.453 E85.00864
G1 X28.695 Y182.072 E85.054
G1 X28.22 Y181.629 E85.09937
G1 X27.802 Y181.131 E85.14478
G1 X27.614 Y180.859 E85.16787
G1 X26.969 Y179.859 E85.25099
G1 X25.758 Y177.891 E85.41238
G1 X25.404 Y177.295 E85.4608
G1 X25.108 Y176.717 E85.50616
G1 X24.884 Y176.108 E85.55148
G1 X24.722 Y175.379 E85.60364
G1 X24.628 Y174.744 E85.64848
G1 X24.203 Y171.572 E85.87201
G1 X24.122 Y170.895 E85.91963
G1 X24.085 Y170.247 E85.96497
G1 X24.168 Y169.334 E86.029
G1 X24.284 Y168.698 E86.07415
G1 X25.027 Y164.986 E86.33857
G1 X25.179 Y164.282 E86.38887
G1 X25.355 Y163.656 E86.43429
G1 X25.563 Y163.147 E86.4727
G1 X25.951 Y162.324 E86.53625
G1 X27.766 Y158.644 E86.82284
G1 X28.074 Y158.04 E86.8702
G1 X28.404 Y157.481 E86.91554
G1 X28.992 Y156.708 E86.98338
G1 X31.925 Y153.084 E87.30901
G1 X32.402 Y152.513 E87.36098
G1 X32.84 Y152.036 E87.40621
G1 X151.752 Y33.12 E99.15225
M204 S3000
M205 X10 Y10
G1 F2400 E93.15225
;MESH:top.stl
G0 F3000 X155.015 Y36.384
G0 X155.789 Y37.158
G0 X29.97 Y170.285
G1 F2400 E99.15225
G0 F3000 X29.639 Y170.277
M204 S1800
M205 X8 Y8
;TYPE:WALL-OUTER
G1 F1800 X30.207 Y174.512 E99.45069
G1 X32.22 Y177.78 E99.71878
G1 X35.488 Y179.793 E99.98687
G1 X39.725 Y180.361 E100.28545
G1 X44.528 Y179.399 E100.62759
G1 X49.413 Y176.993 E101.00792
G1 X53.905 Y173.358 E101.41153
G1 X173.36 Y53.903 E113.21101
G1 X176.993 Y49.413 E113.61442
G1 X179.401 Y44.526 E113.99494
G1 X180.361 Y39.723 E114.33705
G1 X180.034 Y37.284 E114.50893
G1 X179.793 Y35.488 E114.6355
G1 X177.78 Y32.22 E114.90358
G1 X174.512 Y30.207 E115.17167
G1 X170.275 Y29.639 E115.47026
G1 X165.472 Y30.601 E115.81239
G1 X160.587 Y33.007 E116.19273
G1 X156.095 Y36.642 E116.59634
G1 X36.64 Y156.097 E128.39581
G1 X33.007 Y160.587 E128.79922
G1 X30.599 Y165.474 E129.17975
G1 X29.639 Y170.277 E129.52186
M204 S3000
M205 X10 Y10
G0 F3000 X29.665 Y170.475
G0 X30.207 Y170.295
M204 S1800
M205 X8 Y8
;TYPE:WALL-INNER
G1 F1800 X30.746 Y174.32 E129.8055
G1 X32.627 Y177.373 E130.05596
G1 X35.68 Y179.254 E130.30643
G1 X39.707 Y179.793 E130.59021
G1 X44.346 Y178.864 E130.92066
G1 X49.109 Y176.518 E131.2915
G1 X53.53 Y172.941 E131.6887
G1 X172.943 Y53.528 E143.48403
G1 X176.518 Y49.109 E143.88104
G1 X178.866 Y44.344 E144.25207
G1 X179.793 Y39.705 E144.58249
G1 X179.479 Y37.358 E144.74788
G1 X179.254 Y35.68 E144.86613
G1 X177.373 Y32.627 E145.1166
G1 X174.32 Y30.746 E145.36706
G1 X170.293 Y30.207 E145.65084
G1 X165.654 Y31.136 E145.98129
G1 X160.891 Y33.482 E146.35213
G1 X156.47 Y37.059 E146.74934
G1 X37.057 Y156.472 E158.54466
G1 X33.482 Y160.891 E158.94167
G1 X31.134 Y165.656 E159.3127
G1 X30.207 Y170.295 E159.64312
M204 S3000
M205 X10 Y10
G0 F3000 X30.754 Y170.316
M204 S1800
M205 X8 Y8
;TYPE:SKIN
G1 F1800 X31.268 Y174.136 E159.91234
G1 X33.02 Y176.98 E160.14565
G1 X35.864 Y178.732 E160.37896
G1 X39.688 Y179.246 E160.64845
G1 X44.169 Y178.347 E160.96767
G1 X48.814 Y176.061 E161.32927
G1 X53.168 Y172.537 E161.72051
G1 X172.541 Y53.164 E173.51188
G1 X176.061 Y48.814 E173.90273
G1 X178.351 Y44.165 E174.2647
G1 X179.246 Y39.684 E174.58386
G1 X178.942 Y37.424 E174.74314
G1 X178.732 Y35.864 E174.85308
G1 X176.981 Y33.019 E175.08641
G1 X174.136 Y31.268 E175.31974
G1 X170.312 Y30.754 E175.58924
G1 X165.831 Y31.653 E175.90846
G1 X161.186 Y33.939 E176.27005
G1 X156.832 Y37.463 E176.66129
G1 X37.459 Y156.836 E188.45267
G1 X33.939 Y161.186 E188.84351
G1 X31.649 Y165.835 E189.20548
G1 X30.754 Y170.316 E189.52465
M204 S3000
M205 X10 Y10
G0 F3000 X33.762 Y177.106
M204 S1800
M205 X8 Y8
G1 F1800 X32.891 Y176.236 E189.61063
G1 X32.821 Y176.166
M204 S3000
M205 X10 Y10
G0 F3000 X31.618 Y174.171
M204 S1800
M205 X8 Y8
G1 F1800 X35.826 Y178.379 E190.02629
M204 S3000
M205 X10 Y10
G0 F3000 X36.815 Y178.576
M204 S1800
M205 X8 Y8
G1 F1800 X31.422 Y173.183 E190.559
M204 S3000
M205 X10 Y10
G0 F3000 X31.299 Y172.268
M204 S1800
M205 X8 Y8
G1 F1800 X37.73 Y178.699 E191.19423
M204 S3000
M205 X10 Y10
G0 F3000 X38.644 Y178.821
M204 S1800
M205 X8 Y8
G1 F1800 X31.176 Y171.353 E191.93191
M204 S3000
M205 X10 Y10
G0 F3000 X31.053 Y170.438
M204 S1800
M205 X8 Y8
G1 F1800 X39.559 Y178.944 E192.77211
M204 S3000
M205 X10 Y10
G0 F3000 X40.252 Y178.845
M204 S1800
M205 X8 Y8
G1 F1800 X31.153 Y169.745 E193.67093
M204 S3000
M205 X10 Y10
G0 F3000 X31.285 Y169.086
M204 S1800
M205 X8 Y8
G1 F1800 X40.912 Y178.713 E194.62186
M204 S3000
M205 X10 Y10
G0 F3000 X41.572 Y178.581
M204 S1800
M205 X8 Y8
G1 F1800 X31.416 Y168.425 E195.62505
M204 S3000
M205 X10 Y10
G0 F3000 X31.548 Y167.765
M204 S1800
M205 X8 Y8
G1 F1800 X42.231 Y178.449 E196.68034
M204 S3000
M205 X10 Y10
G0 F3000 X42.891 Y178.316
M204 S1800
M205 X8 Y8
G1 F1800 X31.68 Y167.105 E197.78774
M204 S3000
M205 X10 Y10
G0 F3000 X31.812 Y166.445
M204 S1800
M205 X8 Y8
G1 F1800 X43.551 Y178.184 E198.94729
M204 S3000
M205 X10 Y10
G0 F3000 X44.184 Y178.026
M204 S1800
M205 X8 Y8
G1 F1800 X31.971 Y165.812 E200.1537
M204 S3000
M205 X10 Y10
G0 F3000 X32.232 Y165.281
M204 S1800
M205 X8 Y8
G1 F1800 X44.716 Y177.765 E201.38684
M204 S3000
M205 X10 Y10
G0 F3000 X45.246 Y177.503
M204 S1800
M205 X8 Y8
G1 F1800 X32.493 Y164.75 E202.64655
M204 S3000
M205 X10 Y10
G0 F3000 X32.755 Y164.22
M204 S1800
M205 X8 Y8
G1 F1800 X45.777 Y177.242 E203.93284
M204 S3000
M205 X10 Y10
G0 F3000 X46.307 Y176.981
M204 S1800
M205 X8 Y8
G1 F1800 X33.016 Y163.69 E205.24569
M204 S3000
M205 X10 Y10
G0 F3000 X33.277 Y163.159
M204 S1800
M205 X8 Y8
G1 F1800 X46.838 Y176.72 E206.58521
M204 S3000
M205 X10 Y10
G0 F3000 X47.369 Y176.459
M204 S1800
M205 X8 Y8
G1 F1800 X33.539 Y162.628 E207.95135
M204 S3000
M205 X10 Y10
G0 F3000 X33.8 Y162.097
M204 S1800
M205 X8 Y8
G1 F1800 X47.9 Y176.197 E209.34412
M204 S3000
M205 X10 Y10
G0 F3000 X48.431 Y175.936
M204 S1800
M205 X8 Y8
G1 F1800 X34.062 Y161.567 E210.76345
M204 S3000
M205 X10 Y10
G0 F3000 X34.375 Y161.089
M204 S1800
M205 X8 Y8
G1 F1800 X48.909 Y175.622 E212.19904
M204 S3000
M205 X10 Y10
G0 F3000 X49.346 Y175.268
M204 S1800
M205 X8 Y8
G1 F1800 X34.73 Y160.651 E213.64282
M204 S3000
M205 X10 Y10
G0 F3000 X35.084 Y160.214
M204 S1800
M205 X8 Y8
G1 F1800 X49.784 Y174.914 E215.09485
M204 S3000
M205 X10 Y10
G0 F3000 X50.222 Y174.559
M204 S1800
M205 X8 Y8
G1 F1800 X35.438 Y159.776 E216.55513
M204 S3000
M205 X10 Y10
G0 F3000 X35.793 Y159.338
M204 S1800
M205 X8 Y8
G1 F1800 X50.659 Y174.205 E218.0236
M204 S3000
M205 X10 Y10
G0 F3000 X51.097 Y173.851
M204 S1800
M205 X8 Y8
G1 F1800 X36.147 Y158.901 E219.50033
M204 S3000
M205 X10 Y10
G0 F3000 X36.501 Y158.463
M204 S1800
M205 X8 Y8
