;FLAVOR:Marlin
;TIME:654
;Filament used: 0.163422m
;Layer height: 0.1
;MINX:94.54
;MINY:91.54
;MINZ:0.3
;MAXX:115.46
;MAXY:118.46
;MAXZ:10.6
;Generated with Cura_SteamEngine 5.0.0
M140 S60
M105
M190 S60
M104 S200
M105
M109 S200
M82 ;absolute extrusion mode
G21 ;metric values
G90 ;absolute positioning
M82 ;set extruder to absolute mode
M107 ;start with the fan off
G28 X0 Y0 ;move X/Y to min endstops
G28 Z0 ;move Z to min endstops
G1 Z15.0 F100 ;move the platform down 15mm
G92 E0 ;zero the extruded length
G1 F200 E3 ;extrude 3mm of feed stock
G92 E0 ;zero the extruded length again
G1 F100
G0 Y20 F100
M117 Printing...
G5
G92 E0
G92 E0
G1 F2400 E-6
;LAYER_COUNT:104
;LAYER:0
M107
M204 S3000
M205 X10 Y10
G1 F600 Z0.375
G0 F3000 X96.484 Y93.693 Z0.375
G1 F600 Z0.3
G0 F3000 X94.541 Y99.08
M204 S1800
M205 X8 Y8
;TYPE:SKIRT
G1 F2400 E0
G1 X94.55 Y98.415 E0.04645
G1 X94.6 Y97.671 E0.09853
G1 X94.729 Y96.936 E0.15066
G1 X94.936 Y96.219 E0.20278
G1 X95.219 Y95.529 E0.25487
G1 X95.574 Y94.873 E0.30697
G1 X95.997 Y94.259 E0.35905
G1 X96.484 Y93.693 E0.4112
G1 X97.028 Y93.183 E0.46328
G1 X97.624 Y92.734 E0.5154
G1 X98.264 Y92.352 E0.56746
G1 X98.942 Y92.04 E0.61959
G1 X99.649 Y91.802 E0.67169
G1 X100.377 Y91.642 E0.72376
G1 X101.314 Y91.552 E0.7895
G1 X101.83 Y91.54 E0.82555
G1 X107.793 Y91.54 E1.24205
G1 X108.591 Y91.551 E1.29779
G1 X109.335 Y91.601 E1.34987
G1 X110.069 Y91.731 E1.40194
G1 X110.786 Y91.939 E1.45408
G1 X111.476 Y92.223 E1.5062
G1 X112.132 Y92.578 E1.5583
G1 X112.745 Y93.002 E1.61036
G1 X113.311 Y93.489 E1.66251
G1 X113.82 Y94.033 E1.71454
G1 X114.269 Y94.629 E1.76666
G1 X114.651 Y95.27 E1.81878
G1 X114.962 Y95.948 E1.87088
G1 X115.199 Y96.655 E1.92296
G1 X115.359 Y97.384 E1.97509
G1 X115.448 Y98.314 E2.04035
G1 X115.46 Y98.83 E2.0764
G1 X115.459 Y110.85 E2.91595
G1 X115.45 Y111.577 E2.96673
G1 X115.401 Y112.321 E3.01881
G1 X115.273 Y113.056 E3.07092
G1 X115.066 Y113.773 E3.12305
G1 X114.784 Y114.464 E3.17517
G1 X114.43 Y115.12 E3.22724
G1 X114.008 Y115.735 E3.27934
G1 X113.522 Y116.301 E3.33144
G1 X112.978 Y116.812 E3.38357
G1 X112.383 Y117.261 E3.43564
G1 X111.743 Y117.645 E3.48777
G1 X111.066 Y117.957 E3.53983
G1 X110.359 Y118.196 E3.59196
G1 X109.631 Y118.357 E3.64404
G1 X108.686 Y118.448 E3.71035
G1 X108.17 Y118.46 E3.7464
G1 X102.117 Y118.459 E4.16918
G1 X101.419 Y118.45 E4.21793
G1 X100.675 Y118.401 E4.27001
G1 X99.94 Y118.272 E4.32213
G1 X99.224 Y118.065 E4.37419
G1 X98.533 Y117.783 E4.42632
G1 X97.877 Y117.428 E4.47842
G1 X97.262 Y117.005 E4.53055
G1 X96.697 Y116.519 E4.58261
G1 X96.186 Y115.975 E4.63474
G1 X95.737 Y115.38 E4.6868
G1 X95.354 Y114.74 E4.7389
G1 X95.041 Y114.063 E4.79099
G1 X94.803 Y113.356 E4.84309
G1 X94.642 Y112.627 E4.89524
G1 X94.552 Y111.679 E4.96175
G1 X94.54 Y111.158 E4.99815
G1 X94.541 Y99.08 E5.84175
M204 S3000
M205 X10 Y10
G0 F3000 X95.101 Y99.087
M204 S1800
M205 X8 Y8
G1 F2400 X95.11 Y98.422 E5.88821
G1 X95.159 Y97.709 E5.93812
G1 X95.288 Y97.005 E5.98812
G1 X95.495 Y96.321 E6.03803
G1 X95.777 Y95.663 E6.08803
G1 X96.13 Y95.041 E6.13798
G1 X96.55 Y94.463 E6.18789
G1 X97.033 Y93.935 E6.23787
G1 X97.571 Y93.464 E6.28781
G1 X98.159 Y93.056 E6.3378
G1 X98.788 Y92.716 E6.38774
G1 X99.452 Y92.449 E6.43773
G1 X100.141 Y92.257 E6.48769
G1 X100.847 Y92.143 E6.53764
G1 X101.651 Y92.103 E6.59386
G1 X107.793 Y92.1 E7.02286
G1 X108.583 Y92.111 E7.07804
G1 X109.296 Y92.161 E7.12797
G1 X110 Y92.29 E7.17796
G1 X110.684 Y92.498 E7.22789
G1 X111.341 Y92.78 E7.27783
G1 X111.963 Y93.134 E7.32782
G1 X112.541 Y93.555 E7.37776
G1 X113.069 Y94.038 E7.42774
G1 X113.539 Y94.576 E7.47764
G1 X113.947 Y95.164 E7.52763
G1 X114.286 Y95.794 E7.5776
G1 X114.553 Y96.457 E7.62752
G1 X114.744 Y97.147 E7.67753
G1 X114.857 Y97.853 E7.72746
G1 X114.897 Y98.65 E7.7832
G1 X114.9 Y110.843 E8.63484
G1 X114.891 Y111.57 E8.68562
G1 X114.842 Y112.284 E8.73561
G1 X114.714 Y112.988 E8.78559
G1 X114.508 Y113.673 E8.83555
G1 X114.227 Y114.33 E8.88546
G1 X113.874 Y114.953 E8.93547
G1 X113.454 Y115.532 E8.98543
G1 X112.972 Y116.06 E9.03537
G1 X112.435 Y116.532 E9.0853
G1 X111.847 Y116.94 E9.13529
G1 X111.218 Y117.281 E9.18526
G1 X110.555 Y117.549 E9.23521
G1 X109.866 Y117.741 E9.28517
G1 X109.16 Y117.856 E9.33513
G1 X108.349 Y117.897 E9.39185
G1 X102.124 Y117.899 E9.82664
G1 X101.426 Y117.89 E9.8754
G1 X100.713 Y117.841 E9.92532
G1 X100.009 Y117.713 E9.97529
G1 X99.324 Y117.507 E10.02526
G1 X98.667 Y117.225 E10.07519
G1 X98.045 Y116.872 E10.12515
G1 X97.466 Y116.452 E10.17511
G1 X96.937 Y115.97 E10.22509
G1 X96.466 Y115.432 E10.27504
G1 X96.058 Y114.845 E10.32497
G1 X95.718 Y114.215 E10.37497
G1 X95.45 Y113.552 E10.42492
G1 X95.258 Y112.863 E10.47488
G1 X95.144 Y112.157 E10.52483
G1 X95.102 Y111.331 E10.58259
G1 X95.101 Y99.087 E11.43779
M204 S3000
M205 X10 Y10
G0 F3000 X95.661 Y99.095
M204 S1800
M205 X8 Y8
G1 F2400 X95.67 Y98.43 E11.48424
G1 X95.719 Y97.749 E11.53193
G1 X95.847 Y97.077 E11.57971
G1 X96.053 Y96.426 E11.6274
G1 X96.334 Y95.803 E11.67514
G1 X96.685 Y95.217 E11.72285
G1 X97.103 Y94.676 E11.7706
G1 X97.58 Y94.188 E11.81827
G1 X98.112 Y93.759 E11.866
G1 X98.69 Y93.394 E11.91375
G1 X99.307 Y93.1 E11.96148
G1 X99.953 Y92.88 E12.00915
G1 X100.621 Y92.737 E12.05686
G1 X101.345 Y92.671 E12.10764
G1 X101.83 Y92.66 E12.14153
G1 X107.793 Y92.66 E12.55802
G1 X108.575 Y92.671 E12.61265
G1 X109.256 Y92.72 E12.66033
G1 X109.927 Y92.849 E12.70806
G1 X110.578 Y93.056 E12.75577
G1 X111.201 Y93.337 E12.80351
G1 X111.787 Y93.689 E12.85125
G1 X112.327 Y94.107 E12.89895
G1 X112.815 Y94.585 E12.94666
G1 X113.244 Y95.117 E12.9944
G1 X113.608 Y95.695 E13.04211
G1 X113.902 Y96.312 E13.08984
G1 X114.121 Y96.959 E13.13755
G1 X114.264 Y97.627 E13.18527
G1 X114.329 Y98.346 E13.23569
G1 X114.34 Y98.83 E13.26951
G1 X114.34 Y110.836 E14.10808
G1 X114.331 Y111.563 E14.15886
G1 X114.282 Y112.245 E14.20662
G1 X114.154 Y112.916 E14.25433
G1 X113.949 Y113.568 E14.30207
G1 X113.669 Y114.191 E14.34978
G1 X113.319 Y114.777 E14.39745
G1 X112.902 Y115.319 E14.44522
G1 X112.425 Y115.808 E14.49293
G1 X111.894 Y116.237 E14.54061
G1 X111.316 Y116.602 E14.58836
G1 X110.7 Y116.897 E14.63606
G1 X110.053 Y117.118 E14.68382
G1 X109.385 Y117.262 E14.73155
G1 X108.655 Y117.329 E14.78275
G1 X108.17 Y117.34 E14.81663
G1 X102.132 Y117.34 E15.23836
G1 X101.434 Y117.331 E15.28712
G1 X100.752 Y117.282 E15.33488
G1 X100.081 Y117.154 E15.38259
G1 X99.43 Y116.948 E15.43028
G1 X98.806 Y116.668 E15.47805
G1 X98.22 Y116.317 E15.52576
G1 X97.679 Y115.9 E15.57347
G1 X97.19 Y115.422 E15.62123
G1 X96.761 Y114.891 E15.66891
G1 X96.396 Y114.313 E15.71666
G1 X96.102 Y113.697 E15.76434
G1 X95.881 Y113.05 E15.81209
G1 X95.737 Y112.382 E15.85982
G1 X95.671 Y111.649 E15.91122
G1 X95.66 Y111.158 E15.94553
G1 X95.661 Y99.095 E16.78808
M204 S3000
M205 X10 Y10
G0 F3000 X96.22 Y99.103
M204 S1800
M205 X8 Y8
G1 F2400 X96.229 Y98.438 E16.83453
G1 X96.278 Y97.79 E16.87992
G1 X96.406 Y97.153 E16.92531
G1 X96.611 Y96.536 E16.97072
G1 X96.891 Y95.95 E17.01608
G1 X97.24 Y95.402 E17.06146
G1 X97.654 Y94.901 E17.10685
G1 X98.126 Y94.455 E17.15221
G1 X98.649 Y94.071 E17.19753
G1 X99.216 Y93.753 E17.24293
G1 X99.817 Y93.507 E17.28829
G1 X100.444 Y93.337 E17.33367
G1 X101.361 Y93.231 E17.39814
G1 X101.83 Y93.22 E17.43091
G1 X107.793 Y93.22 E17.8474
G1 X108.567 Y93.231 E17.90147
G1 X109.214 Y93.28 E17.94679
G1 X109.851 Y93.408 E17.99217
G1 X110.467 Y93.614 E18.03754
G1 X111.054 Y93.894 E18.08296
G1 X111.601 Y94.243 E18.12828
G1 X112.102 Y94.657 E18.17368
G1 X112.547 Y95.13 E18.21904
G1 X112.932 Y95.654 E18.26445
G1 X113.249 Y96.221 E18.30983
G1 X113.494 Y96.822 E18.35516
G1 X113.663 Y97.449 E18.40052
G1 X113.769 Y98.362 E18.46471
G1 X113.78 Y98.83 E18.49741
G1 X113.78 Y110.829 E19.3355
G1 X113.771 Y111.556 E19.38628
G1 X113.723 Y112.204 E19.43166
G1 X113.595 Y112.841 E19.47704
G1 X113.391 Y113.458 E19.52243
G1 X113.112 Y114.045 E19.56783
G1 X112.764 Y114.593 E19.61317
G1 X112.351 Y115.094 E19.65852
G1 X111.879 Y115.541 E19.70393
G1 X111.356 Y115.926 E19.74929
G1 X110.79 Y116.244 E19.79463
G1 X110.188 Y116.491 E19.84008
G1 X109.562 Y116.661 E19.88539
G1 X108.639 Y116.769 E19.95029
G1 X108.17 Y116.78 E19.98306
G1 X102.139 Y116.78 E20.4043
G1 X101.441 Y116.771 E20.45306
G1 X100.793 Y116.722 E20.49845
G1 X100.156 Y116.595 E20.54382
G1 X99.54 Y116.39 E20.58916
G1 X98.953 Y116.111 E20.63456
G1 X98.405 Y115.762 E20.67994
G1 X97.904 Y115.349 E20.72529
G1 X97.457 Y114.877 E20.77069
G1 X97.072 Y114.354 E20.81605
G1 X96.754 Y113.787 E20.86146
G1 X96.508 Y113.186 E20.90682
G1 X96.338 Y112.559 E20.95219
G1 X96.231 Y111.634 E21.01723
G1 X96.22 Y111.158 E21.05049
G1 X96.22 Y99.103 E21.89248
M204 S3000
M205 X10 Y10
G1 F2400 E15.89248
;MESH:wheel_holder.stl
G0 F3000 X100.835 Y99.103
G0 X101.93 Y99.103
G1 F2400 E21.89248
G0 F3000 X101.78 Y98.78
M204 S1800
M205 X8 Y8
;TYPE:WALL-OUTER
G1 F1800 X101.78 Y111.22 E22.76137
G1 X108.22 Y111.22 E23.21118
G1 X108.22 Y98.78 E24.08007
G1 X105 Y98.78 E24.30497
G1 X101.78 Y98.78 E24.52988
M204 S3000
M205 X10 Y10
G0 F3000 X101.78 Y98.98
G0 X102.34 Y99.34
M204 S1800
M205 X8 Y8
;TYPE:WALL-INNER
G1 F1800 X102.34 Y110.66 E25.32054
G1 X107.66 Y110.66 E25.69212
G1 X107.66 Y99.34 E26.48278
G1 X105 Y99.34 E26.66857
G1 X102.34 Y99.34 E26.85436
M204 S3000
M205 X10 Y10
G0 F3000 X102.88 Y99.88
M204 S1800
M205 X8 Y8
;TYPE:SKIN
G1 F1800 X102.88 Y110.12 E27.56959
G1 X107.12 Y110.12 E27.86574
G1 X107.12 Y108 E28.01381
G1 X107.12 Y99.88 E28.58096
G1 X102.88 Y99.88 E28.87711
M204 S3000
M205 X10 Y10
G0 F3000 X106.839 Y100.503
M204 S1800
M205 X8 Y8
G1 F1800 X106.495 Y100.16 E28.91104
M204 S3000
M205 X10 Y10
G0 F3000 X105.703 Y100.16
M204 S1800
M205 X8 Y8
G1 F1800 X106.839 Y101.295 E29.0232
M204 S3000
M205 X10 Y10
G0 F3000 X106.839 Y102.087
M204 S1800
M205 X8 Y8
G1 F1800 X104.912 Y100.16 E29.21355
M204 S3000
M205 X10 Y10
G0 F3000 X104.12 Y100.16
M204 S1800
M205 X8 Y8
G1 F1800 X106.839 Y102.879 E29.48212
M204 S3000
M205 X10 Y10
G0 F3000 X106.839 Y103.671
M204 S1800
M205 X8 Y8
G1 F1800 X103.328 Y100.16 E29.82893
M204 S3000
M205 X10 Y10
G0 F3000 X103.159 Y100.783
M204 S1800
M205 X8 Y8
G1 F1800 X106.839 Y104.463 E30.19243
M204 S3000
M205 X10 Y10
G0 F3000 X106.839 Y105.255
M204 S1800
M205 X8 Y8
G1 F1800 X103.159 Y101.575 E30.55594
M204 S3000
M205 X10 Y10
G0 F3000 X103.159 Y102.367
M204 S1800
M205 X8 Y8
G1 F1800 X106.839 Y106.047 E30.91944
M204 S3000
M205 X10 Y10
G0 F3000 X106.839 Y106.839
M204 S1800
M205 X8 Y8
G1 F1800 X103.159 Y103.159 E31.28294
M204 S3000
M205 X10 Y10
G0 F3000 X103.159 Y103.951
M204 S1800
M205 X8 Y8
G1 F1800 X106.839 Y107.631 E31.64644
M204 S3000
M205 X10 Y10
G0 F3000 X106.839 Y108.423
M204 S1800
M205 X8 Y8
G1 F1800 X103.159 Y104.743 E32.00994
M204 S3000
M205 X10 Y10
G0 F3000 X103.159 Y105.534
M204 S1800
M205 X8 Y8
G1 F1800 X106.839 Y109.215 E32.37349
M204 S3000
M205 X10 Y10
G0 F3000 X106.671 Y109.839
M204 S1800
M205 X8 Y8
G1 F1800 X103.159 Y106.326 E32.72045
M204 S3000
M205 X10 Y10
G0 F3000 X103.159 Y107.118
M204 S1800
M205 X8 Y8
G1 F1800 X105.879 Y109.839 E32.98917
M204 S3000
M205 X10 Y10
G0 F3000 X105.087 Y109.839
M204 S1800
M205 X8 Y8
G1 F1800 X103.159 Y107.91 E33.17966
M204 S3000
M205 X10 Y10
G0 F3000 X103.159 Y108.702
M204 S1800
M205 X8 Y8
G1 F1800 X104.295 Y109.839 E33.29193
M204 S3000
M205 X10 Y10
G0 F3000 X103.503 Y109.839
M204 S1800
M205 X8 Y8
G1 F1800 X103.159 Y109.494 E33.32595
M204 S3000
M205 X10 Y10
;MESH:NONMESH
G0 F600 X103.159 Y109.494 Z0.4
G0 F3000 X102.08 Y99.08
G0 X101.7 Y98.7
;TIME_ELAPSED:19.453292
;LAYER:1
M106 S85
M204 S1800
M205 X8 Y8
;TYPE:WALL-OUTER
;MESH:wheel_holder.stl
G1 F2700 X101.7 Y111.3 E33.53549
G1 X108.3 Y111.3 E33.64525
G1 X108.3 Y102 E33.79991
G1 X108.3 Y98.7 E33.85479
G1 X101.7 Y98.7 E33.96455
M204 S3000
M205 X10 Y10
G0 F4500 X101.7 Y98.9
G0 X102.1 Y99.1
M204 S1800
M205 X8 Y8
;TYPE:WALL-INNER
G1 F2700 X102.1 Y110.9 E34.16078
G1 X107.9 Y110.9 E34.25724
G1 X107.9 Y102 E34.40525
G1 X107.9 Y99.1 E34.45347
G1 X102.1 Y99.1 E34.54993
M204 S3000
M205 X10 Y10
G0 F4500 X102.48 Y99.48
M204 S1800
M205 X8 Y8
;TYPE:SKIN
G1 F1800 X102.48 Y110.52 E34.73352
G1 X107.52 Y110.52 E34.81734
G1 X107.52 Y102 E34.95903
G1 X107.52 Y99.48 E35.00093
G1 X102.48 Y99.48 E35.08475
M204 S3000
M205 X10 Y10
G0 F4500 X102.679 Y99.835
M204 S1800
M205 X8 Y8
G1 F1800 X102.835 Y99.68 E35.08841
M204 S3000
M205 X10 Y10
G0 F4500 X103.4 Y99.68
M204 S1800
M205 X8 Y8
G1 F1800 X102.679 Y100.401 E35.10536
M204 S3000
M205 X10 Y10
G0 F4500 X102.679 Y100.967
M204 S1800
M205 X8 Y8
G1 F1800 X103.966 Y99.68 E35.13563
M204 S3000
M205 X10 Y10
G0 F4500 X104.532 Y99.68
M204 S1800
M205 X8 Y8
G1 F1800 X102.679 Y101.532 E35.1792
M204 S3000
M205 X10 Y10
G0 F4500 X102.679 Y102.098
M204 S1800
M205 X8 Y8
G1 F1800 X105.097 Y99.68 E35.23607
M204 S3000
M205 X10 Y10
G0 F4500 X105.663 Y99.68
M204 S1800
M205 X8 Y8
G1 F1800 X102.679 Y102.664 E35.30625
M204 S3000
M205 X10 Y10
G0 F4500 X102.679 Y103.229
M204 S1800
M205 X8 Y8
G1 F1800 X106.229 Y99.68 E35.38973
M204 S3000
M205 X10 Y10
G0 F4500 X106.795 Y99.68
M204 S1800
M205 X8 Y8
G1 F1800 X102.679 Y103.795 E35.48652
M204 S3000
M205 X10 Y10
G0 F4500 X102.679 Y104.361
M204 S1800
M205 X8 Y8
G1 F1800 X107.319 Y99.721 E35.59564
M204 S3000
M205 X10 Y10
G0 F4500 X107.319 Y100.286
M204 S1800
M205 X8 Y8
G1 F1800 X102.679 Y104.926 E35.70477
M204 S3000
M205 X10 Y10
G0 F4500 X102.679 Y105.492
M204 S1800
M205 X8 Y8
G1 F1800 X107.319 Y100.852 E35.81389
M204 S3000
M205 X10 Y10
G0 F4500 X107.319 Y101.418
M204 S1800
M205 X8 Y8
G1 F1800 X102.679 Y106.058 E35.92302
M204 S3000
M205 X10 Y10
G0 F4500 X102.679 Y106.623
M204 S1800
M205 X8 Y8
G1 F1800 X107.319 Y101.983 E36.03214
M204 S3000
M205 X10 Y10
G0 F4500 X107.319 Y102.549
M204 S1800
M205 X8 Y8
G1 F1800 X102.679 Y107.189 E36.14127
M204 S3000
M205 X10 Y10
G0 F4500 X102.679 Y107.755
M204 S1800
M205 X8 Y8
G1 F1800 X107.319 Y103.115 E36.2504
M204 S3000
M205 X10 Y10
G0 F4500 X107.319 Y103.68
M204 S1800
M205 X8 Y8
G1 F1800 X102.679 Y108.32 E36.35952
M204 S3000
M205 X10 Y10
G0 F4500 X102.679 Y108.886
M204 S1800
M205 X8 Y8
G1 F1800 X107.319 Y104.246 E36.46865
M204 S3000
M205 X10 Y10
G0 F4500 X107.319 Y104.812
M204 S1800
M205 X8 Y8
G1 F1800 X102.679 Y109.452 E36.57777
M204 S3000
M205 X10 Y10
G0 F4500 X102.679 Y110.018
M204 S1800
M205 X8 Y8
G1 F1800 X107.319 Y105.378 E36.6869
M204 S3000
M205 X10 Y10
G0 F4500 X107.319 Y105.943
M204 S1800
M205 X8 Y8
G1 F1800 X102.944 Y110.319 E36.7898
M204 S3000
M205 X10 Y10
G0 F4500 X103.509 Y110.319
M204 S1800
M205 X8 Y8
G1 F1800 X107.319 Y106.509 E36.87941
M204 S3000
M205 X10 Y10
G0 F4500 X107.319 Y107.075
M204 S1800
M205 X8 Y8
G1 F1800 X104.075 Y110.319 E36.9557
M204 S3000
M205 X10 Y10
G0 F4500 X104.641 Y110.319
M204 S1800
M205 X8 Y8
G1 F1800 X107.319 Y107.64 E37.0187
M204 S3000
M205 X10 Y10
G0 F4500 X107.319 Y108.206
M204 S1800
M205 X8 Y8
G1 F1800 X105.206 Y110.319 E37.06839
M204 S3000
M205 X10 Y10
G0 F4500 X105.772 Y110.319
M204 S1800
M205 X8 Y8
G1 F1800 X107.319 Y108.772 E37.10478
M204 S3000
M205 X10 Y10
G0 F4500 X107.319 Y109.337
M204 S1800
M205 X8 Y8
G1 F1800 X106.338 Y110.319 E37.12786
M204 S3000
M205 X10 Y10
G0 F4500 X106.903 Y110.319
M204 S1800
M205 X8 Y8
G1 F1800 X107.319 Y109.903 E37.13764
M204 S3000
M205 X10 Y10
;MESH:NONMESH
G0 F600 X107.319 Y109.903 Z0.5
G0 F4500 X102.08 Y99.08
G0 X101.7 Y98.7
;TIME_ELAPSED:27.675245
;LAYER:2
M106 S170
M204 S1800
M205 X8 Y8
;TYPE:WALL-OUTER
;MESH:wheel_holder.stl
G1 F3600 X101.7 Y111.3 E37.34718
G1 X108.3 Y111.3 E37.45694
G1 X108.3 Y102 E37.6116
G1 X108.3 Y98.7 E37.66648
G1 X101.7 Y98.7 E37.77624
M204 S3000
M205 X10 Y10
G0 F6000 X101.7 Y98.9
G0 X102.1 Y99.1
M204 S1800
M205 X8 Y8
;TYPE:WALL-INNER
G1 F3600 X102.1 Y110.9 E37.97247
G1 X107.9 Y110.9 E38.06893
G1 X107.9 Y102 E38.21693
G1 X107.9 Y99.1 E38.26516
G1 X102.1 Y99.1 E38.36162
M204 S3000
M205 X10 Y10
G0 F6000 X102.48 Y99.48
M204 S1800
M205 X8 Y8
;TYPE:SKIN
G1 F1800 X102.48 Y110.52 E38.54521
G1 X107.52 Y110.52 E38.62903
G1 X107.52 Y102 E38.77071
G1 X107.52 Y99.48 E38.81262
G1 X102.48 Y99.48 E38.89644
M204 S3000
M205 X10 Y10
G0 F6000 X107.319 Y99.965
M204 S1800
M205 X8 Y8
G1 F1800 X107.034 Y99.68 E38.90314
M204 S3000
M205 X10 Y10
G0 F6000 X106.468 Y99.68
M204 S1800
M205 X8 Y8
