;FLAVOR:Marlin
;TIME:1335
;Filament used: 0.576128m
;Layer height: 0.1
;MINX:88.6
;MINY:74.647
;MINZ:0.3
;MAXX:121.4
;MAXY:117.899
;MAXZ:10.6
;Generated with Cura_SteamEngine 5.0.0
M140 S60
M105
M190 S60
M104 S200
M105
M109 S200
M82 ;absolute extrusion mode
G21 ;metric values
G90 ;absolute positioning
M82 ;set extruder to absolute mode
M107 ;start with the fan off
G28 X0 Y0 ;move X/Y to min endstops
G28 Z0 ;move Z to min endstops
G1 Z15.0 F100 ;move the platform down 15mm
G92 E0 ;zero the extruded length
G1 F200 E3 ;extrude 3mm of feed stock
G92 E0 ;zero the extruded length again
G1 F100
G0 Y20 F100
M117 Printing...
G5
G92 E0
G92 E0
G1 F2400 E-6
;LAYER_COUNT:104
;LAYER:0
M107
M204 S3000
M205 X10 Y10
G1 F600 Z0.375
G0 F3000 X90.05 Y77.01 Z0.375
G1 F600 Z0.3
G0 F3000 X88.601 Y81.634
M204 S1800
M205 X8 Y8
;TYPE:SKIRT
G1 F2400 E0
G1 X88.61 Y80.969 E0.04645
G1 X88.659 Y80.256 E0.09637
G1 X88.788 Y79.552 E0.14636
G1 X88.995 Y78.868 E0.19628
G1 X89.277 Y78.21 E0.24628
G1 X89.63 Y77.588 E0.29623
G1 X90.05 Y77.01 E0.34613
G1 X90.533 Y76.482 E0.39612
G1 X91.071 Y76.011 E0.44606
G1 X91.659 Y75.603 E0.49605
G1 X92.288 Y75.263 E0.54599
G1 X92.952 Y74.996 E0.59597
G1 X93.641 Y74.804 E0.64593
G1 X94.347 Y74.69 E0.69588
G1 X95.151 Y74.65 E0.75211
G1 X114.293 Y74.647 E2.08911
G1 X115.083 Y74.658 E2.14429
G1 X115.796 Y74.708 E2.19421
G1 X116.5 Y74.837 E2.2442
G1 X117.184 Y75.045 E2.29414
G1 X117.841 Y75.327 E2.34408
G1 X118.463 Y75.681 E2.39406
G1 X119.041 Y76.102 E2.44401
G1 X119.569 Y76.585 E2.49399
G1 X120.039 Y77.123 E2.54389
G1 X120.447 Y77.711 E2.59387
G1 X120.786 Y78.341 E2.64384
G1 X121.053 Y79.004 E2.69377
G1 X121.244 Y79.694 E2.74377
G1 X121.357 Y80.4 E2.79371
G1 X121.397 Y81.197 E2.84945
G1 X121.399 Y93.407 E3.70227
G1 X121.378 Y94.852 E3.80321
G1 X121.378 Y97.603 E3.99536
G1 X121.4 Y98.813 E4.07989
G1 X121.4 Y110.843 E4.92014
G1 X121.391 Y111.57 E4.97092
G1 X121.342 Y112.284 E5.02091
G1 X121.214 Y112.988 E5.07088
G1 X121.008 Y113.673 E5.12085
G1 X120.727 Y114.33 E5.17076
G1 X120.374 Y114.953 E5.22077
G1 X119.954 Y115.532 E5.27073
G1 X119.472 Y116.06 E5.32066
G1 X118.935 Y116.532 E5.3706
G1 X118.347 Y116.94 E5.42059
G1 X117.718 Y117.281 E5.47056
G1 X117.055 Y117.549 E5.52051
G1 X116.366 Y117.741 E5.57047
G1 X115.66 Y117.856 E5.62043
G1 X114.849 Y117.897 E5.67715
G1 X95.624 Y117.899 E7.01994
G1 X94.926 Y117.89 E7.0687
G1 X94.213 Y117.841 E7.11862
G1 X93.509 Y117.713 E7.1686
G1 X92.824 Y117.507 E7.21856
G1 X92.167 Y117.225 E7.26849
G1 X91.545 Y116.872 E7.31845
G1 X90.966 Y116.452 E7.36841
G1 X90.437 Y115.97 E7.41839
G1 X89.966 Y115.432 E7.46834
G1 X89.558 Y114.845 E7.51827
G1 X89.218 Y114.215 E7.56827
G1 X88.95 Y113.552 E7.61822
G1 X88.758 Y112.863 E7.66818
G1 X88.644 Y112.157 E7.71813
G1 X88.602 Y111.331 E7.77589
G1 X88.601 Y99.134 E8.62781
G1 X88.622 Y97.695 E8.72833
G1 X88.622 Y94.94 E8.92075
G1 X88.6 Y93.734 E9.005
G1 X88.601 Y81.634 E9.85014
M204 S3000
M205 X10 Y10
G0 F3000 X89.161 Y81.642
M204 S1800
M205 X8 Y8
G1 F2400 X89.17 Y80.977 E9.8966
G1 X89.219 Y80.296 E9.94428
G1 X89.347 Y79.624 E9.99206
G1 X89.553 Y78.973 E10.03976
G1 X89.834 Y78.35 E10.08749
G1 X90.185 Y77.764 E10.1352
G1 X90.603 Y77.223 E10.18295
G1 X91.08 Y76.735 E10.23062
G1 X91.612 Y76.306 E10.27835
G1 X92.19 Y75.941 E10.3261
G1 X92.807 Y75.647 E10.37384
G1 X93.453 Y75.427 E10.4215
G1 X94.121 Y75.284 E10.46922
G1 X94.845 Y75.218 E10.52
G1 X95.33 Y75.207 E10.55388
G1 X114.293 Y75.207 E11.87837
G1 X115.075 Y75.218 E11.933
G1 X115.756 Y75.267 E11.98069
G1 X116.427 Y75.396 E12.02841
G1 X117.078 Y75.603 E12.07613
G1 X117.701 Y75.884 E12.12386
G1 X118.287 Y76.236 E12.17161
G1 X118.827 Y76.654 E12.2193
G1 X119.315 Y77.132 E12.26702
G1 X119.744 Y77.664 E12.31475
G1 X120.108 Y78.242 E12.36246
G1 X120.402 Y78.859 E12.4102
G1 X120.621 Y79.506 E12.45791
G1 X120.764 Y80.174 E12.50562
G1 X120.829 Y80.893 E12.55605
G1 X120.84 Y81.377 E12.58986
G1 X120.839 Y93.399 E13.42955
G1 X120.818 Y94.852 E13.53105
G1 X120.818 Y97.611 E13.72376
G1 X120.84 Y98.813 E13.80773
G1 X120.84 Y110.836 E14.64749
G1 X120.831 Y111.563 E14.69827
G1 X120.782 Y112.245 E14.74603
G1 X120.654 Y112.916 E14.79374
G1 X120.449 Y113.568 E14.84148
G1 X120.169 Y114.191 E14.88918
G1 X119.819 Y114.777 E14.93686
G1 X119.402 Y115.319 E14.98462
G1 X118.925 Y115.808 E15.03234
G1 X118.394 Y116.237 E15.08002
G1 X117.816 Y116.602 E15.12776
G1 X117.2 Y116.897 E15.17547
G1 X116.553 Y117.118 E15.22322
G1 X115.885 Y117.262 E15.27095
G1 X115.155 Y117.329 E15.32215
G1 X114.67 Y117.34 E15.35604
G1 X95.632 Y117.34 E16.68577
G1 X94.934 Y117.331 E16.73453
G1 X94.252 Y117.282 E16.78229
G1 X93.581 Y117.154 E16.83
G1 X92.93 Y116.948 E16.87769
G1 X92.306 Y116.668 E16.92546
G1 X91.72 Y116.317 E16.97317
G1 X91.179 Y115.9 E17.02088
G1 X90.69 Y115.422 E17.06864
G1 X90.261 Y114.891 E17.11632
G1 X89.896 Y114.313 E17.16407
G1 X89.602 Y113.697 E17.21174
G1 X89.381 Y113.05 E17.2595
G1 X89.237 Y112.382 E17.30723
G1 X89.171 Y111.649 E17.35863
G1 X89.16 Y111.158 E17.39293
G1 X89.161 Y99.142 E18.23221
G1 X89.182 Y97.695 E18.33329
G1 X89.182 Y94.929 E18.52648
G1 X89.16 Y93.734 E18.60996
G1 X89.161 Y81.642 E19.45454
M204 S3000
M205 X10 Y10
G0 F3000 X89.72 Y81.65
M204 S1800
M205 X8 Y8
G1 F2400 X89.729 Y80.985 E19.50099
G1 X89.778 Y80.337 E19.54638
G1 X89.906 Y79.7 E19.59177
G1 X90.111 Y79.083 E19.63718
G1 X90.391 Y78.497 E19.68254
G1 X90.74 Y77.949 E19.72792
G1 X91.154 Y77.448 E19.77331
G1 X91.626 Y77.002 E19.81867
G1 X92.149 Y76.618 E19.86399
G1 X92.716 Y76.3 E19.90939
G1 X93.317 Y76.054 E19.95475
G1 X93.944 Y75.884 E20.00013
G1 X94.861 Y75.778 E20.0646
G1 X95.33 Y75.767 E20.09737
G1 X114.293 Y75.767 E21.42186
G1 X115.067 Y75.778 E21.47593
G1 X115.714 Y75.827 E21.52125
G1 X116.351 Y75.955 E21.56663
G1 X116.967 Y76.161 E21.612
G1 X117.554 Y76.441 E21.65743
G1 X118.101 Y76.79 E21.70275
G1 X118.602 Y77.204 E21.74814
G1 X119.047 Y77.677 E21.7935
G1 X119.432 Y78.201 E21.83892
G1 X119.749 Y78.768 E21.88429
G1 X119.994 Y79.369 E21.92962
G1 X120.163 Y79.996 E21.97498
G1 X120.269 Y80.909 E22.03917
G1 X120.28 Y81.377 E22.07187
G1 X120.279 Y93.391 E22.911
G1 X120.258 Y94.852 E23.01306
G1 X120.258 Y97.619 E23.20633
G1 X120.28 Y98.813 E23.28974
G1 X120.28 Y110.829 E24.12901
G1 X120.271 Y111.556 E24.17979
G1 X120.223 Y112.204 E24.22518
G1 X120.095 Y112.841 E24.27056
G1 X119.891 Y113.458 E24.31595
G1 X119.612 Y114.045 E24.36134
G1 X119.264 Y114.593 E24.40668
G1 X118.851 Y115.094 E24.45203
G1 X118.379 Y115.541 E24.49744
G1 X117.856 Y115.926 E24.5428
G1 X117.29 Y116.244 E24.58814
G1 X116.688 Y116.491 E24.63359
G1 X116.062 Y116.661 E24.6789
G1 X115.139 Y116.769 E24.74381
G1 X114.67 Y116.78 E24.77657
G1 X95.639 Y116.78 E26.10582
G1 X94.941 Y116.771 E26.15458
G1 X94.293 Y116.722 E26.19997
G1 X93.656 Y116.595 E26.24533
G1 X93.04 Y116.39 E26.29068
G1 X92.453 Y116.111 E26.33607
G1 X91.905 Y115.762 E26.38145
G1 X91.404 Y115.349 E26.4268
G1 X90.957 Y114.877 E26.47221
G1 X90.572 Y114.354 E26.51757
G1 X90.254 Y113.787 E26.56297
G1 X90.008 Y113.186 E26.60833
G1 X89.838 Y112.559 E26.65371
G1 X89.731 Y111.634 E26.71875
G1 X89.72 Y111.158 E26.752
G1 X89.721 Y99.15 E27.59072
G1 X89.742 Y97.695 E27.69235
G1 X89.742 Y94.919 E27.88625
G1 X89.72 Y93.734 E27.96903
G1 X89.72 Y81.65 E28.81305
M204 S3000
M205 X10 Y10
G1 F2400 E22.81305
;MESH:wheel_holder_hidden.stl(1)
G0 F3000 X94.335 Y81.65
G0 X95.43 Y81.65
G1 F2400 E28.81305
G0 F3000 X95.28 Y81.327
M204 S1800
M205 X8 Y8
;TYPE:WALL-OUTER
G1 F1800 X95.28 Y93.767 E29.68194
G1 X114.72 Y93.767 E31.03975
G1 X114.72 Y87.547 E31.47419
G1 X114.72 Y81.327 E31.90864
G1 X95.28 Y81.327 E33.26645
M204 S3000
M205 X10 Y10
G0 F3000 X95.28 Y81.527
G0 X95.84 Y81.887
M204 S1800
M205 X8 Y8
;TYPE:WALL-INNER
G1 F1800 X95.84 Y93.207 E34.05711
G1 X114.16 Y93.207 E35.33669
G1 X114.16 Y87.547 E35.73202
G1 X114.16 Y81.887 E36.12735
G1 X95.84 Y81.887 E37.40694
M204 S3000
M205 X10 Y10
G0 F3000 X96.38 Y82.427
M204 S1800
M205 X8 Y8
;TYPE:SKIN
G1 F1800 X96.38 Y92.667 E38.12216
G1 X113.62 Y92.667 E39.32631
G1 X113.62 Y87.547 E39.68393
G1 X113.62 Y82.427 E40.04154
G1 X96.38 Y82.427 E41.24569
M204 S3000
M205 X10 Y10
G0 F3000 X97.138 Y92.386
M204 S1800
M205 X8 Y8
G1 F1800 X96.659 Y91.907 E41.293
M204 S3000
M205 X10 Y10
G0 F3000 X96.659 Y91.115
M204 S1800
M205 X8 Y8
G1 F1800 X97.93 Y92.386 E41.41855
M204 S3000
M205 X10 Y10
G0 F3000 X98.722 Y92.386
M204 S1800
M205 X8 Y8
G1 F1800 X96.659 Y90.323 E41.62233
M204 S3000
M205 X10 Y10
G0 F3000 X96.659 Y89.531
M204 S1800
M205 X8 Y8
G1 F1800 X99.513 Y92.386 E41.90429
M204 S3000
M205 X10 Y10
G0 F3000 X100.305 Y92.386
M204 S1800
M205 X8 Y8
G1 F1800 X96.659 Y88.739 E42.26448
M204 S3000
M205 X10 Y10
G0 F3000 X96.659 Y87.947
M204 S1800
M205 X8 Y8
G1 F1800 X101.097 Y92.386 E42.7029
M204 S3000
M205 X10 Y10
G0 F3000 X101.889 Y92.386
M204 S1800
M205 X8 Y8
G1 F1800 X96.659 Y87.155 E43.21956
M204 S3000
M205 X10 Y10
G0 F3000 X96.659 Y86.363
M204 S1800
M205 X8 Y8
G1 F1800 X102.681 Y92.386 E43.81445
M204 S3000
M205 X10 Y10
G0 F3000 X103.473 Y92.386
M204 S1800
M205 X8 Y8
G1 F1800 X96.659 Y85.571 E44.48757
M204 S3000
M205 X10 Y10
G0 F3000 X96.659 Y84.779
M204 S1800
M205 X8 Y8
G1 F1800 X104.265 Y92.386 E45.23892
M204 S3000
M205 X10 Y10
G0 F3000 X105.057 Y92.386
M204 S1800
M205 X8 Y8
G1 F1800 X96.659 Y83.988 E46.06845
M204 S3000
M205 X10 Y10
G0 F3000 X96.659 Y83.196
M204 S1800
M205 X8 Y8
G1 F1800 X105.849 Y92.386 E46.97622
M204 S3000
M205 X10 Y10
G0 F3000 X106.641 Y92.386
M204 S1800
M205 X8 Y8
G1 F1800 X96.962 Y82.707 E47.93229
M204 S3000
M205 X10 Y10
G0 F3000 X97.754 Y82.707
M204 S1800
M205 X8 Y8
G1 F1800 X107.433 Y92.386 E48.88836
M204 S3000
M205 X10 Y10
G0 F3000 X108.225 Y92.386
M204 S1800
M205 X8 Y8
G1 F1800 X98.546 Y82.707 E49.84442
M204 S3000
M205 X10 Y10
G0 F3000 X99.338 Y82.707
M204 S1800
M205 X8 Y8
G1 F1800 X109.017 Y92.386 E50.80049
M204 S3000
M205 X10 Y10
G0 F3000 X109.809 Y92.386
M204 S1800
M205 X8 Y8
G1 F1800 X100.13 Y82.707 E51.75656
M204 S3000
M205 X10 Y10
G0 F3000 X100.922 Y82.707
M204 S1800
M205 X8 Y8
G1 F1800 X110.601 Y92.386 E52.71263
M204 S3000
M205 X10 Y10
G0 F3000 X111.393 Y92.386
M204 S1800
M205 X8 Y8
G1 F1800 X101.714 Y82.707 E53.6687
M204 S3000
M205 X10 Y10
G0 F3000 X102.506 Y82.707
M204 S1800
M205 X8 Y8
G1 F1800 X112.185 Y92.386 E54.62476
M204 S3000
M205 X10 Y10
G0 F3000 X112.977 Y92.386
M204 S1800
M205 X8 Y8
G1 F1800 X103.298 Y82.707 E55.58083
M204 S3000
M205 X10 Y10
G0 F3000 X104.09 Y82.707
M204 S1800
M205 X8 Y8
G1 F1800 X113.339 Y91.956 E56.49443
M204 S3000
M205 X10 Y10
G0 F3000 X113.339 Y91.164
M204 S1800
M205 X8 Y8
G1 F1800 X104.882 Y82.707 E57.32979
M204 S3000
M205 X10 Y10
G0 F3000 X105.674 Y82.707
M204 S1800
M205 X8 Y8
G1 F1800 X113.339 Y90.372 E58.08692
M204 S3000
M205 X10 Y10
G0 F3000 X113.339 Y89.58
M204 S1800
M205 X8 Y8
G1 F1800 X106.466 Y82.707 E58.76582
M204 S3000
M205 X10 Y10
G0 F3000 X107.258 Y82.707
M204 S1800
M205 X8 Y8
G1 F1800 X113.339 Y88.788 E59.36648
M204 S3000
M205 X10 Y10
G0 F3000 X113.339 Y87.996
M204 S1800
M205 X8 Y8
G1 F1800 X108.05 Y82.707 E59.88892
M204 S3000
M205 X10 Y10
G0 F3000 X108.842 Y82.707
M204 S1800
M205 X8 Y8
G1 F1800 X113.339 Y87.204 E60.33312
M204 S3000
M205 X10 Y10
G0 F3000 X113.339 Y86.412
M204 S1800
M205 X8 Y8
G1 F1800 X109.634 Y82.707 E60.69909
M204 S3000
M205 X10 Y10
G0 F3000 X110.426 Y82.707
M204 S1800
M205 X8 Y8
G1 F1800 X113.339 Y85.62 E60.98683
M204 S3000
M205 X10 Y10
G0 F3000 X113.339 Y84.828
M204 S1800
M205 X8 Y8
G1 F1800 X111.217 Y82.707 E61.19639
M204 S3000
M205 X10 Y10
G0 F3000 X112.009 Y82.707
M204 S1800
M205 X8 Y8
G1 F1800 X113.339 Y84.036 E61.32771
M204 S3000
M205 X10 Y10
G0 F3000 X113.339 Y83.244
M204 S1800
M205 X8 Y8
G1 F1800 X112.801 Y82.707 E61.3808
M204 S3000
M205 X10 Y10
G1 F2400 E55.3808
;MESH:wheel_holder_hidden.stl
G0 F3000 X95.58 Y93.617
G0 X95.58 Y94.712
G0 X95.58 Y97.835
G0 X95.58 Y98.93
G1 F2400 E61.3808
G0 F3000 X95.28 Y98.78
M204 S1800
M205 X8 Y8
;TYPE:WALL-OUTER
G1 F1800 X95.28 Y111.22 E62.24969
G1 X114.72 Y111.22 E63.6075
G1 X114.72 Y105 E64.04195
G1 X114.72 Y98.78 E64.47639
G1 X95.28 Y98.78 E65.8342
M204 S3000
M205 X10 Y10
G0 F3000 X95.28 Y98.98
G0 X95.84 Y99.34
M204 S1800
M205 X8 Y8
;TYPE:WALL-INNER
G1 F1800 X95.84 Y110.66 E66.62486
G1 X114.16 Y110.66 E67.90445
G1 X114.16 Y105 E68.29978
G1 X114.16 Y99.34 E68.69511
G1 X95.84 Y99.34 E69.97469
M204 S3000
M205 X10 Y10
G0 F3000 X96.38 Y99.88
M204 S1800
M205 X8 Y8
;TYPE:SKIN
G1 F1800 X96.38 Y110.12 E70.68992
G1 X113.62 Y110.12 E71.89407
G1 X113.62 Y105 E72.25168
G1 X113.62 Y99.88 E72.60929
G1 X96.38 Y99.88 E73.81344
M204 S3000
M205 X10 Y10
G0 F3000 X97.167 Y109.839
M204 S1800
M205 X8 Y8
G1 F1800 X96.66 Y109.331 E73.86357
M204 S3000
M205 X10 Y10
G0 F3000 X96.66 Y108.539
M204 S1800
M205 X8 Y8
G1 F1800 X97.959 Y109.839 E73.99193
M204 S3000
M205 X10 Y10
G0 F3000 X98.751 Y109.839
M204 S1800
M205 X8 Y8
G1 F1800 X96.66 Y107.747 E74.19853
M204 S3000
M205 X10 Y10
G0 F3000 X96.66 Y106.955
M204 S1800
M205 X8 Y8
G1 F1800 X99.543 Y109.839 E74.48335
M204 S3000
M205 X10 Y10
G0 F3000 X100.335 Y109.839
M204 S1800
M205 X8 Y8
G1 F1800 X96.66 Y106.163 E74.84641
M204 S3000
M205 X10 Y10
G0 F3000 X96.66 Y105.371
M204 S1800
M205 X8 Y8
G1 F1800 X101.127 Y109.839 E75.2877
M204 S3000
M205 X10 Y10
G0 F3000 X101.919 Y109.839
M204 S1800
M205 X8 Y8
G1 F1800 X96.66 Y104.579 E75.80722
M204 S3000
M205 X10 Y10
G0 F3000 X96.66 Y103.787
M204 S1800
M205 X8 Y8
G1 F1800 X102.711 Y109.839 E76.40497
M204 S3000
M205 X10 Y10
G0 F3000 X103.503 Y109.839
M204 S1800
M205 X8 Y8
G1 F1800 X96.66 Y102.995 E77.08095
M204 S3000
M205 X10 Y10
G0 F3000 X96.66 Y102.203
M204 S1800
M205 X8 Y8
G1 F1800 X104.295 Y109.839 E77.83517
M204 S3000
M205 X10 Y10
G0 F3000 X105.088 Y109.839
M204 S1800
M205 X8 Y8
G1 F1800 X96.66 Y101.411 E78.66767
M204 S3000
M205 X10 Y10
G0 F3000 X96.66 Y100.619
M204 S1800
M205 X8 Y8
G1 F1800 X105.88 Y109.839 E79.5784
M204 S3000
M205 X10 Y10
G0 F3000 X106.672 Y109.839
M204 S1800
M205 X8 Y8
G1 F1800 X96.991 Y100.159 E80.53461
M204 S3000
M205 X10 Y10
G0 F3000 X97.783 Y100.159
M204 S1800
M205 X8 Y8
G1 F1800 X107.463 Y109.839 E81.49078
M204 S3000
M205 X10 Y10
G0 F3000 X108.255 Y109.839
M204 S1800
M205 X8 Y8
G1 F1800 X98.575 Y100.159 E82.44695
M204 S3000
M205 X10 Y10
G0 F3000 X99.367 Y100.159
M204 S1800
M205 X8 Y8
G1 F1800 X109.047 Y109.839 E83.40311
M204 S3000
M205 X10 Y10
G0 F3000 X109.839 Y109.839
M204 S1800
M205 X8 Y8
G1 F1800 X100.159 Y100.159 E84.35928
M204 S3000
M205 X10 Y10
G0 F3000 X100.951 Y100.159
M204 S1800
M205 X8 Y8
G1 F1800 X110.631 Y109.839 E85.31545
M204 S3000
M205 X10 Y10
G0 F3000 X111.423 Y109.839
M204 S1800
M205 X8 Y8
G1 F1800 X101.743 Y100.159 E86.27161
M204 S3000
M205 X10 Y10
G0 F3000 X102.535 Y100.159
M204 S1800
M205 X8 Y8
G1 F1800 X112.215 Y109.839 E87.22778
M204 S3000
M205 X10 Y10
G0 F3000 X113.007 Y109.839
M204 S1800
M205 X8 Y8
G1 F1800 X103.327 Y100.159 E88.18395
M204 S3000
M205 X10 Y10
G0 F3000 X104.119 Y100.159
M204 S1800
M205 X8 Y8
G1 F1800 X113.339 Y109.379 E89.09468
M204 S3000
M205 X10 Y10
G0 F3000 X113.339 Y108.587
M204 S1800
M205 X8 Y8
G1 F1800 X104.911 Y100.159 E89.92717
M204 S3000
M205 X10 Y10
G0 F3000 X105.703 Y100.16
M204 S1800
M205 X8 Y8
G1 F1800 X113.339 Y107.795 E90.68139
M204 S3000
M205 X10 Y10
G0 F3000 X113.339 Y107.003
M204 S1800
M205 X8 Y8
G1 F1800 X106.495 Y100.16 E91.35737
M204 S3000
M205 X10 Y10
G0 F3000 X107.287 Y100.16
M204 S1800
M205 X8 Y8
G1 F1800 X113.339 Y106.211 E91.95513
M204 S3000
M205 X10 Y10
G0 F3000 X113.339 Y105.419
M204 S1800
M205 X8 Y8
G1 F1800 X108.079 Y100.16 E92.47465
M204 S3000
M205 X10 Y10
G0 F3000 X108.871 Y100.16
M204 S1800
M205 X8 Y8
G1 F1800 X113.339 Y104.627 E92.91594
M204 S3000
M205 X10 Y10
G0 F3000 X113.339 Y103.835
M204 S1800
M205 X8 Y8
G1 F1800 X109.663 Y100.16 E93.27899
M204 S3000
M205 X10 Y10
G0 F3000 X110.455 Y100.16
M204 S1800
M205 X8 Y8
G1 F1800 X113.339 Y103.043 E93.56382
M204 S3000
M205 X10 Y10
G0 F3000 X113.339 Y102.251
M204 S1800
M205 X8 Y8
G1 F1800 X111.247 Y100.16 E93.77041
M204 S3000
M205 X10 Y10
G0 F3000 X112.039 Y100.16
M204 S1800
M205 X8 Y8
G1 F1800 X113.339 Y101.459 E93.89877
M204 S3000
M205 X10 Y10
G0 F3000 X113.339 Y100.667
M204 S1800
M205 X8 Y8
G1 F1800 X112.831 Y100.16 E93.9489
M204 S3000
M205 X10 Y10
G1 F2400 E87.9489
