;FLAVOR:Marlin
;TIME:3196
;Filament used: 3.09134m
;Layer height: 0.2
;MINX:22.585
;MINY:22.583
;MINZ:0.2
;MAXX:187.415
;MAXY:187.415
;MAXZ:22.075
;Generated with Cura_SteamEngine 5.0.0
M140 S60
M105
M190 S60
M104 S200
M105
M109 S200
M82 ;absolute extrusion mode
G21 ;metric values
G90 ;absolute positioning
M82 ;set extruder to absolute mode
M107 ;start with the fan off
G28 X0 Y0 ;move X/Y to min endstops
G28 Z0 ;move Z to min endstops
G1 Z15.0 F100 ;move the platform down 15mm
G92 E0 ;zero the extruded length
G1 F200 E3 ;extrude 3mm of feed stock
G92 E0 ;zero the extruded length again
G1 F100
G0 Y20 F100
M117 Printing...
G5
G92 E0
G92 E0
G1 F2400 E-6
;LAYER_COUNT:110
;LAYER:0
M107
M204 S3000
M205 X10 Y10
G1 F600 Z0.275
G0 F3000 X32.74 Y149.116 Z0.275
G1 F600 Z0.2
G0 F3000 X26.875 Y156.396
M204 S1800
M205 X8 Y8
;TYPE:SKIRT
G1 F2400 E0
G1 X27.395 Y155.562 E0.04576
G1 X27.572 Y155.293 E0.06076
G1 X28.283 Y154.273 E0.11865
G1 X28.796 Y153.566 E0.15933
G1 X29.161 Y153.098 E0.18696
G1 X30.001 Y152.067 E0.24889
G1 X30.2 Y151.834 E0.26316
G1 X31.398 Y150.505 E0.34647
G1 X32.74 Y149.116 E0.43641
G1 X149.307 Y32.556 E8.11231
G1 X150.642 Y31.27 E8.19863
G1 X151.459 Y30.524 E8.25014
G1 X152.653 Y29.521 E8.32275
G1 X153.642 Y28.741 E8.3814
G1 X154.119 Y28.39 E8.40898
G1 X155.033 Y27.755 E8.4608
G1 X155.833 Y27.221 E8.50559
G1 X156.115 Y27.043 E8.52112
G1 X157.218 Y26.389 E8.58083
G1 X157.973 Y25.963 E8.62119
G1 X158.277 Y25.802 E8.63721
G1 X159.364 Y25.265 E8.69367
G1 X160.058 Y24.937 E8.72941
G1 X160.402 Y24.786 E8.7469
G1 X161.622 Y24.297 E8.80811
G1 X162.267 Y24.054 E8.8402
G1 X162.636 Y23.928 E8.85836
G1 X163.911 Y23.536 E8.92047
G1 X164.488 Y23.374 E8.94838
G1 X164.864 Y23.281 E8.96641
G1 X166.267 Y22.98 E9.03323
G1 X166.958 Y22.853 E9.06594
G1 X167.703 Y22.751 E9.10096
G1 X169.217 Y22.612 E9.17175
G1 X169.757 Y22.586 E9.19692
G1 X170.382 Y22.583 E9.22603
G1 X171.542 Y22.607 E9.28005
G1 X172.129 Y22.647 E9.30745
G1 X173.253 Y22.779 E9.36015
G1 X173.974 Y22.886 E9.39409
G1 X174.568 Y23.004 E9.42229
G1 X175.17 Y23.156 E9.4512
G1 X176.226 Y23.452 E9.50227
G1 X176.924 Y23.691 E9.53662
G1 X177.795 Y24.051 E9.58051
G1 X178.387 Y24.313 E9.61065
G1 X179.056 Y24.657 E9.64568
G1 X179.999 Y25.219 E9.6968
G1 X180.422 Y25.489 E9.72016
G1 X181.032 Y25.931 E9.75524
G1 X181.989 Y26.72 E9.81299
G1 X182.374 Y27.059 E9.83688
G1 X182.912 Y27.591 E9.87211
G1 X183.336 Y28.07 E9.9019
G1 X183.964 Y28.82 E9.94745
G1 X184.411 Y29.423 E9.9824
G1 X184.742 Y29.937 E10.01087
G1 X185.272 Y30.817 E10.0587
G1 X185.637 Y31.516 E10.09542
G1 X186.075 Y32.508 E10.14591
G1 X186.315 Y33.095 E10.17544
G1 X186.55 Y33.776 E10.20899
G1 X186.811 Y34.708 E10.25406
G1 X186.985 Y35.391 E10.28687
G1 X187.105 Y35.973 E10.31455
G1 X187.202 Y36.61 E10.34455
G1 X187.335 Y37.668 E10.3942
G1 X187.382 Y38.283 E10.42292
G1 X187.415 Y39.575 E10.4831
G1 X187.407 Y40.388 E10.52096
G1 X187.381 Y40.899 E10.54479
G1 X187.285 Y41.945 E10.5937
G1 X187.205 Y42.652 E10.62683
G1 X187.091 Y43.38 E10.66114
G1 X186.782 Y44.888 E10.73282
G1 X186.67 Y45.346 E10.75477
G1 X186.264 Y46.76 E10.82327
G1 X186.072 Y47.369 E10.85301
G1 X185.943 Y47.739 E10.87125
G1 X185.435 Y49.054 E10.9369
G1 X185.116 Y49.821 E10.97558
G1 X184.963 Y50.162 E10.99298
G1 X184.377 Y51.361 E11.05512
G1 X183.944 Y52.198 E11.099
G1 X183.768 Y52.517 E11.11597
G1 X183.124 Y53.603 E11.17476
G1 X182.666 Y54.345 E11.21536
G1 X182.397 Y54.751 E11.23804
G1 X181.688 Y55.766 E11.29569
G1 X181.202 Y56.433 E11.33412
G1 X180.817 Y56.928 E11.36332
G1 X180.151 Y57.75 E11.41258
G1 X179.568 Y58.444 E11.45479
G1 X179.199 Y58.855 E11.48051
G1 X178.48 Y59.62 E11.52939
G1 X177.184 Y60.96 E11.6162
G1 X60.752 Y177.388 E19.28331
G1 X59.405 Y178.687 E19.37045
G1 X58.329 Y179.67 E19.43831
G1 X57.918 Y180.018 E19.46339
G1 X57.015 Y180.746 E19.5174
G1 X56.303 Y181.301 E19.55943
G1 X55.863 Y181.623 E19.58482
G1 X54.925 Y182.274 E19.63799
G1 X54.132 Y182.801 E19.68232
G1 X53.861 Y182.972 E19.69724
G1 X52.788 Y183.608 E19.75532
G1 X52.026 Y184.038 E19.79607
G1 X51.72 Y184.2 E19.81219
G1 X50.636 Y184.735 E19.86848
G1 X49.942 Y185.063 E19.90422
G1 X49.598 Y185.214 E19.92171
G1 X48.378 Y185.703 E19.98291
G1 X47.733 Y185.946 E20.01501
G1 X47.364 Y186.072 E20.03317
G1 X46.089 Y186.464 E20.09528
G1 X45.512 Y186.626 E20.12318
G1 X45.136 Y186.719 E20.14122
G1 X43.733 Y187.02 E20.20804
G1 X43.042 Y187.147 E20.24075
G1 X42.297 Y187.249 E20.27576
G1 X40.783 Y187.388 E20.34656
G1 X40.243 Y187.414 E20.37173
G1 X39.444 Y187.415 E20.40894
G1 X38.458 Y187.393 E20.45486
G1 X37.871 Y187.353 E20.48226
G1 X36.746 Y187.22 E20.53501
G1 X36.026 Y187.113 E20.5689
G1 X35.436 Y186.997 E20.5969
G1 X34.83 Y186.844 E20.626
G1 X33.774 Y186.548 E20.67707
G1 X33.076 Y186.309 E20.71143
G1 X32.204 Y185.949 E20.75535
G1 X31.61 Y185.686 E20.7856
G1 X30.941 Y185.342 E20.82063
G1 X30.001 Y184.781 E20.8716
G1 X29.578 Y184.511 E20.89497
G1 X28.968 Y184.069 E20.93005
G1 X28.011 Y183.28 E20.9878
G1 X27.626 Y182.941 E21.01169
G1 X27.078 Y182.397 E21.04764
G1 X26.619 Y181.877 E21.07994
G1 X26.026 Y181.166 E21.12305
G1 X25.584 Y180.568 E21.15768
G1 X25.261 Y180.067 E21.18543
G1 X24.729 Y179.185 E21.2334
G1 X24.362 Y178.481 E21.27036
G1 X23.924 Y177.49 E21.32082
G1 X23.683 Y176.9 E21.35049
G1 X23.449 Y176.22 E21.38398
G1 X23.189 Y175.29 E21.42894
G1 X23.014 Y174.602 E21.462
G1 X22.893 Y174.014 E21.48995
G1 X22.796 Y173.373 E21.52014
G1 X22.665 Y172.328 E21.56918
G1 X22.618 Y171.716 E21.59776
G1 X22.585 Y170.425 E21.6579
G1 X22.593 Y169.612 E21.69575
G1 X22.619 Y169.101 E21.71958
G1 X22.715 Y168.055 E21.76849
G1 X22.795 Y167.348 E21.80162
G1 X22.916 Y166.586 E21.83755
G1 X23.216 Y165.115 E21.90745
G1 X23.33 Y164.652 E21.92966
G1 X23.74 Y163.226 E21.99875
G1 X23.95 Y162.565 E22.03104
G1 X24.077 Y162.204 E22.04886
G1 X24.575 Y160.917 E22.11312
G1 X24.877 Y160.192 E22.14969
G1 X25.028 Y159.857 E22.1668
G1 X25.626 Y158.63 E22.23036
G1 X26.034 Y157.841 E22.27172
G1 X26.201 Y157.539 E22.28779
G1 X26.875 Y156.396 E22.34958
M204 S3000
M205 X10 Y10
G1 F2400 E16.34958
G0 F3000 X24.313 Y165.342
M204 S1800
M205 X8 Y8
G1 F2400 E22.34958
G1 X24.407 Y164.959 E22.36794
G1 X24.808 Y163.565 E22.43548
G1 X25.018 Y162.904 E22.46778
G1 X25.122 Y162.606 E22.48247
G1 X25.609 Y161.348 E22.54529
G1 X25.911 Y160.623 E22.58186
G1 X26.036 Y160.346 E22.59601
G1 X26.621 Y159.145 E22.65821
G1 X27.029 Y158.356 E22.69958
G1 X27.167 Y158.106 E22.71287
G1 X27.826 Y156.988 E22.7733
G1 X28.346 Y156.154 E22.81907
G1 X28.492 Y155.933 E22.8314
G1 X29.191 Y154.928 E22.8884
G1 X29.683 Y154.251 E22.92737
G1 X30.03 Y153.805 E22.95369
G1 X31.033 Y152.582 E23.02734
G1 X32.204 Y151.283 E23.10877
G1 X33.532 Y149.908 E23.19778
G1 X150.085 Y33.362 E30.87277
G1 X151.403 Y32.092 E30.95799
G1 X152.181 Y31.38 E31.0071
G1 X153.35 Y30.398 E31.07819
G1 X154.309 Y29.64 E31.13511
G1 X154.759 Y29.309 E31.16112
G1 X155.655 Y28.686 E31.21194
G1 X156.455 Y28.152 E31.25673
G1 X156.687 Y28.006 E31.26949
G1 X157.768 Y27.365 E31.32801
G1 X158.523 Y26.939 E31.36838
G1 X158.774 Y26.806 E31.3816
G1 X159.843 Y26.277 E31.43714
G1 X160.537 Y25.949 E31.47289
G1 X160.82 Y25.825 E31.48727
G1 X162.017 Y25.345 E31.54732
G1 X162.662 Y25.102 E31.57942
G1 X162.966 Y24.998 E31.59438
G1 X164.214 Y24.615 E31.65517
G1 X164.791 Y24.453 E31.68307
G1 X165.101 Y24.375 E31.69796
G1 X166.47 Y24.082 E31.76315
G1 X167.161 Y23.955 E31.79586
G1 X167.839 Y23.862 E31.82773
G1 X169.317 Y23.727 E31.89684
G1 X170.388 Y23.703 E31.94672
G1 X171.517 Y23.726 E31.9993
G1 X172.916 Y23.864 E32.06476
G1 X173.809 Y23.994 E32.10678
G1 X174.3 Y24.091 E32.13009
G1 X174.868 Y24.234 E32.15736
G1 X175.924 Y24.53 E32.20843
G1 X176.499 Y24.728 E32.23675
G1 X177.342 Y25.075 E32.27919
G1 X177.934 Y25.337 E32.30934
G1 X178.485 Y25.621 E32.3382
G1 X179.397 Y26.163 E32.3876
G1 X179.82 Y26.433 E32.41097
G1 X180.322 Y26.798 E32.43987
G1 X181.249 Y27.56 E32.49575
G1 X181.634 Y27.899 E32.51963
G1 X182.078 Y28.339 E32.54874
G1 X182.477 Y28.789 E32.57675
G1 X183.105 Y29.539 E32.62229
G1 X183.474 Y30.036 E32.65112
G1 X183.783 Y30.515 E32.67766
G1 X184.313 Y31.395 E32.7255
G1 X184.614 Y31.972 E32.7558
G1 X185.038 Y32.932 E32.80467
G1 X185.278 Y33.519 E32.8342
G1 X185.472 Y34.08 E32.86184
G1 X185.726 Y34.985 E32.90561
G1 X185.9 Y35.668 E32.93842
G1 X186.067 Y36.585 E32.98183
G1 X186.224 Y37.807 E33.0392
G1 X186.263 Y38.315 E33.06292
G1 X186.295 Y39.564 E33.1211
G1 X186.287 Y40.377 E33.15896
G1 X186.185 Y41.698 E33.22065
G1 X186.093 Y42.526 E33.25944
G1 X185.987 Y43.19 E33.29075
G1 X185.685 Y44.661 E33.36068
G1 X185.593 Y45.039 E33.37879
G1 X185.196 Y46.424 E33.44588
G1 X185.004 Y47.033 E33.47561
G1 X184.897 Y47.338 E33.49066
G1 X184.401 Y48.624 E33.55485
G1 X184.082 Y49.391 E33.59353
G1 X183.955 Y49.672 E33.60789
G1 X183.383 Y50.846 E33.6687
G1 X182.95 Y51.683 E33.71258
G1 X182.804 Y51.946 E33.72658
G1 X182.169 Y53.018 E33.7846
G1 X181.729 Y53.732 E33.82365
G1 X181.478 Y54.11 E33.84478
G1 X180.779 Y55.111 E33.90163
G1 X180.317 Y55.747 E33.93823
G1 X179.947 Y56.223 E33.96631
G1 X179.291 Y57.033 E34.01484
G1 X178.732 Y57.698 E34.05529
G1 X178.381 Y58.089 E34.07976
G1 X177.675 Y58.842 E34.12782
G1 X176.392 Y60.168 E34.21374
G1 X59.974 Y176.583 E41.87997
G1 X58.647 Y177.863 E41.96582
G1 X57.602 Y178.818 E42.03174
G1 X57.215 Y179.146 E42.05536
G1 X56.324 Y179.864 E42.10864
G1 X55.637 Y180.4 E42.14921
G1 X55.222 Y180.704 E42.17317
G1 X54.305 Y181.341 E42.22516
G1 X53.288 Y182.01 E42.28184
G1 X52.238 Y182.632 E42.33867
G1 X51.476 Y183.062 E42.37941
G1 X51.223 Y183.196 E42.39274
G1 X50.157 Y183.723 E42.44811
G1 X49.463 Y184.051 E42.48386
G1 X49.18 Y184.175 E42.49824
G1 X47.983 Y184.655 E42.5583
G1 X47.338 Y184.898 E42.59039
G1 X47.034 Y185.002 E42.60535
G1 X45.786 Y185.385 E42.66614
G1 X45.209 Y185.547 E42.69405
G1 X44.899 Y185.625 E42.70893
G1 X43.53 Y185.918 E42.77412
G1 X42.839 Y186.045 E42.80683
G1 X42.161 Y186.138 E42.8387
G1 X40.683 Y186.273 E42.90781
G1 X39.612 Y186.297 E42.95769
G1 X38.483 Y186.274 E43.01027
G1 X37.084 Y186.136 E43.07573
G1 X36.191 Y186.006 E43.11775
G1 X35.294 Y185.809 E43.16052
G1 X34.076 Y185.47 E43.21939
G1 X33.501 Y185.272 E43.24771
G1 X32.657 Y184.925 E43.2902
G1 X32.063 Y184.662 E43.32045
G1 X31.512 Y184.378 E43.34931
G1 X30.603 Y183.837 E43.39857
G1 X30.18 Y183.567 E43.42193
G1 X29.678 Y183.202 E43.45083
G1 X28.751 Y182.44 E43.50671
G1 X28.366 Y182.101 E43.5306
G1 X27.914 Y181.652 E43.56026
G1 X27.479 Y181.16 E43.59084
G1 X26.886 Y180.449 E43.63395
G1 X26.521 Y179.956 E43.66252
G1 X26.22 Y179.488 E43.68843
G1 X25.688 Y178.606 E43.73639
G1 X25.385 Y178.026 E43.76686
G1 X24.961 Y177.067 E43.81569
G1 X24.72 Y176.477 E43.84536
G1 X24.527 Y175.916 E43.87299
G1 X24.274 Y175.014 E43.91661
G1 X24.099 Y174.326 E43.94967
G1 X23.93 Y173.394 E43.99377
G1 X23.776 Y172.189 E44.05034
G1 X23.737 Y171.684 E44.07392
G1 X23.705 Y170.436 E44.13205
G1 X23.713 Y169.623 E44.16991
G1 X23.815 Y168.302 E44.23161
G1 X23.907 Y167.474 E44.2704
G1 X24.019 Y166.778 E44.30322
G1 X24.313 Y165.342 E44.37148
M204 S3000
M205 X10 Y10
G1 F2400 E38.37148
G0 F3000 X23.145 Y170.431
M204 S1800
M205 X8 Y8
G1 F2400 E44.37148
G1 X23.153 Y169.618 E44.40934
G1 X23.258 Y168.252 E44.47313
G1 X23.351 Y167.411 E44.51253
G1 X23.467 Y166.682 E44.5469
G1 X23.765 Y165.228 E44.61601
G1 X23.869 Y164.806 E44.63625
G1 X24.274 Y163.396 E44.70456
G1 X24.484 Y162.735 E44.73686
G1 X24.6 Y162.405 E44.75314
G1 X25.092 Y161.132 E44.81669
G1 X25.394 Y160.407 E44.85326
G1 X25.532 Y160.102 E44.86885
G1 X26.124 Y158.888 E44.93174
G1 X26.532 Y158.099 E44.97311
G1 X26.684 Y157.822 E44.98782
G1 X27.35 Y156.692 E45.04889
G1 X27.87 Y155.858 E45.09466
G1 X28.032 Y155.613 E45.10834
G1 X28.737 Y154.601 E45.16577
G1 X29.24 Y153.909 E45.2056
G1 X29.595 Y153.451 E45.23258
G1 X30.435 Y152.42 E45.29451
G1 X30.617 Y152.208 E45.30752
G1 X31.801 Y150.894 E45.38988
G1 X33.136 Y149.512 E45.47935
G1 X149.696 Y32.959 E53.1548
G1 X151.023 Y31.681 E53.24058
G1 X151.82 Y30.952 E53.29088
G1 X153.001 Y29.96 E53.3627
G1 X153.975 Y29.191 E53.42048
G1 X154.439 Y28.849 E53.44732
G1 X155.344 Y28.221 E53.49861
G1 X156.144 Y27.687 E53.5434
G1 X156.401 Y27.524 E53.55757
G1 X157.493 Y26.877 E53.61668
G1 X158.248 Y26.451 E53.65704
G1 X158.525 Y26.304 E53.67164
G1 X159.604 Y25.771 E53.72768
G1 X160.298 Y25.443 E53.76343
G1 X160.611 Y25.306 E53.77934
G1 X161.819 Y24.821 E53.83995
G1 X162.464 Y24.578 E53.87204
G1 X162.801 Y24.463 E53.88862
G1 X164.062 Y24.075 E53.95006
G1 X164.639 Y23.913 E53.97797
G1 X164.983 Y23.828 E53.99446
G1 X166.368 Y23.531 E54.06042
G1 X167.059 Y23.404 E54.09314
G1 X167.771 Y23.306 E54.1266
G1 X169.267 Y23.169 E54.19656
G1 X170.385 Y23.143 E54.24863
G1 X171.529 Y23.166 E54.30191
G1 X172.066 Y23.203 E54.32697
G1 X173.17 Y23.333 E54.37873
G1 X173.891 Y23.44 E54.41267
G1 X174.434 Y23.547 E54.43845
G1 X175.019 Y23.695 E54.46654
G1 X176.075 Y23.991 E54.51761
G1 X176.711 Y24.209 E54.54892
G1 X177.568 Y24.563 E54.59209
G1 X178.16 Y24.825 E54.62224
G1 X178.77 Y25.139 E54.65418
G1 X179.698 Y25.691 E54.70446
G1 X180.121 Y25.961 E54.72783
G1 X180.677 Y26.364 E54.7598
G1 X181.619 Y27.14 E54.81663
G1 X182.004 Y27.479 E54.84052
G1 X182.495 Y27.965 E54.87269
G1 X182.907 Y28.43 E54.90162
G1 X183.535 Y29.18 E54.94717
G1 X183.943 Y29.73 E54.97906
G1 X184.263 Y30.226 E55.00654
G1 X184.793 Y31.106 E55.05438
G1 X185.125 Y31.744 E55.08787
G1 X185.557 Y32.72 E55.13756
G1 X185.797 Y33.307 E55.16709
G1 X186.011 Y33.928 E55.19768
G1 X186.268 Y34.846 E55.24207
G1 X186.442 Y35.529 E55.27489
G1 X186.552 Y36.06 E55.30014
G1 X186.646 Y36.68 E55.32934
G1 X186.779 Y37.738 E55.37899
G1 X186.823 Y38.299 E55.40519
G1 X186.855 Y39.569 E55.46435
G1 X186.847 Y40.382 E55.50221
G1 X186.742 Y41.748 E55.566
G1 X186.649 Y42.589 E55.6054
G1 X186.539 Y43.285 E55.63821
G1 X186.234 Y44.774 E55.70899
G1 X186.131 Y45.192 E55.72903
G1 X185.73 Y46.592 E55.79684
G1 X185.538 Y47.201 E55.82658
G1 X185.42 Y47.539 E55.84325
G1 X184.918 Y48.839 E55.90814
G1 X184.599 Y49.606 E55.94682
G1 X184.459 Y49.917 E55.9627
G1 X183.88 Y51.103 E56.02415
G1 X183.447 Y51.94 E56.06803
G1 X183.286 Y52.231 E56.08352
G1 X182.647 Y53.31 E56.14191
G1 X182.197 Y54.039 E56.1818
G1 X181.937 Y54.431 E56.20371
G1 X181.234 Y55.438 E56.26089
G1 X180.76 Y56.09 E56.29843
G1 X180.382 Y56.576 E56.3271
G1 X179.721 Y57.392 E56.376
G1 X179.15 Y58.071 E56.41731
G1 X178.79 Y58.472 E56.4424
G1 X178.078 Y59.231 E56.49086
G1 X176.788 Y60.564 E56.57723
G1 X60.363 Y176.985 E64.24389
G1 X59.026 Y178.275 E64.3304
G1 X57.966 Y179.244 E64.39727
G1 X57.566 Y179.582 E64.42166
G1 X56.669 Y180.305 E64.4753
G1 X55.97 Y180.851 E64.5166
G1 X55.542 Y181.164 E64.54129
G1 X54.615 Y181.808 E64.59385
G1 X53.822 Y182.335 E64.63819
G1 X53.574 Y182.491 E64.65183
G1 X52.513 Y183.12 E64.70927
G1 X51.751 Y183.55 E64.75001
G1 X51.471 Y183.698 E64.76475
G1 X50.396 Y184.229 E64.82058
G1 X49.702 Y184.557 E64.85633
G1 X49.389 Y184.694 E64.87224
G1 X48.181 Y185.179 E64.93285
G1 X47.536 Y185.422 E64.96494
G1 X47.199 Y185.537 E64.98153
G1 X45.938 Y185.925 E65.04296
G1 X45.361 Y186.087 E65.07087
G1 X45.017 Y186.172 E65.08737
G1 X43.632 Y186.469 E65.15332
G1 X42.941 Y186.596 E65.18604
G1 X42.229 Y186.694 E65.2195
G1 X40.733 Y186.831 E65.28946
G1 X39.615 Y186.857 E65.34153
G1 X38.471 Y186.834 E65.39481
G1 X37.934 Y186.797 E65.41987
G1 X36.829 Y186.667 E65.47168
G1 X36.109 Y186.56 E65.50558
G1 X35.57 Y186.453 E65.53116
G1 X34.981 Y186.305 E65.55944
G1 X33.925 Y186.009 E65.61051
G1 X33.289 Y185.791 E65.64182
G1 X32.431 Y185.437 E65.68504
G1 X31.837 Y185.174 E65.71528
G1 X31.227 Y184.86 E65.74723
G1 X30.302 Y184.309 E65.79736
G1 X29.879 Y184.039 E65.82073
G1 X29.323 Y183.636 E65.85271
G1 X28.381 Y182.86 E65.90954
G1 X27.996 Y182.521 E65.93342
G1 X27.496 Y182.025 E65.96622
G1 X27.049 Y181.519 E65.99766
G1 X26.456 Y180.808 E66.04077
G1 X26.053 Y180.262 E66.07237
G1 X25.74 Y179.777 E66.09924
G1 X25.208 Y178.895 E66.14721
G1 X24.873 Y178.253 E66.18093
G1 X24.443 Y177.278 E66.23055
G1 X24.202 Y176.688 E66.26022
G1 X23.988 Y176.068 E66.29076
G1 X23.731 Y175.152 E66.33506
G1 X23.556 Y174.464 E66.36812
G1 X23.446 Y173.928 E66.3936
G1 X23.351 Y173.303 E66.42303
G1 X23.22 Y172.258 E66.47208
