;FLAVOR:Marlin
;TIME:5159
;Filament used: 3.79773m
;Layer height: 0.2
;MINX:22.607
;MINY:24.385
;MINZ:0.2
;MAXX:187.393
;MAXY:189.169
;MAXZ:7.075
;Generated with Cura_SteamEngine 5.0.0
M140 S60
M105
M190 S60
M104 S200
M105
M109 S200
M82 ;absolute extrusion mode
G21 ;metric values
G90 ;absolute positioning
M82 ;set extruder to absolute mode
M107 ;start with the fan off
G28 X0 Y0 ;move X/Y to min endstops
G28 Z0 ;move Z to min endstops
G1 Z15.0 F100 ;move the platform down 15mm
G92 E0 ;zero the extruded length
G1 F200 E3 ;extrude 3mm of feed stock
G92 E0 ;zero the extruded length again
G1 F100
G0 Y20 F100
M117 Printing...
G5
G92 E0
G92 E0
G1 F2400 E-6
;LAYER_COUNT:35
;LAYER:0
M107
M204 S3000
M205 X10 Y10
G1 F600 Z0.275
G0 F3000 X149.241 Y34.421 Z0.275
M204 S1800
M205 X8 Y8
;TYPE:SKIRT
G1 F600 Z0.2
G1 F2400 E0
G1 X150.582 Y33.129 E0.08671
G1 X151.233 Y32.527 E0.128
G1 X151.467 Y32.321 E0.14251
G1 X152.954 Y31.079 E0.23273
G1 X153.693 Y30.503 E0.27636
G1 X154.12 Y30.19 E0.30101
G1 X155.045 Y29.548 E0.35344
G1 X155.861 Y29.004 E0.39911
G1 X156.142 Y28.827 E0.41457
G1 X157.212 Y28.193 E0.47248
G1 X157.974 Y27.763 E0.51322
G1 X158.273 Y27.604 E0.52899
G1 X159.379 Y27.057 E0.58645
G1 X160.124 Y26.708 E0.62476
G1 X160.445 Y26.569 E0.64104
G1 X161.584 Y26.111 E0.69821
G1 X162.245 Y25.861 E0.73111
G1 X162.617 Y25.733 E0.74943
G1 X163.875 Y25.346 E0.81072
G1 X164.47 Y25.178 E0.83951
G1 X164.849 Y25.083 E0.8577
G1 X166.213 Y24.79 E0.92267
G1 X166.918 Y24.659 E0.95605
G1 X167.748 Y24.546 E0.99506
G1 X169.202 Y24.413 E1.06305
G1 X169.742 Y24.388 E1.08822
G1 X170.406 Y24.385 E1.11914
G1 X171.542 Y24.409 E1.17205
G1 X172.136 Y24.45 E1.19977
G1 X173.216 Y24.578 E1.25041
G1 X173.948 Y24.685 E1.28486
G1 X174.617 Y24.82 E1.31664
G1 X175.524 Y25.056 E1.36028
G1 X176.258 Y25.266 E1.39583
G1 X176.929 Y25.499 E1.4289
G1 X177.733 Y25.831 E1.46941
G1 X178.372 Y26.114 E1.50195
G1 X179.042 Y26.46 E1.53706
G1 X179.98 Y27.019 E1.58791
G1 X181.019 Y27.734 E1.64664
G1 X182.001 Y28.545 E1.70594
G1 X182.376 Y28.877 E1.72926
G1 X182.914 Y29.413 E1.76462
G1 X183.347 Y29.905 E1.79514
G1 X183.894 Y30.56 E1.83488
G1 X184.36 Y31.193 E1.87148
G1 X184.999 Y32.19 E1.92662
G1 X185.605 Y33.29 E1.9851
G1 X186.063 Y34.324 E2.03776
G1 X186.307 Y34.926 E2.06801
G1 X186.537 Y35.598 E2.10108
G1 X186.782 Y36.475 E2.14348
G1 X186.963 Y37.187 E2.17769
G1 X187.084 Y37.779 E2.20582
G1 X187.185 Y38.447 E2.23728
G1 X187.314 Y39.482 E2.28585
G1 X187.36 Y40.082 E2.31387
G1 X187.393 Y41.319 E2.37149
G1 X187.387 Y42.112 E2.40842
G1 X187.362 Y42.631 E2.43261
G1 X187.266 Y43.686 E2.48194
G1 X187.185 Y44.411 E2.51591
G1 X187.062 Y45.189 E2.55258
G1 X186.761 Y46.658 E2.62241
G1 X186.653 Y47.101 E2.64364
G1 X186.259 Y48.482 E2.71051
G1 X186.049 Y49.15 E2.74312
G1 X185.915 Y49.534 E2.76206
G1 X185.374 Y50.931 E2.83181
G1 X185.077 Y51.639 E2.86756
G1 X184.931 Y51.962 E2.88407
G1 X184.349 Y53.154 E2.94584
G1 X183.953 Y53.921 E2.98603
G1 X183.781 Y54.232 E3.00258
G1 X183.133 Y55.331 E3.06199
G1 X182.675 Y56.074 E3.10263
G1 X182.397 Y56.495 E3.12612
G1 X181.754 Y57.418 E3.1785
G1 X181.182 Y58.21 E3.22399
G1 X180.816 Y58.68 E3.25173
G1 X179.963 Y59.725 E3.31454
G1 X179.763 Y59.958 E3.32884
G1 X178.556 Y61.294 E3.41268
G1 X177.278 Y62.618 E3.49836
G1 X60.759 Y179.135 E11.17127
G1 X59.423 Y180.422 E11.25765
G1 X58.768 Y181.029 E11.29924
G1 X58.543 Y181.228 E11.31322
G1 X57.322 Y182.254 E11.38748
G1 X56.242 Y183.102 E11.45142
G1 X55.806 Y183.417 E11.47647
G1 X54.99 Y183.985 E11.52276
G1 X54.155 Y184.542 E11.5695
G1 X53.875 Y184.719 E11.58493
G1 X52.785 Y185.365 E11.64393
G1 X52.022 Y185.795 E11.68471
G1 X51.726 Y185.952 E11.70031
G1 X50.617 Y186.5 E11.75791
G1 X49.873 Y186.848 E11.79616
G1 X49.555 Y186.986 E11.8123
G1 X48.423 Y187.441 E11.86911
G1 X47.746 Y187.698 E11.90283
G1 X47.364 Y187.83 E11.92165
G1 X46.106 Y188.216 E11.98292
G1 X45.532 Y188.378 E12.01069
G1 X45.153 Y188.473 E12.02888
G1 X43.782 Y188.768 E12.09419
G1 X43.08 Y188.897 E12.12742
G1 X42.322 Y189.002 E12.16305
G1 X40.801 Y189.142 E12.23418
G1 X40.257 Y189.168 E12.25954
G1 X39.419 Y189.169 E12.29856
G1 X38.457 Y189.147 E12.34336
G1 X37.865 Y189.106 E12.371
G1 X36.767 Y188.976 E12.42248
G1 X36.04 Y188.869 E12.4567
G1 X35.363 Y188.731 E12.48887
G1 X34.404 Y188.481 E12.53502
G1 X33.784 Y188.305 E12.56503
G1 X33.106 Y188.07 E12.59844
G1 X32.238 Y187.712 E12.64216
G1 X31.619 Y187.438 E12.67368
G1 X30.95 Y187.093 E12.70873
G1 X30.011 Y186.533 E12.75964
G1 X29.49 Y186.199 E12.78846
G1 X28.928 Y185.794 E12.82071
G1 X28.465 Y185.414 E12.84861
G1 X27.656 Y184.707 E12.89863
G1 X27.135 Y184.197 E12.93258
G1 X26.737 Y183.752 E12.96038
G1 X26.123 Y183.019 E13.00491
G1 X25.654 Y182.384 E13.04166
G1 X24.979 Y181.332 E13.09987
G1 X24.395 Y180.268 E13.15638
G1 X23.939 Y179.238 E13.20883
G1 X23.692 Y178.628 E13.23948
G1 X23.464 Y177.961 E13.2723
G1 X23.218 Y177.08 E13.31489
G1 X23.037 Y176.367 E13.34915
G1 X22.916 Y175.777 E13.37719
G1 X22.815 Y175.107 E13.40874
G1 X22.686 Y174.07 E13.4574
G1 X22.64 Y173.473 E13.48528
G1 X22.607 Y172.237 E13.54286
G1 X22.613 Y171.441 E13.57992
G1 X22.638 Y170.92 E13.60421
G1 X22.734 Y169.867 E13.65345
G1 X22.816 Y169.137 E13.68765
G1 X22.94 Y168.355 E13.72452
G1 X23.239 Y166.898 E13.79378
G1 X23.347 Y166.455 E13.81501
G1 X23.741 Y165.074 E13.88188
G1 X23.951 Y164.406 E13.91449
G1 X24.346 Y163.332 E13.96777
G1 X24.825 Y162.143 E14.02746
G1 X25.237 Y161.244 E14.07351
G1 X25.653 Y160.398 E14.11741
G1 X26.06 Y159.611 E14.15866
G1 X26.232 Y159.301 E14.17517
G1 X26.889 Y158.19 E14.23527
G1 X27.421 Y157.336 E14.28212
G1 X27.599 Y157.065 E14.29722
G1 X28.244 Y156.139 E14.34977
G1 X28.807 Y155.36 E14.39452
G1 X29.147 Y154.921 E14.42038
G1 X30.034 Y153.834 E14.48571
G1 X30.235 Y153.6 E14.50007
G1 X31.444 Y152.262 E14.58404
G1 X32.722 Y150.938 E14.66973
G1 X149.241 Y34.421 E22.34264
M204 S3000
M205 X10 Y10
G0 F3000 X149.63 Y34.824
M204 S1800
M205 X8 Y8
G1 F2400 X150.962 Y33.54 E22.42878
G1 X151.613 Y32.938 E22.47007
G1 X151.827 Y32.75 E22.48334
G1 X153.3 Y31.52 E22.57269
G1 X154.026 Y30.953 E22.61559
G1 X154.44 Y30.65 E22.63948
G1 X155.356 Y30.014 E22.6914
G1 X156.172 Y29.47 E22.73707
G1 X156.428 Y29.308 E22.75117
G1 X157.487 Y28.681 E22.80848
G1 X158.249 Y28.251 E22.84922
G1 X158.522 Y28.106 E22.86362
G1 X159.617 Y27.565 E22.92049
G1 X160.362 Y27.216 E22.9588
G1 X160.654 Y27.088 E22.97364
G1 X161.782 Y26.635 E23.03024
G1 X162.443 Y26.385 E23.06315
G1 X162.782 Y26.268 E23.07985
G1 X164.027 Y25.885 E23.1405
G1 X164.622 Y25.717 E23.16929
G1 X164.968 Y25.63 E23.1859
G1 X166.315 Y25.34 E23.25006
G1 X167.02 Y25.209 E23.28345
G1 X167.814 Y25.102 E23.32076
G1 X169.251 Y24.971 E23.38795
G1 X170.409 Y24.945 E23.44188
G1 X171.53 Y24.969 E23.49409
G1 X172.071 Y25.006 E23.51934
G1 X173.135 Y25.132 E23.56924
G1 X173.867 Y25.239 E23.60368
G1 X174.478 Y25.362 E23.6327
G1 X175.37 Y25.594 E23.67562
G1 X176.104 Y25.804 E23.71117
G1 X176.716 Y26.017 E23.74134
G1 X177.506 Y26.343 E23.78114
G1 X178.145 Y26.626 E23.81368
G1 X178.757 Y26.941 E23.84573
G1 X179.679 Y27.491 E23.89572
G1 X180.664 Y28.168 E23.95138
G1 X181.63 Y28.964 E24.00966
G1 X182.005 Y29.296 E24.03298
G1 X182.495 Y29.785 E24.06522
G1 X182.917 Y30.264 E24.09494
G1 X183.464 Y30.919 E24.13468
G1 X183.89 Y31.496 E24.16808
G1 X184.519 Y32.478 E24.22238
G1 X185.094 Y33.519 E24.27775
G1 X185.544 Y34.534 E24.32945
G1 X185.788 Y35.136 E24.3597
G1 X185.998 Y35.749 E24.38987
G1 X186.239 Y36.613 E24.43164
G1 X186.42 Y37.325 E24.46585
G1 X186.53 Y37.865 E24.49151
G1 X186.629 Y38.517 E24.52222
G1 X186.758 Y39.552 E24.57078
G1 X186.8 Y40.098 E24.59628
G1 X186.833 Y41.315 E24.65297
G1 X186.827 Y42.108 E24.6899
G1 X186.723 Y43.492 E24.75453
G1 X186.629 Y44.348 E24.79462
G1 X186.51 Y45.093 E24.82975
G1 X186.213 Y46.544 E24.89872
G1 X186.114 Y46.948 E24.91809
G1 X185.725 Y48.314 E24.98422
G1 X185.515 Y48.982 E25.01683
G1 X185.393 Y49.332 E25.03409
G1 X184.857 Y50.714 E25.10311
G1 X184.56 Y51.422 E25.13886
G1 X184.427 Y51.717 E25.15393
G1 X183.851 Y52.897 E25.21507
G1 X183.455 Y53.664 E25.25527
G1 X183.298 Y53.948 E25.27038
G1 X182.655 Y55.038 E25.3293
G1 X182.206 Y55.768 E25.36921
G1 X181.937 Y56.175 E25.39193
G1 X181.299 Y57.092 E25.44395
G1 X180.738 Y57.868 E25.48853
G1 X180.382 Y58.326 E25.51554
G1 X179.529 Y59.371 E25.57836
G1 X179.347 Y59.583 E25.59137
G1 X178.153 Y60.905 E25.67432
G1 X176.882 Y62.222 E25.75954
G1 X60.37 Y178.732 E33.43199
G1 X59.043 Y180.011 E33.51781
G1 X58.182 Y180.8 E33.57219
G1 X56.974 Y181.815 E33.64566
G1 X55.913 Y182.649 E33.7085
G1 X55.485 Y182.958 E33.73308
G1 X54.679 Y183.519 E33.77881
G1 X53.844 Y184.076 E33.82554
G1 X53.588 Y184.237 E33.83963
G1 X52.51 Y184.877 E33.898
G1 X51.747 Y185.307 E33.93878
G1 X51.477 Y185.45 E33.95301
G1 X50.379 Y185.993 E34.01005
G1 X49.635 Y186.341 E34.04829
G1 X49.346 Y186.467 E34.06297
G1 X48.225 Y186.918 E34.11924
G1 X47.548 Y187.175 E34.15296
G1 X47.199 Y187.295 E34.17014
G1 X45.954 Y187.677 E34.23078
G1 X45.38 Y187.839 E34.25855
G1 X45.034 Y187.926 E34.27517
G1 X43.68 Y188.217 E34.33965
G1 X42.978 Y188.346 E34.37289
G1 X42.253 Y188.446 E34.40697
G1 X40.751 Y188.585 E34.47721
G1 X39.591 Y188.611 E34.53124
G1 X38.469 Y188.587 E34.58349
G1 X37.929 Y188.55 E34.6087
G1 X36.849 Y188.422 E34.65934
G1 X36.122 Y188.315 E34.69355
G1 X35.504 Y188.189 E34.72292
G1 X34.557 Y187.942 E34.76849
G1 X33.937 Y187.766 E34.7985
G1 X33.318 Y187.552 E34.829
G1 X32.465 Y187.2 E34.87197
G1 X31.846 Y186.926 E34.90349
G1 X31.235 Y186.612 E34.93548
G1 X30.313 Y186.061 E34.98549
G1 X29.792 Y185.727 E35.01431
G1 X29.279 Y185.358 E35.04374
G1 X28.833 Y184.992 E35.0706
G1 X28.024 Y184.285 E35.12063
G1 X27.549 Y183.82 E35.15158
G1 X27.166 Y183.392 E35.17832
G1 X26.552 Y182.659 E35.22285
G1 X26.125 Y182.08 E35.25635
G1 X25.46 Y181.044 E35.31367
G1 X24.906 Y180.039 E35.36711
G1 X24.458 Y179.028 E35.4186
G1 X24.211 Y178.418 E35.44924
G1 X24.003 Y177.809 E35.47921
G1 X23.761 Y176.942 E35.52112
G1 X23.58 Y176.229 E35.55538
G1 X23.47 Y175.691 E35.58095
G1 X23.371 Y175.038 E35.6117
G1 X23.242 Y174.001 E35.66036
G1 X23.2 Y173.456 E35.68581
G1 X23.167 Y172.241 E35.74241
G1 X23.173 Y171.445 E35.77948
G1 X23.277 Y170.062 E35.84406
G1 X23.372 Y169.199 E35.88448
G1 X23.492 Y168.451 E35.91976
G1 X23.787 Y167.011 E35.9882
G1 X23.886 Y166.608 E36.00753
G1 X24.275 Y165.242 E36.07366
G1 X24.485 Y164.574 E36.10627
G1 X24.869 Y163.53 E36.15807
G1 X25.344 Y162.353 E36.21717
G1 X25.744 Y161.481 E36.26184
G1 X26.151 Y160.655 E36.30472
G1 X26.558 Y159.868 E36.34597
G1 X26.714 Y159.585 E36.36102
G1 X27.364 Y158.486 E36.42047
G1 X27.896 Y157.632 E36.46732
G1 X28.059 Y157.385 E36.4811
G1 X28.699 Y156.466 E36.53325
G1 X29.251 Y155.701 E36.57718
G1 X29.581 Y155.275 E36.60227
G1 X30.468 Y154.188 E36.6676
G1 X30.651 Y153.974 E36.68071
G1 X31.847 Y152.651 E36.76376
G1 X33.118 Y151.334 E36.84898
G1 X149.63 Y34.824 E44.52143
M204 S3000
M205 X10 Y10
G0 F3000 X150.019 Y35.227
M204 S1800
M205 X8 Y8
G1 F2400 X151.342 Y33.951 E44.60702
G1 X151.993 Y33.349 E44.64831
G1 X153.514 Y32.067 E44.74093
G1 X154.235 Y31.497 E44.78373
G1 X154.76 Y31.109 E44.81413
G1 X155.666 Y30.48 E44.86548
G1 X156.482 Y29.936 E44.91115
G1 X156.714 Y29.79 E44.92391
G1 X157.762 Y29.169 E44.98064
G1 X158.524 Y28.739 E45.02138
G1 X158.771 Y28.608 E45.0344
G1 X159.854 Y28.072 E45.09066
G1 X160.599 Y27.723 E45.12897
G1 X160.864 Y27.607 E45.14244
G1 X161.98 Y27.158 E45.19846
G1 X162.641 Y26.908 E45.23136
G1 X162.948 Y26.803 E45.24647
G1 X164.179 Y26.424 E45.30645
G1 X164.774 Y26.256 E45.33524
G1 X165.087 Y26.178 E45.35026
G1 X166.417 Y25.891 E45.41361
G1 X167.122 Y25.76 E45.447
G1 X167.88 Y25.658 E45.48262
G1 X169.301 Y25.529 E45.54906
G1 X170.411 Y25.505 E45.60075
G1 X171.517 Y25.528 E45.65226
G1 X172.9 Y25.666 E45.71698
G1 X173.786 Y25.794 E45.75867
G1 X174.338 Y25.905 E45.78489
G1 X175.216 Y26.133 E45.82712
G1 X175.95 Y26.343 E45.86267
G1 X176.503 Y26.535 E45.88993
G1 X177.279 Y26.855 E45.92902
G1 X177.918 Y27.138 E45.96156
G1 X178.471 Y27.423 E45.99053
G1 X179.378 Y27.964 E46.0397
G1 X180.309 Y28.601 E46.09223
G1 X181.259 Y29.384 E46.14956
G1 X181.634 Y29.716 E46.17288
G1 X182.077 Y30.158 E46.20202
G1 X182.488 Y30.623 E46.23091
G1 X183.035 Y31.278 E46.27065
G1 X183.419 Y31.8 E46.30083
G1 X184.038 Y32.766 E46.35425
G1 X184.583 Y33.747 E46.4065
G1 X185.025 Y34.745 E46.45733
G1 X185.269 Y35.347 E46.48758
G1 X185.459 Y35.901 E46.51485
G1 X185.696 Y36.751 E46.55594
G1 X185.877 Y37.463 E46.59015
G1 X186.051 Y38.426 E46.63571
G1 X186.202 Y39.621 E46.6918
G1 X186.271 Y41.112 E46.7613
G1 X186.267 Y42.104 E46.80749
G1 X186.165 Y43.443 E46.87002
G1 X186.072 Y44.286 E46.90951
G1 X185.959 Y44.997 E46.94304
G1 X185.664 Y46.431 E47.01121
G1 X185.575 Y46.796 E47.0287
G1 X185.191 Y48.146 E47.09406
G1 X184.981 Y48.814 E47.12666
G1 X184.87 Y49.131 E47.1423
G1 X184.341 Y50.497 E47.21051
G1 X184.044 Y51.205 E47.24626
G1 X183.923 Y51.472 E47.25991
G1 X183.354 Y52.64 E47.32041
G1 X182.958 Y53.407 E47.3606
G1 X182.816 Y53.664 E47.37428
G1 X182.178 Y54.746 E47.43277
G1 X181.736 Y55.463 E47.47199
G1 X181.478 Y55.855 E47.49384
G1 X180.844 Y56.766 E47.54552
G1 X180.295 Y57.526 E47.58918
G1 X179.948 Y57.972 E47.61549
G1 X178.931 Y59.209 E47.69006
G1 X177.75 Y60.517 E47.77212
G1 X176.487 Y61.826 E47.85681
G1 X59.981 Y178.329 E55.52883
G1 X58.662 Y179.601 E55.61416
G1 X57.821 Y180.372 E55.66729
G1 X56.626 Y181.376 E55.73996
G1 X55.585 Y182.195 E55.80164
G1 X55.165 Y182.499 E55.82578
G1 X54.368 Y183.053 E55.87098
G1 X53.533 Y183.61 E55.91772
G1 X53.302 Y183.756 E55.93044
G1 X52.235 Y184.389 E55.98821
G1 X51.472 Y184.819 E56.02899
G1 X51.228 Y184.948 E56.04184
G1 X50.142 Y185.486 E56.09828
G1 X49.398 Y185.834 E56.13652
G1 X49.136 Y185.948 E56.14983
G1 X48.026 Y186.394 E56.20553
G1 X47.349 Y186.651 E56.23925
G1 X47.034 Y186.76 E56.25477
G1 X45.802 Y187.138 E56.31478
G1 X45.228 Y187.3 E56.34255
G1 X44.915 Y187.379 E56.35758
G1 X43.579 Y187.666 E56.42121
G1 X42.877 Y187.795 E56.45445
G1 X42.183 Y187.89 E56.48706
G1 X40.701 Y188.027 E56.55636
G1 X39.589 Y188.051 E56.60816
G1 X38.482 Y188.028 E56.65971
G1 X37.09 Y187.889 E56.72485
G1 X36.203 Y187.761 E56.76658
G1 X35.645 Y187.647 E56.7931
G1 X34.71 Y187.403 E56.8381
G1 X34.09 Y187.227 E56.86811
G1 X33.53 Y187.034 E56.89569
G1 X32.692 Y186.688 E56.93791
G1 X32.073 Y186.414 E56.96943
G1 X31.52 Y186.13 E56.99837
G1 X30.615 Y185.59 E57.04745
G1 X30.094 Y185.256 E57.07626
G1 X29.631 Y184.922 E57.10285
G1 X29.202 Y184.571 E57.12866
G1 X28.393 Y183.864 E57.17869
G1 X27.963 Y183.443 E57.20671
G1 X27.595 Y183.032 E57.2324
G1 X26.981 Y182.299 E57.27692
G1 X26.595 Y181.776 E57.30719
G1 X25.94 Y180.757 E57.36359
G1 X25.417 Y179.81 E57.41397
G1 X24.977 Y178.818 E57.4645
G1 X24.73 Y178.208 E57.49514
G1 X24.542 Y177.657 E57.52225
G1 X24.303 Y176.804 E57.5635
G1 X24.122 Y176.091 E57.59775
G1 X23.949 Y175.13 E57.64322
G1 X23.797 Y173.932 E57.69945
G1 X23.729 Y172.444 E57.76881
G1 X23.733 Y171.449 E57.81514
G1 X23.835 Y170.112 E57.87758
G1 X23.929 Y169.262 E57.9174
G1 X24.044 Y168.547 E57.95112
G1 X24.336 Y167.125 E58.01872
G1 X24.425 Y166.76 E58.03621
G1 X24.809 Y165.41 E58.10157
G1 X25.019 Y164.742 E58.13418
G1 X25.393 Y163.728 E58.1845
G1 X25.863 Y162.563 E58.243
G1 X26.251 Y161.719 E58.28625
G1 X26.648 Y160.913 E58.32809
G1 X27.055 Y160.126 E58.36934
G1 X27.197 Y159.869 E58.38302
G1 X27.839 Y158.782 E58.4418
G1 X28.371 Y157.928 E58.48865
G1 X29.154 Y156.792 E58.55289
G1 X29.696 Y156.042 E58.59598
G1 X30.015 Y155.629 E58.62028
G1 X30.902 Y154.542 E58.68561
G1 X32.125 Y153.174 E58.77105
G1 X33.513 Y151.73 E58.86432
G1 X150.019 Y35.227 E66.53634
M204 S3000
M205 X10 Y10
G1 F2400 E60.53634
;MESH:bottom.stl
G0 F3000 X153.282 Y38.49
G0 X154.056 Y39.264
G0 X135.08 Y58.442
G1 F2400 E66.53634
G0 F3000 X135.301 Y58.664
M204 S1800
M205 X8 Y8
;TYPE:WALL-OUTER
G1 F1421.3 X149.444 Y44.522 E67.5192
G1 F1460.9 X149.852 Y44.532 E67.53871
G1 F1500 X153.969 Y48.651 E67.80989
G1 X154.034 Y48.833 E67.81889
G1 X153.976 Y49.004 E67.8273
G1 X153.953 Y49.031 E67.82895
G1 X139.787 Y63.195 E68.76174
G1 X139.594 Y63.255 E68.77115
G1 X139.499 Y63.232 E68.7757
G1 X139.413 Y63.174 E68.78053
G1 X135.311 Y59.072 E69.05066
