;FLAVOR:Marlin
;TIME:5597
;Filament used: 4.25577m
;Layer height: 0.2
;MINX:22.607
;MINY:22.607
;MINZ:0.2
;MAXX:187.393
;MAXY:187.391
;MAXZ:8
;Generated with Cura_SteamEngine 5.0.0
M140 S60
M105
M190 S60
M104 S200
M105
M109 S200
M82 ;absolute extrusion mode
G21 ;metric values
G90 ;absolute positioning
M82 ;set extruder to absolute mode
M107 ;start with the fan off
G28 X0 Y0 ;move X/Y to min endstops
G28 Z0 ;move Z to min endstops
G1 Z15.0 F100 ;move the platform down 15mm
G92 E0 ;zero the extruded length
G1 F200 E3 ;extrude 3mm of feed stock
G92 E0 ;zero the extruded length again
G1 F100
G0 Y20 F100
M117 Printing...
G5
G92 E0
G92 E0
G1 F2400 E-6
;LAYER_COUNT:40
;LAYER:0
M107
M204 S3000
M205 X10 Y10
G1 F600 Z0.275
G0 F3000 X32.722 Y149.16 Z0.275
G1 F600 Z0.2
G0 F3000 X26.869 Y156.444
M204 S1800
M205 X8 Y8
;TYPE:SKIRT
G1 F2400 E0
G1 X27.363 Y155.646 E0.0437
G1 X27.701 Y155.14 E0.07204
G1 X28.231 Y154.381 E0.11514
G1 X28.836 Y153.545 E0.16319
G1 X29.184 Y153.098 E0.18957
G1 X30.033 Y152.057 E0.25212
G1 X30.235 Y151.822 E0.26655
G1 X31.444 Y150.484 E0.35052
G1 X32.722 Y149.16 E0.43621
G1 X149.241 Y32.643 E8.10912
G1 X150.583 Y31.35 E8.19589
G1 X151.462 Y30.546 E8.25136
G1 X152.675 Y29.528 E8.3251
G1 X153.758 Y28.676 E8.38926
G1 X154.194 Y28.361 E8.41431
G1 X155.008 Y27.795 E8.46047
G1 X155.842 Y27.238 E8.50717
G1 X156.127 Y27.058 E8.52287
G1 X157.212 Y26.415 E8.5816
G1 X157.974 Y25.985 E8.62234
G1 X158.273 Y25.826 E8.63811
G1 X159.379 Y25.279 E8.69556
G1 X160.124 Y24.93 E8.73387
G1 X160.445 Y24.791 E8.75016
G1 X161.584 Y24.333 E8.80732
G1 X162.245 Y24.083 E8.84023
G1 X162.617 Y23.955 E8.85855
G1 X163.875 Y23.568 E8.91983
G1 X164.47 Y23.4 E8.94862
G1 X164.849 Y23.305 E8.96682
G1 X166.213 Y23.012 E9.03178
G1 X166.918 Y22.881 E9.06517
G1 X167.748 Y22.768 E9.10417
G1 X169.202 Y22.635 E9.17216
G1 X169.742 Y22.61 E9.19733
G1 X170.406 Y22.607 E9.22825
G1 X171.542 Y22.631 E9.28116
G1 X172.136 Y22.672 E9.30889
G1 X173.216 Y22.8 E9.35953
G1 X173.948 Y22.907 E9.39397
G1 X174.617 Y23.042 E9.42575
G1 X175.524 Y23.278 E9.46939
G1 X176.258 Y23.488 E9.50494
G1 X176.929 Y23.721 E9.53802
G1 X177.733 Y24.053 E9.57852
G1 X178.372 Y24.336 E9.61106
G1 X179.042 Y24.682 E9.64618
G1 X179.98 Y25.241 E9.69702
G1 X181.019 Y25.956 E9.75575
G1 X182.001 Y26.766 E9.81502
G1 X182.88 Y27.598 E9.87138
G1 X183.25 Y28.013 E9.89727
G1 X183.871 Y28.752 E9.94222
G1 X184.346 Y29.394 E9.97941
G1 X185.021 Y30.446 E10.03761
G1 X185.605 Y31.51 E10.09412
G1 X186.061 Y32.54 E10.14658
G1 X186.308 Y33.15 E10.17722
G1 X186.537 Y33.82 E10.21019
G1 X186.782 Y34.697 E10.25259
G1 X186.963 Y35.409 E10.2868
G1 X187.084 Y36.001 E10.31493
G1 X187.185 Y36.669 E10.34639
G1 X187.314 Y37.704 E10.39496
G1 X187.36 Y38.304 E10.42298
G1 X187.393 Y39.541 E10.4806
G1 X187.387 Y40.334 E10.51753
G1 X187.362 Y40.853 E10.54172
G1 X187.266 Y41.908 E10.59105
G1 X187.185 Y42.633 E10.62502
G1 X187.062 Y43.411 E10.6617
G1 X186.761 Y44.88 E10.73152
G1 X186.653 Y45.323 E10.75275
G1 X186.259 Y46.704 E10.81962
G1 X186.049 Y47.372 E10.85223
G1 X185.915 Y47.756 E10.87117
G1 X185.374 Y49.153 E10.94092
G1 X185.077 Y49.861 E10.97667
G1 X184.931 Y50.184 E10.99318
G1 X184.349 Y51.376 E11.05495
G1 X183.953 Y52.143 E11.09514
G1 X183.781 Y52.454 E11.11169
G1 X183.133 Y53.553 E11.1711
G1 X182.674 Y54.296 E11.21176
G1 X182.413 Y54.693 E11.23389
G1 X181.769 Y55.619 E11.28641
G1 X181.164 Y56.455 E11.33446
G1 X180.816 Y56.902 E11.36084
G1 X179.967 Y57.943 E11.42339
G1 X179.765 Y58.178 E11.43782
G1 X178.556 Y59.516 E11.52179
G1 X177.278 Y60.84 E11.60747
G1 X60.759 Y177.357 E19.28038
G1 X59.423 Y178.644 E19.36676
G1 X58.768 Y179.251 E19.40834
G1 X58.543 Y179.45 E19.42233
G1 X57.322 Y180.476 E19.49659
G1 X56.242 Y181.324 E19.56053
G1 X55.806 Y181.639 E19.58558
G1 X54.99 Y182.207 E19.63187
G1 X54.155 Y182.764 E19.67861
G1 X53.875 Y182.941 E19.69404
G1 X52.785 Y183.587 E19.75304
G1 X52.022 Y184.017 E19.79382
G1 X51.726 Y184.174 E19.80942
G1 X50.617 Y184.722 E19.86702
G1 X49.873 Y185.07 E19.90527
G1 X49.555 Y185.208 E19.92141
G1 X48.426 Y185.662 E19.97807
G1 X47.763 Y185.914 E20.0111
G1 X47.379 Y186.046 E20.03
G1 X46.125 Y186.432 E20.0911
G1 X45.53 Y186.6 E20.11989
G1 X45.151 Y186.695 E20.13808
G1 X43.787 Y186.988 E20.20304
G1 X43.082 Y187.119 E20.23643
G1 X42.252 Y187.232 E20.27544
G1 X40.798 Y187.365 E20.34343
G1 X40.258 Y187.39 E20.3686
G1 X39.419 Y187.391 E20.40767
G1 X38.458 Y187.369 E20.45243
G1 X37.864 Y187.328 E20.48015
G1 X36.784 Y187.2 E20.53079
G1 X36.052 Y187.093 E20.56524
G1 X35.379 Y186.957 E20.59721
G1 X34.467 Y186.719 E20.6411
G1 X33.743 Y186.512 E20.67616
G1 X33.065 Y186.277 E20.70958
G1 X32.248 Y185.938 E20.75076
G1 X31.629 Y185.664 E20.78228
G1 X30.958 Y185.318 E20.81744
G1 X30.02 Y184.759 E20.86828
G1 X28.981 Y184.044 E20.92701
G1 X27.999 Y183.233 E20.98632
G1 X27.624 Y182.901 E21.00964
G1 X27.132 Y182.416 E21.04181
G1 X26.775 Y182.016 E21.06677
G1 X26.126 Y181.244 E21.11373
G1 X25.648 Y180.597 E21.15119
G1 X24.979 Y179.554 E21.20889
G1 X24.395 Y178.49 E21.26541
G1 X23.939 Y177.46 E21.31786
G1 X23.692 Y176.85 E21.3485
G1 X23.464 Y176.183 E21.38132
G1 X23.218 Y175.302 E21.42392
G1 X23.037 Y174.589 E21.45817
G1 X22.916 Y173.999 E21.48622
G1 X22.815 Y173.329 E21.51777
G1 X22.686 Y172.292 E21.56642
G1 X22.64 Y171.695 E21.59431
G1 X22.607 Y170.459 E21.65188
G1 X22.613 Y169.663 E21.68895
G1 X22.638 Y169.142 E21.71323
G1 X22.734 Y168.089 E21.76247
G1 X22.816 Y167.359 E21.79667
G1 X22.94 Y166.577 E21.83354
G1 X23.239 Y165.12 E21.9028
G1 X23.347 Y164.677 E21.92403
G1 X23.741 Y163.296 E21.9909
G1 X23.951 Y162.628 E22.02351
G1 X24.346 Y161.554 E22.07679
G1 X24.825 Y160.365 E22.13648
G1 X25.237 Y159.466 E22.18253
G1 X25.651 Y158.624 E22.22622
G1 X26.047 Y157.857 E22.26642
G1 X26.219 Y157.546 E22.28296
G1 X26.869 Y156.444 E22.34254
M204 S3000
M205 X10 Y10
G1 F2400 E16.34254
G0 F3000 X24.336 Y165.347
M204 S1800
M205 X8 Y8
G1 F2400 E22.34254
G1 X24.425 Y164.982 E22.36003
G1 X24.809 Y163.632 E22.42539
G1 X25.019 Y162.964 E22.45799
G1 X25.393 Y161.95 E22.50832
G1 X25.863 Y160.785 E22.56681
G1 X26.251 Y159.941 E22.61007
G1 X26.646 Y159.138 E22.65174
G1 X27.042 Y158.371 E22.69193
G1 X27.184 Y158.114 E22.7056
G1 X27.823 Y157.03 E22.7642
G1 X28.297 Y156.265 E22.8061
G1 X28.62 Y155.78 E22.83324
G1 X29.141 Y155.034 E22.87561
G1 X29.722 Y154.23 E22.9218
G1 X30.052 Y153.806 E22.94681
G1 X30.901 Y152.765 E23.00936
G1 X32.125 Y151.396 E23.09487
G1 X33.513 Y149.952 E23.18814
G1 X150.019 Y33.449 E30.86016
G1 X151.343 Y32.173 E30.94578
G1 X152.184 Y31.402 E30.99891
G1 X153.371 Y30.405 E31.07109
G1 X154.415 Y29.583 E31.13296
G1 X154.835 Y29.279 E31.1571
G1 X155.63 Y28.726 E31.2022
G1 X156.464 Y28.169 E31.2489
G1 X156.699 Y28.021 E31.26183
G1 X157.762 Y27.391 E31.31937
G1 X158.524 Y26.961 E31.36011
G1 X158.771 Y26.83 E31.37313
G1 X159.854 Y26.294 E31.42939
G1 X160.599 Y25.945 E31.4677
G1 X160.864 Y25.829 E31.48117
G1 X161.98 Y25.38 E31.53719
G1 X162.641 Y25.13 E31.57009
G1 X162.948 Y25.025 E31.5852
G1 X164.179 Y24.646 E31.64518
G1 X164.774 Y24.478 E31.67397
G1 X165.087 Y24.4 E31.68899
G1 X166.417 Y24.113 E31.75234
G1 X167.122 Y23.982 E31.78573
G1 X167.88 Y23.88 E31.82135
G1 X169.301 Y23.751 E31.88779
G1 X170.411 Y23.727 E31.93948
G1 X171.517 Y23.75 E31.99099
G1 X172.9 Y23.888 E32.05571
G1 X173.786 Y24.016 E32.0974
G1 X174.338 Y24.127 E32.12361
G1 X175.216 Y24.355 E32.16585
G1 X175.95 Y24.565 E32.2014
G1 X176.503 Y24.757 E32.22866
G1 X177.279 Y25.077 E32.26775
G1 X177.918 Y25.36 E32.30029
G1 X178.471 Y25.645 E32.32926
G1 X179.378 Y26.186 E32.37843
G1 X180.309 Y26.823 E32.43096
G1 X181.258 Y27.605 E32.48822
G1 X182.049 Y28.349 E32.53879
G1 X182.392 Y28.733 E32.56276
G1 X183.013 Y29.472 E32.60771
G1 X183.405 Y30.002 E32.6384
G1 X184.06 Y31.021 E32.69481
G1 X184.583 Y31.968 E32.74518
G1 X185.023 Y32.96 E32.79571
G1 X185.27 Y33.57 E32.82636
G1 X185.459 Y34.123 E32.85357
G1 X185.696 Y34.973 E32.89466
G1 X185.877 Y35.685 E32.92887
G1 X186.051 Y36.648 E32.97444
G1 X186.202 Y37.843 E33.03052
G1 X186.271 Y39.334 E33.10002
G1 X186.267 Y40.326 E33.14622
G1 X186.165 Y41.665 E33.20875
G1 X186.072 Y42.508 E33.24824
G1 X185.959 Y43.219 E33.28176
G1 X185.664 Y44.653 E33.34993
G1 X185.575 Y45.018 E33.36743
G1 X185.191 Y46.368 E33.43278
G1 X184.981 Y47.036 E33.46539
G1 X184.87 Y47.353 E33.48103
G1 X184.341 Y48.719 E33.54924
G1 X184.044 Y49.427 E33.58499
G1 X183.923 Y49.694 E33.59864
G1 X183.354 Y50.862 E33.65913
G1 X182.958 Y51.629 E33.69933
G1 X182.816 Y51.886 E33.713
G1 X182.178 Y52.968 E33.77149
G1 X181.736 Y53.685 E33.81071
G1 X181.493 Y54.054 E33.83128
G1 X180.859 Y54.966 E33.883
G1 X180.278 Y55.77 E33.92919
G1 X179.948 Y56.194 E33.95421
G1 X179.099 Y57.235 E34.01676
G1 X177.875 Y58.604 E34.10227
G1 X176.487 Y60.048 E34.19554
G1 X59.981 Y176.551 E41.86756
G1 X58.662 Y177.823 E41.95288
G1 X57.821 Y178.594 E42.00601
G1 X56.626 Y179.598 E42.07868
G1 X55.585 Y180.417 E42.14036
G1 X55.165 Y180.721 E42.1645
G1 X54.368 Y181.275 E42.2097
G1 X53.533 Y181.832 E42.25644
G1 X53.302 Y181.978 E42.26916
G1 X52.235 Y182.611 E42.32693
G1 X51.472 Y183.041 E42.36771
G1 X51.228 Y183.17 E42.38057
G1 X50.142 Y183.708 E42.437
G1 X49.398 Y184.056 E42.47525
G1 X49.136 Y184.17 E42.48855
G1 X48.028 Y184.616 E42.54417
G1 X47.365 Y184.868 E42.57719
G1 X47.049 Y184.976 E42.59274
G1 X45.821 Y185.354 E42.65257
G1 X45.226 Y185.522 E42.68136
G1 X44.913 Y185.6 E42.69638
G1 X43.583 Y185.887 E42.75974
G1 X42.878 Y186.018 E42.79313
G1 X42.12 Y186.12 E42.82874
G1 X40.699 Y186.249 E42.89518
G1 X39.589 Y186.273 E42.94688
G1 X38.483 Y186.25 E42.99839
G1 X37.1 Y186.112 E43.06311
G1 X36.214 Y185.984 E43.10479
G1 X35.659 Y185.873 E43.13115
G1 X34.775 Y185.643 E43.17368
G1 X34.051 Y185.436 E43.20874
G1 X33.492 Y185.241 E43.23631
G1 X32.702 Y184.914 E43.27612
G1 X32.083 Y184.64 E43.30764
G1 X31.529 Y184.355 E43.33665
G1 X30.622 Y183.814 E43.38583
G1 X29.691 Y183.177 E43.43836
G1 X28.741 Y182.394 E43.49568
G1 X28.366 Y182.062 E43.519
G1 X27.961 Y181.663 E43.54548
G1 X27.632 Y181.296 E43.56843
G1 X26.983 Y180.524 E43.61539
G1 X26.589 Y179.99 E43.64629
G1 X25.94 Y178.979 E43.70223
G1 X25.417 Y178.032 E43.75261
G1 X24.977 Y177.04 E43.80314
G1 X24.73 Y176.43 E43.83378
G1 X24.542 Y175.879 E43.86089
G1 X24.303 Y175.026 E43.90214
G1 X24.122 Y174.313 E43.93639
G1 X23.949 Y173.352 E43.98186
G1 X23.797 Y172.154 E44.03809
G1 X23.729 Y170.666 E44.10745
G1 X23.733 Y169.671 E44.15378
G1 X23.835 Y168.334 E44.21622
G1 X23.929 Y167.484 E44.25604
G1 X24.044 Y166.769 E44.28976
G1 X24.336 Y165.347 E44.35736
M204 S3000
M205 X10 Y10
G1 F2400 E38.35736
G0 F3000 X23.167 Y170.463
M204 S1800
M205 X8 Y8
G1 F2400 E44.35736
G1 X23.173 Y169.667 E44.39443
G1 X23.277 Y168.284 E44.45901
G1 X23.372 Y167.421 E44.49943
G1 X23.492 Y166.673 E44.53471
G1 X23.787 Y165.233 E44.60315
G1 X23.886 Y164.83 E44.62248
G1 X24.275 Y163.464 E44.68861
G1 X24.485 Y162.796 E44.72122
G1 X24.869 Y161.752 E44.77302
G1 X25.344 Y160.575 E44.83212
G1 X25.744 Y159.703 E44.87679
G1 X26.149 Y158.881 E44.91946
G1 X26.545 Y158.114 E44.95965
G1 X26.702 Y157.83 E44.97476
G1 X27.346 Y156.737 E45.03383
G1 X27.83 Y155.955 E45.07666
G1 X28.16 Y155.46 E45.10436
G1 X28.686 Y154.708 E45.14709
G1 X29.279 Y153.888 E45.19421
G1 X29.618 Y153.452 E45.21993
G1 X30.467 Y152.411 E45.28248
G1 X30.651 Y152.196 E45.29566
G1 X31.847 Y150.873 E45.3787
G1 X33.118 Y149.556 E45.46393
G1 X149.63 Y33.046 E53.13638
G1 X150.963 Y31.761 E53.22259
G1 X151.823 Y30.974 E53.27687
G1 X153.023 Y29.966 E53.34985
G1 X154.087 Y29.129 E53.41288
G1 X154.515 Y28.82 E53.43746
G1 X155.319 Y28.261 E53.48306
G1 X156.153 Y27.704 E53.52976
G1 X156.413 Y27.539 E53.5441
G1 X157.487 Y26.903 E53.60222
G1 X158.249 Y26.473 E53.64296
G1 X158.522 Y26.328 E53.65735
G1 X159.617 Y25.787 E53.71423
G1 X160.362 Y25.438 E53.75253
G1 X160.654 Y25.31 E53.76738
G1 X161.782 Y24.857 E53.82398
G1 X162.443 Y24.607 E53.85689
G1 X162.782 Y24.49 E53.87359
G1 X164.027 Y24.107 E53.93424
G1 X164.622 Y23.939 E53.96303
G1 X164.968 Y23.852 E53.97964
G1 X166.315 Y23.562 E54.0438
G1 X167.02 Y23.431 E54.07719
G1 X167.814 Y23.324 E54.1145
G1 X169.251 Y23.193 E54.18169
G1 X170.409 Y23.167 E54.23562
G1 X171.53 Y23.191 E54.28783
G1 X172.071 Y23.228 E54.31308
G1 X173.135 Y23.354 E54.36297
G1 X173.867 Y23.461 E54.39742
G1 X174.478 Y23.584 E54.42644
G1 X175.37 Y23.816 E54.46936
G1 X176.104 Y24.026 E54.50491
G1 X176.716 Y24.239 E54.53508
G1 X177.506 Y24.565 E54.57488
G1 X178.145 Y24.848 E54.60742
G1 X178.757 Y25.163 E54.63947
G1 X179.679 Y25.713 E54.68946
G1 X180.664 Y26.39 E54.74512
G1 X181.629 Y27.186 E54.80336
G1 X182.465 Y27.973 E54.85683
G1 X182.821 Y28.373 E54.88176
G1 X183.442 Y29.112 E54.92671
G1 X183.875 Y29.698 E54.96064
G1 X184.54 Y30.734 E55.01796
G1 X185.094 Y31.739 E55.0714
G1 X185.542 Y32.75 E55.12289
G1 X185.789 Y33.36 E55.15353
G1 X185.998 Y33.971 E55.1836
G1 X186.239 Y34.835 E55.22537
G1 X186.42 Y35.547 E55.25958
G1 X186.53 Y36.087 E55.28524
G1 X186.629 Y36.739 E55.31595
G1 X186.758 Y37.774 E55.36451
G1 X186.8 Y38.32 E55.39001
G1 X186.833 Y39.537 E55.4467
G1 X186.827 Y40.33 E55.48363
G1 X186.723 Y41.714 E55.54825
G1 X186.629 Y42.57 E55.58835
G1 X186.51 Y43.315 E55.62348
G1 X186.213 Y44.766 E55.69245
G1 X186.114 Y45.17 E55.71182
G1 X185.725 Y46.536 E55.77795
G1 X185.515 Y47.204 E55.81056
G1 X185.393 Y47.554 E55.82782
G1 X184.857 Y48.936 E55.89684
G1 X184.56 Y49.644 E55.93259
G1 X184.427 Y49.939 E55.94766
G1 X183.851 Y51.119 E56.0088
G1 X183.455 Y51.886 E56.04899
G1 X183.298 Y52.17 E56.0641
G1 X182.655 Y53.26 E56.12303
G1 X182.205 Y53.991 E56.163
G1 X181.953 Y54.374 E56.18435
G1 X181.314 Y55.292 E56.23643
G1 X180.721 Y56.112 E56.28355
G1 X180.382 Y56.548 E56.30927
G1 X179.533 Y57.589 E56.37182
G1 X179.349 Y57.804 E56.385
G1 X178.153 Y59.127 E56.46804
G1 X176.882 Y60.444 E56.55327
G1 X60.37 Y176.954 E64.22572
G1 X59.043 Y178.233 E64.31154
G1 X58.182 Y179.022 E64.36592
G1 X56.974 Y180.037 E64.43939
G1 X55.913 Y180.871 E64.50223
G1 X55.485 Y181.18 E64.52681
G1 X54.679 Y181.741 E64.57253
G1 X53.844 Y182.298 E64.61927
G1 X53.588 Y182.459 E64.63335
G1 X52.51 Y183.099 E64.69173
G1 X51.747 Y183.529 E64.73251
G1 X51.477 Y183.672 E64.74674
G1 X50.379 Y184.215 E64.80378
G1 X49.635 Y184.563 E64.84202
G1 X49.346 Y184.689 E64.8567
G1 X48.227 Y185.139 E64.91286
G1 X47.564 Y185.391 E64.94589
G1 X47.214 Y185.511 E64.96312
G1 X45.973 Y185.893 E65.02358
G1 X45.378 Y186.061 E65.05237
G1 X45.032 Y186.148 E65.06898
G1 X43.685 Y186.438 E65.13314
G1 X42.98 Y186.569 E65.16653
G1 X42.186 Y186.676 E65.20384
G1 X40.749 Y186.807 E65.27103
G1 X39.591 Y186.833 E65.32496
G1 X38.47 Y186.809 E65.37717
G1 X37.929 Y186.772 E65.40242
G1 X36.865 Y186.646 E65.45231
G1 X36.133 Y186.539 E65.48676
G1 X35.519 Y186.415 E65.51593
G1 X34.621 Y186.181 E65.55914
G1 X33.897 Y185.974 E65.5942
G1 X33.278 Y185.759 E65.62472
G1 X32.475 Y185.426 E65.66519
G1 X31.856 Y185.152 E65.69671
G1 X31.243 Y184.837 E65.72881
G1 X30.321 Y184.287 E65.7788
G1 X29.336 Y183.61 E65.83445
G1 X28.37 Y182.814 E65.89274
G1 X27.995 Y182.482 E65.91606
G1 X27.547 Y182.039 E65.9454
G1 X27.204 Y181.656 E65.96934
G1 X26.555 Y180.884 E66.0163
G1 X26.119 Y180.294 E66.05046
G1 X25.46 Y179.266 E66.10732
G1 X24.906 Y178.261 E66.16075
G1 X24.458 Y177.25 E66.21225
G1 X24.211 Y176.64 E66.24289
G1 X24.003 Y176.031 E66.27286
G1 X23.761 Y175.164 E66.31477
G1 X23.58 Y174.451 E66.34902
G1 X23.47 Y173.913 E66.37459
G1 X23.371 Y173.26 E66.40535
G1 X23.242 Y172.223 E66.45401
G1 X23.2 Y171.678 E66.47946
G1 X23.167 Y170.463 E66.53606
M204 S3000
M205 X10 Y10
G1 F2400 E60.53606
;MESH:top.stl
G0 F3000 X28.342 Y170.392
G0 X29.416 Y170.378
G1 F2400 E66.53606
G0 F3000 X29.279 Y169.808
M204 S1800
M205 X8 Y8
;TYPE:WALL-OUTER
G1 F1500 X29.3 Y171.428 E66.6115
G1 X29.506 Y172.958 E66.68338
G1 X29.887 Y174.378 E66.75184
G1 X30.449 Y175.704 E66.8189
G1 X31.179 Y176.888 E66.88367
G1 X32.068 Y177.93 E66.94745
G1 X33.11 Y178.82 E67.01126
G1 X34.293 Y179.549 E67.07596
G1 X35.622 Y180.116 E67.14324
G1 X37.041 Y180.494 E67.21162
G1 X38.574 Y180.7 E67.28365
G1 X40.192 Y180.721 E67.359
G1 X41.879 Y180.557 E67.43792
G1 X43.619 Y180.208 E67.52055
G1 X45.384 Y179.683 E67.6063
G1 X47.163 Y178.978 E67.6954
